P3
284 178
255
0 177 210 0 177 210 0 177 210 0 177 210 0 177 210 0 177 210 0 177 210 0 177 210 0 177 210 0 177 210 0 177 210 0 177 210 0 177 210 0 177 210 0 177 210 0 177 210 0 177 210 0 177 210 0 177 210 0 177 210 0 177 210 0 177 210 0 177 210 0 177 210 0 179 211 0 179 211 0 179 211 0 179 211 0 179 211 0 179 211 0 179 211 0 179 211 0 178 214 0 178 214 0 178 214 0 178 214 0 178 214 0 178 214 0 178 214 0 178 214 0 178 214 0 178 214 0 178 214 0 178 214 0 178 214 0 178 214 0 178 214 0 178 214 0 178 214 0 178 214 0 178 214 0 178 214 0 178 214 0 178 214 0 178 214 0 178 214 1 179 215 1 179 215 1 179 215 1 179 215 1 179 215 1 179 215 1 179 215 1 179 215 1 179 215 1 179 215 1 179 215 1 179 215 1 179 215 1 179 215 1 179 215 1 179 215 1 179 215 1 179 215 1 179 215 1 179 215 1 179 215 1 179 215 1 179 215 1 179 215 1 179 215 1 179 215 1 179 215 1 179 215 1 179 215 1 179 215 1 179 215 1 179 215 0 182 216 0 182 216 0 182 216 0 182 216 0 182 216 0 182 216 0 182 216 0 182 216 1 185 219 1 185 219 1 185 219 0 187 220 0 188 220 0 188 220 0 189 221 0 189 221 0 187 220 0 187 220 0 187 220 0 187 220 0 187 220 0 187 220 0 187 220 0 187 220 0 187 220 0 187 220 0 187 220 0 187 220 0 187 220 0 187 220 0 187 220 0 187 220 1 188 221 1 188 221 1 188 221 1 188 221 1 188 221 1 188 221 1 188 221 1 188 221 1 188 221 1 188 221 1 188 221 1 188 221 1 188 221 1 188 221 1 188 221 1 188 221 0 189 221 0 189 221 0 189 221 1 190 222 1 190 222 2 191 223 2 191 223 2 191 223 1 190 222 1 190 222 1 190 222 1 190 222 1 190 222 1 190 222 1 190 222 1 190 222 1 190 222 1 190 222 1 190 222 1 190 222 1 190 222 1 190 222 1 190 222 1 190 222 1 190 222 1 190 222 1 190 222 1 190 222 1 190 222 1 190 222 1 190 222 1 190 222 1 190 222 1 190 222 1 190 222 1 190 222 1 190 222 1 190 222 1 190 222 1 190 222 0 189 221 0 189 221 0 189 221 0 189 221 0 189 221 0 189 221 0 189 221 0 189 221 2 189 222 2 189 222 2 189 222 2 189 222 2 189 222 2 189 222 2 189 222 2 189 222 1 191 223 1 191 223 1 191 223 1 191 223 1 191 223 1 191 223 1 191 223 1 191 223 2 189 222 2 189 222 2 189 222 3 190 223 
3 190 223 4 191 224 4 191 224 4 191 224 0 193 219 0 192 219 0 193 220 2 193 221 4 193 222 4 193 222 6 194 223 6 194 223 11 191 224 12 192 225 12 192 225 13 192 225 15 192 226 15 192 226 17 191 226 18 192 227 16 194 224 16 194 224 16 194 224 16 194 224 16 194 224 16 194 224 16 194 224 16 194 224 13 192 225 13 192 225 12 191 224 11 191 224 8 191 223 7 190 222 5 190 221 5 190 221 7 191 219 9 193 221 13 194 223 15 196 225 16 195 225 16 194 224 14 192 222 15 190 221 22 190 227 19 192 226 15 194 226 15 196 225 15 196 225 19 194 223 25 192 224 28 191 222 27 192 220 27 192 220 27 192 220 27 192 220 27 192 220 27 192 220 27 192 220 27 192 220 21 194 224 21 194 224 21 194 224 21 194 224 21 194 224 21 194 224 21 194 224 21 194 224 21 191 227 21 191 227 21 191 227 22 192 228 22 192 228 22 192 228 23 193 229 23 193 229 23 193 226 23 193 226 23 193 226 23 193 226 
0 177 210 0 177 210 0 177 210 0 177 210 0 177 210 0 177 210 0 177 210 0 177 210 0 177 210 0 177 210 0 177 210 0 177 210 0 177 210 0 177 210 0 177 210 0 177 210 0 177 210 0 177 210 0 177 210 0 177 210 0 177 210 0 177 210 0 177 210 0 177 210 0 179 211 0 179 211 0 179 211 0 179 211 0 179 211 0 179 211 0 179 211 0 179 211 0 178 214 0 178 214 0 178 214 0 178 214 0 178 214 0 178 214 0 178 214 0 178 214 0 178 214 0 178 214 0 178 214 0 178 214 0 178 214 0 178 214 0 178 214 0 178 214 0 178 214 0 178 214 0 178 214 0 178 214 0 178 214 0 178 214 0 178 214 0 178 214 1 179 215 1 179 215 1 179 215 1 179 215 1 179 215 1 179 215 1 179 215 1 179 215 1 179 215 1 179 215 1 179 215 1 179 215 1 179 215 1 179 215 1 179 215 1 179 215 1 179 215 1 179 215 1 179 215 1 179 215 1 179 215 1 179 215 1 179 215 1 179 215 1 179 215 1 179 215 1 179 215 1 179 215 1 179 215 1 179 215 1 179 215 1 179 215 0 182 216 0 182 216 0 182 216 0 182 216 0 182 216 0 182 216 0 182 216 0 182 216 1 185 219 1 185 219 1 185 219 0 187 220 0 188 220 0 188 220 0 189 221 0 189 221 0 187 220 0 187 220 0 187 220 0 187 220 0 187 220 0 187 220 0 187 220 0 187 220 0 187 220 0 187 220 0 187 220 0 187 220 0 187 220 0 187 220 0 187 220 0 187 220 1 188 221 1 188 221 1 188 221 1 188 221 1 188 221 1 188 221 1 188 221 1 188 221 1 188 221 1 188 221 1 188 221 1 188 221 1 188 221 1 188 221 1 188 221 1 188 221 0 189 221 0 189 221 0 189 221 1 190 222 1 190 222 2 191 223 2 191 223 2 191 223 1 190 222 1 190 222 1 190 222 1 190 222 1 190 222 1 190 222 1 190 222 1 190 222 1 190 222 1 190 222 1 190 222 1 190 222 1 190 222 1 190 222 1 190 222 1 190 222 1 190 222 1 190 222 1 190 222 1 190 222 1 190 222 1 190 222 1 190 222 1 190 222 1 190 222 1 190 222 1 190 222 1 190 222 1 190 222 1 190 222 1 190 222 1 190 222 0 189 221 0 189 221 0 189 221 0 189 221 0 189 221 0 189 221 0 189 221 0 189 221 2 189 222 2 189 222 2 189 222 2 189 222 2 189 222 2 189 222 2 189 222 2 189 222 1 191 223 1 191 223 1 191 223 1 191 223 1 191 223 1 191 223 1 191 223 1 191 223 2 189 222 2 189 222 3 190 223 3 190 223 
3 190 223 4 191 224 4 191 224 4 191 224 0 191 219 1 192 220 2 191 220 3 192 221 5 193 222 8 193 223 8 193 223 9 192 223 12 193 224 12 193 224 13 192 224 14 193 225 15 192 225 17 191 225 18 192 226 18 192 226 18 193 224 18 193 224 18 193 224 18 193 224 18 193 224 18 193 224 18 193 224 18 193 224 15 192 225 14 191 224 13 192 224 11 192 223 10 191 222 7 190 221 7 190 221 6 191 221 9 190 219 11 192 221 13 194 223 16 195 225 18 196 226 16 194 224 17 192 223 15 190 221 21 191 227 19 192 226 16 193 226 16 195 225 16 195 225 20 193 223 25 192 224 28 191 222 27 192 220 27 192 220 27 192 220 27 192 220 27 192 220 27 192 220 27 192 220 27 192 220 21 194 224 21 194 224 21 194 224 21 194 224 21 194 224 21 194 224 21 194 224 21 194 224 21 191 226 21 191 226 21 191 226 22 192 227 22 192 227 23 193 228 23 193 228 23 193 228 23 193 226 23 193 226 23 193 226 23 193 226 
0 177 210 0 177 210 0 177 210 0 177 210 0 177 210 0 177 210 0 177 210 0 177 210 0 177 210 0 177 210 0 177 210 0 177 210 0 177 210 0 177 210 0 177 210 0 177 210 0 177 210 0 177 210 0 177 210 0 177 210 0 177 210 0 177 210 0 177 210 0 177 210 0 179 211 0 179 211 0 179 211 0 179 211 0 179 211 0 179 211 0 179 211 0 179 211 0 178 214 0 178 214 0 178 214 0 178 214 0 178 214 0 178 214 0 178 214 0 178 214 0 178 214 0 178 214 0 178 214 0 178 214 0 178 214 0 178 214 0 178 214 0 178 214 0 178 214 0 178 214 0 178 214 0 178 214 0 178 214 0 178 214 0 178 214 0 178 214 1 179 215 1 179 215 1 179 215 1 179 215 1 179 215 1 179 215 1 179 215 1 179 215 1 179 215 1 179 215 1 179 215 1 179 215 1 179 215 1 179 215 1 179 215 1 179 215 1 179 215 1 179 215 1 179 215 1 179 215 1 179 215 1 179 215 1 179 215 1 179 215 1 179 215 1 179 215 1 179 215 1 179 215 1 179 215 1 179 215 1 179 215 1 179 215 0 182 216 0 182 216 0 182 216 0 182 216 0 182 216 0 182 216 0 182 216 0 182 216 1 185 219 1 185 219 1 185 219 0 187 220 0 188 220 0 188 220 0 189 221 0 189 221 0 187 220 0 187 220 0 187 220 0 187 220 0 187 220 0 187 220 0 187 220 0 187 220 0 187 220 0 187 220 0 187 220 0 187 220 0 187 220 0 187 220 0 187 220 0 187 220 1 188 221 1 188 221 1 188 221 1 188 221 1 188 221 1 188 221 1 188 221 1 188 221 1 188 221 1 188 221 1 188 221 1 188 221 1 188 221 1 188 221 1 188 221 1 188 221 0 189 221 0 189 221 0 189 221 1 190 222 1 190 222 2 191 223 2 191 223 2 191 223 1 190 222 1 190 222 1 190 222 1 190 222 1 190 222 1 190 222 1 190 222 1 190 222 1 190 222 1 190 222 1 190 222 1 190 222 1 190 222 1 190 222 1 190 222 1 190 222 1 190 222 1 190 222 1 190 222 1 190 222 1 190 222 1 190 222 1 190 222 1 190 222 1 190 222 1 190 222 1 190 222 1 190 222 1 190 222 1 190 222 1 190 222 1 190 222 0 189 221 0 189 221 0 189 221 0 189 221 0 189 221 0 189 221 0 189 221 0 189 221 2 189 222 2 189 222 2 189 222 2 189 222 2 189 222 2 189 222 2 189 222 2 189 222 2 191 223 2 191 223 2 191 223 2 191 223 2 191 223 2 191 223 2 191 223 2 191 223 3 190 223 3 190 223 3 190 223 3 190 223 
4 191 224 4 191 224 4 191 224 5 192 225 3 191 220 5 190 220 6 191 221 7 190 221 10 191 222 11 192 223 12 191 223 13 192 224 12 193 224 13 192 224 13 192 224 15 192 225 15 192 225 18 192 226 19 192 226 19 192 226 19 192 224 19 192 224 19 192 224 19 192 224 19 192 224 19 192 224 19 192 224 19 192 224 18 192 226 17 191 225 15 192 225 13 192 224 12 191 223 11 192 223 10 191 222 8 191 222 10 189 219 12 191 221 15 194 224 17 195 225 20 195 226 19 194 225 18 191 223 16 189 221 21 191 227 19 192 226 18 192 226 17 195 225 19 194 225 22 193 223 25 192 224 27 192 222 27 192 222 27 192 222 27 192 222 27 192 222 27 192 222 27 192 222 27 192 222 27 192 222 23 194 224 23 194 224 23 194 224 23 194 224 23 194 224 23 194 224 23 194 224 23 194 224 22 190 226 22 190 226 23 191 227 23 191 227 24 192 228 24 192 228 24 192 228 24 192 228 24 193 226 24 193 226 24 193 226 24 193 226 
0 177 210 0 177 210 0 177 210 0 177 210 0 177 210 0 177 210 0 177 210 0 177 210 0 177 210 0 177 210 0 177 210 0 177 210 0 177 210 0 177 210 0 177 210 0 177 210 0 177 210 0 177 210 0 177 210 0 177 210 0 177 210 0 177 210 0 177 210 0 177 210 0 179 211 0 179 211 0 179 211 0 179 211 0 179 211 0 179 211 0 179 211 0 179 211 0 178 214 0 178 214 0 178 214 0 178 214 0 178 214 0 178 214 0 178 214 0 178 214 0 178 214 0 178 214 0 178 214 0 178 214 0 178 214 0 178 214 0 178 214 0 178 214 0 178 214 0 178 214 0 178 214 0 178 214 0 178 214 0 178 214 0 178 214 0 178 214 1 179 215 1 179 215 1 179 215 1 179 215 1 179 215 1 179 215 1 179 215 1 179 215 1 179 215 1 179 215 1 179 215 1 179 215 1 179 215 1 179 215 1 179 215 1 179 215 1 179 215 1 179 215 1 179 215 1 179 215 1 179 215 1 179 215 1 179 215 1 179 215 1 179 215 1 179 215 1 179 215 1 179 215 1 179 215 1 179 215 1 179 215 1 179 215 0 182 216 0 182 216 0 182 216 0 182 216 0 182 216 0 182 216 0 182 216 0 182 216 1 185 219 1 185 219 1 185 219 0 187 220 0 188 220 0 188 220 0 189 221 0 189 221 0 187 220 0 187 220 0 187 220 0 187 220 0 187 220 0 187 220 0 187 220 0 187 220 0 187 220 0 187 220 0 187 220 0 187 220 0 187 220 0 187 220 0 187 220 0 187 220 1 188 221 1 188 221 1 188 221 1 188 221 1 188 221 1 188 221 1 188 221 1 188 221 1 188 221 1 188 221 1 188 221 1 188 221 1 188 221 1 188 221 1 188 221 1 188 221 0 189 221 0 189 221 0 189 221 1 190 222 1 190 222 2 191 223 2 191 223 2 191 223 1 190 222 1 190 222 1 190 222 1 190 222 1 190 222 1 190 222 1 190 222 1 190 222 1 190 222 1 190 222 1 190 222 1 190 222 1 190 222 1 190 222 1 190 222 1 190 222 1 190 222 1 190 222 1 190 222 1 190 222 1 190 222 1 190 222 1 190 222 1 190 222 1 190 222 1 190 222 1 190 222 1 190 222 1 190 222 1 190 222 1 190 222 1 190 222 1 190 222 1 190 222 1 190 222 1 190 222 1 190 222 1 190 222 1 190 222 1 190 222 2 189 222 2 189 222 2 189 222 2 189 222 2 189 222 2 189 222 2 189 222 2 189 222 2 191 223 2 191 223 2 191 223 2 191 223 2 191 223 2 191 223 2 191 223 2 191 223 3 190 223 3 190 223 3 190 223 4 191 224 
4 191 224 5 192 225 5 192 225 5 192 225 6 189 220 8 189 220 9 190 221 11 190 222 13 190 223 13 190 223 16 190 224 16 190 224 13 192 222 14 193 223 15 193 223 15 193 223 18 193 224 19 192 224 19 192 224 20 193 225 22 192 225 22 192 225 22 192 225 22 192 225 22 192 225 22 192 225 22 192 225 22 192 225 20 193 225 20 193 225 18 193 224 17 192 223 15 193 223 13 192 222 12 191 221 12 191 221 12 190 220 14 192 222 18 193 224 20 195 226 21 194 226 22 192 225 20 190 223 19 189 222 19 191 227 19 192 226 19 192 226 20 193 225 22 192 225 23 192 223 25 192 224 27 192 222 25 193 222 25 193 222 25 193 222 25 193 222 25 193 222 25 193 222 25 193 222 25 193 222 23 194 224 23 194 224 23 194 224 23 194 224 23 194 224 23 194 224 23 194 224 23 194 224 23 192 225 23 192 225 23 192 225 24 193 226 24 193 226 24 193 226 25 194 227 25 194 227 25 194 225 25 194 225 25 194 225 25 194 225 
0 177 210 0 177 210 0 177 210 0 177 210 0 177 210 0 177 210 0 177 210 0 177 210 0 177 210 0 177 210 0 177 210 0 177 210 0 177 210 0 177 210 0 177 210 0 177 210 0 177 210 0 177 210 0 177 210 0 177 210 0 177 210 0 177 210 0 177 210 0 177 210 0 179 211 0 179 211 0 179 211 0 179 211 0 179 211 0 179 211 0 179 211 0 179 211 0 178 214 0 178 214 0 178 214 0 178 214 0 178 214 0 178 214 0 178 214 0 178 214 0 178 214 0 178 214 0 178 214 0 178 214 0 178 214 0 178 214 0 178 214 0 178 214 0 178 214 0 178 214 0 178 214 0 178 214 0 178 214 0 178 214 0 178 214 0 178 214 1 179 215 1 179 215 1 179 215 1 179 215 1 179 215 1 179 215 1 179 215 1 179 215 1 179 215 1 179 215 1 179 215 1 179 215 1 179 215 1 179 215 1 179 215 1 179 215 1 179 215 1 179 215 1 179 215 1 179 215 1 179 215 1 179 215 1 179 215 1 179 215 1 179 215 1 179 215 1 179 215 1 179 215 1 179 215 1 179 215 1 179 215 1 179 215 0 182 216 0 182 216 0 182 216 0 182 216 0 182 216 0 182 216 0 182 216 0 182 216 1 185 219 1 185 219 1 185 219 0 187 220 0 188 220 0 188 220 0 189 221 0 189 221 0 187 220 0 187 220 0 187 220 0 187 220 0 187 220 0 187 220 0 187 220 0 187 220 0 187 220 0 187 220 0 187 220 0 187 220 0 187 220 0 187 220 0 187 220 0 187 220 1 188 221 1 188 221 1 188 221 1 188 221 1 188 221 1 188 221 1 188 221 1 188 221 1 188 221 1 188 221 1 188 221 1 188 221 1 188 221 1 188 221 1 188 221 1 188 221 0 189 221 0 189 221 0 189 221 1 190 222 1 190 222 2 191 223 2 191 223 2 191 223 1 190 222 1 190 222 1 190 222 1 190 222 1 190 222 1 190 222 1 190 222 1 190 222 1 190 222 1 190 222 1 190 222 1 190 222 1 190 222 1 190 222 1 190 222 1 190 222 1 190 222 1 190 222 1 190 222 1 190 222 1 190 222 1 190 222 1 190 222 1 190 222 1 190 222 1 190 222 1 190 222 1 190 222 1 190 222 1 190 222 1 190 222 1 190 222 1 190 222 1 190 222 1 190 222 1 190 222 1 190 222 1 190 222 1 190 222 1 190 222 2 189 222 2 189 222 2 189 222 2 189 222 2 189 222 2 189 222 2 189 222 2 189 222 3 190 223 3 190 223 3 190 223 3 190 223 3 190 223 3 190 223 3 190 223 3 190 223 3 190 223 4 191 224 4 191 224 4 191 224 
5 192 225 5 192 225 5 192 225 6 193 226 9 190 221 9 190 221 10 189 221 12 189 222 13 190 223 16 190 224 16 190 224 18 191 225 15 193 223 15 193 223 15 193 223 18 193 224 19 192 224 20 193 225 22 192 225 22 192 225 23 192 225 23 192 225 23 192 225 23 192 225 23 192 225 23 192 225 23 192 225 23 192 225 24 194 227 23 193 226 23 193 226 20 193 225 18 193 224 17 192 223 15 193 223 14 192 222 14 189 220 16 191 222 19 192 224 23 193 226 24 194 227 24 193 226 22 191 224 21 188 222 18 192 227 19 192 226 21 191 226 23 192 225 24 191 225 24 191 223 25 192 224 25 193 222 24 193 224 24 193 224 24 193 224 24 193 224 24 193 224 24 193 224 24 193 224 24 193 224 24 193 224 24 193 224 24 193 224 24 193 224 24 193 224 24 193 224 24 193 224 24 193 224 24 191 225 24 191 225 25 192 226 25 192 226 25 192 226 26 193 227 26 193 227 26 193 227 26 194 223 26 194 223 26 194 223 26 194 223 
0 177 210 0 177 210 0 177 210 0 177 210 0 177 210 0 177 210 0 177 210 0 177 210 0 177 210 0 177 210 0 177 210 0 177 210 0 177 210 0 177 210 0 177 210 0 177 210 0 177 210 0 177 210 0 177 210 0 177 210 0 177 210 0 177 210 0 177 210 0 177 210 0 179 211 0 179 211 0 179 211 0 179 211 0 179 211 0 179 211 0 179 211 0 179 211 0 178 214 0 178 214 0 178 214 0 178 214 0 178 214 0 178 214 0 178 214 0 178 214 0 178 214 0 178 214 0 178 214 0 178 214 0 178 214 0 178 214 0 178 214 0 178 214 0 178 214 0 178 214 0 178 214 0 178 214 0 178 214 0 178 214 0 178 214 0 178 214 1 179 215 1 179 215 1 179 215 1 179 215 1 179 215 1 179 215 1 179 215 1 179 215 1 179 215 1 179 215 1 179 215 1 179 215 1 179 215 1 179 215 1 179 215 1 179 215 1 179 215 1 179 215 1 179 215 1 179 215 1 179 215 1 179 215 1 179 215 1 179 215 1 179 215 1 179 215 1 179 215 1 179 215 1 179 215 1 179 215 1 179 215 1 179 215 0 182 216 0 182 216 0 182 216 0 182 216 0 182 216 0 182 216 0 182 216 0 182 216 1 185 219 1 185 219 1 185 219 0 187 220 0 188 220 0 188 220 0 189 221 0 189 221 0 187 220 0 187 220 0 187 220 0 187 220 0 187 220 0 187 220 0 187 220 0 187 220 0 187 220 0 187 220 0 187 220 0 187 220 0 187 220 0 187 220 0 187 220 0 187 220 1 188 221 1 188 221 1 188 221 1 188 221 1 188 221 1 188 221 1 188 221 1 188 221 1 188 221 1 188 221 1 188 221 1 188 221 1 188 221 1 188 221 1 188 221 1 188 221 0 189 221 0 189 221 0 189 221 1 190 222 1 190 222 2 191 223 2 191 223 2 191 223 1 190 222 1 190 222 1 190 222 1 190 222 1 190 222 1 190 222 1 190 222 1 190 222 1 190 222 1 190 222 1 190 222 1 190 222 1 190 222 1 190 222 1 190 222 1 190 222 1 190 222 1 190 222 1 190 222 1 190 222 1 190 222 1 190 222 1 190 222 1 190 222 1 190 222 1 190 222 1 190 222 1 190 222 1 190 222 1 190 222 1 190 222 1 190 222 2 191 223 2 191 223 2 191 223 2 191 223 2 191 223 2 191 223 2 191 223 2 191 223 2 189 222 2 189 222 2 189 222 2 189 222 2 189 222 2 189 222 2 189 222 2 189 222 5 189 223 5 189 223 5 189 223 5 189 223 5 189 223 5 189 223 5 189 223 5 189 223 4 191 224 4 191 224 4 191 224 5 192 225 
5 192 225 6 193 226 6 193 226 6 193 226 7 190 221 9 190 221 10 191 222 12 191 223 13 190 223 14 191 224 17 191 225 17 191 225 15 193 221 16 194 222 18 193 222 19 192 222 20 193 223 22 193 223 22 193 223 23 192 223 25 192 226 25 192 226 25 192 226 25 192 226 25 192 226 25 192 226 25 192 226 25 192 226 27 194 226 26 195 226 25 194 225 23 194 224 22 193 223 20 193 223 18 193 222 18 193 222 16 189 221 19 189 222 22 192 225 25 194 227 26 193 227 25 192 226 25 189 224 24 188 223 18 192 227 19 192 226 22 190 226 26 190 225 27 190 225 26 191 223 25 192 224 24 193 222 24 193 226 24 193 226 24 193 226 24 193 226 24 193 226 24 193 226 24 193 226 24 193 226 24 193 224 24 193 224 24 193 224 24 193 224 24 193 224 24 193 224 24 193 224 24 193 224 27 192 224 27 192 224 27 192 224 27 192 224 28 193 225 28 193 225 29 194 226 29 194 226 29 194 224 29 194 224 29 194 224 29 194 224 
0 177 210 0 177 210 0 177 210 0 177 210 0 177 210 0 177 210 0 177 210 0 177 210 0 177 210 0 177 210 0 177 210 0 177 210 0 177 210 0 177 210 0 177 210 0 177 210 0 177 210 0 177 210 0 177 210 0 177 210 0 177 210 0 177 210 0 177 210 0 177 210 0 179 211 0 179 211 0 179 211 0 179 211 0 179 211 0 179 211 0 179 211 0 179 211 0 178 214 0 178 214 0 178 214 0 178 214 0 178 214 0 178 214 0 178 214 0 178 214 0 178 214 0 178 214 0 178 214 0 178 214 0 178 214 0 178 214 0 178 214 0 178 214 0 178 214 0 178 214 0 178 214 0 178 214 0 178 214 0 178 214 0 178 214 0 178 214 1 179 215 1 179 215 1 179 215 1 179 215 1 179 215 1 179 215 1 179 215 1 179 215 1 179 215 1 179 215 1 179 215 1 179 215 1 179 215 1 179 215 1 179 215 1 179 215 1 179 215 1 179 215 1 179 215 1 179 215 1 179 215 1 179 215 1 179 215 1 179 215 1 179 215 1 179 215 1 179 215 1 179 215 1 179 215 1 179 215 1 179 215 1 179 215 0 182 216 0 182 216 0 182 216 0 182 216 0 182 216 0 182 216 0 182 216 0 182 216 1 185 219 1 185 219 1 185 219 0 187 220 0 188 220 0 188 220 0 189 221 0 189 221 0 187 220 0 187 220 0 187 220 0 187 220 0 187 220 0 187 220 0 187 220 0 187 220 0 187 220 0 187 220 0 187 220 0 187 220 0 187 220 0 187 220 0 187 220 0 187 220 1 188 221 1 188 221 1 188 221 1 188 221 1 188 221 1 188 221 1 188 221 1 188 221 1 188 221 1 188 221 1 188 221 1 188 221 1 188 221 1 188 221 1 188 221 1 188 221 0 189 221 0 189 221 0 189 221 1 190 222 1 190 222 2 191 223 2 191 223 2 191 223 1 190 222 1 190 222 1 190 222 1 190 222 1 190 222 1 190 222 1 190 222 1 190 222 1 190 222 1 190 222 1 190 222 1 190 222 1 190 222 1 190 222 1 190 222 1 190 222 1 190 222 1 190 222 1 190 222 1 190 222 1 190 222 1 190 222 1 190 222 1 190 222 1 190 222 1 190 222 1 190 222 1 190 222 1 190 222 1 190 222 1 190 222 1 190 222 2 191 223 2 191 223 2 191 223 2 191 223 2 191 223 2 191 223 2 191 223 2 191 223 2 189 222 2 189 222 2 189 222 2 189 222 2 189 222 2 189 222 2 189 222 2 189 222 5 189 223 5 189 223 5 189 223 5 189 223 5 189 223 5 189 223 5 189 223 5 189 223 4 191 224 4 191 224 5 192 225 5 192 225 
5 192 225 6 193 226 6 193 226 6 193 226 6 191 221 7 192 222 8 191 222 9 192 223 12 193 224 14 193 225 14 193 225 15 192 225 18 193 222 18 193 222 18 193 222 20 193 223 22 193 223 22 193 223 24 193 224 24 193 224 27 191 226 27 191 226 27 191 226 27 191 226 27 191 226 27 191 226 27 191 226 27 191 226 30 195 227 28 195 227 27 194 226 25 194 225 24 193 224 23 194 224 20 193 223 20 193 223 18 188 221 21 190 223 23 192 225 26 193 227 29 193 228 27 191 226 27 190 225 25 188 223 16 193 227 19 192 226 23 190 226 29 189 225 29 189 225 27 190 223 25 192 224 24 193 222 23 193 226 23 193 226 23 193 226 23 193 226 23 193 226 23 193 226 23 193 226 23 193 226 25 192 224 25 192 224 25 192 224 25 192 224 25 192 224 25 192 224 25 192 224 25 192 224 27 192 224 27 192 224 27 192 224 28 193 225 28 193 225 29 194 226 29 194 226 29 194 226 29 194 222 29 194 222 29 194 222 29 194 222 
0 177 210 0 177 210 0 177 210 0 177 210 0 177 210 0 177 210 0 177 210 0 177 210 0 177 210 0 177 210 0 177 210 0 177 210 0 177 210 0 177 210 0 177 210 0 177 210 0 177 210 0 177 210 0 177 210 0 177 210 0 177 210 0 177 210 0 177 210 0 177 210 0 179 211 0 179 211 0 179 211 0 179 211 0 179 211 0 179 211 0 179 211 0 179 211 0 178 214 0 178 214 0 178 214 0 178 214 0 178 214 0 178 214 0 178 214 0 178 214 0 178 214 0 178 214 0 178 214 0 178 214 0 178 214 0 178 214 0 178 214 0 178 214 0 178 214 0 178 214 0 178 214 0 178 214 0 178 214 0 178 214 0 178 214 0 178 214 1 179 215 1 179 215 1 179 215 1 179 215 1 179 215 1 179 215 1 179 215 1 179 215 1 179 215 1 179 215 1 179 215 1 179 215 1 179 215 1 179 215 1 179 215 1 179 215 1 179 215 1 179 215 1 179 215 1 179 215 1 179 215 1 179 215 1 179 215 1 179 215 1 179 215 1 179 215 1 179 215 1 179 215 1 179 215 1 179 215 1 179 215 1 179 215 0 182 216 0 182 216 0 182 216 0 182 216 0 182 216 0 182 216 0 182 216 0 182 216 1 185 219 1 185 219 1 185 219 0 187 220 0 188 220 0 188 220 0 189 221 0 189 221 0 187 220 0 187 220 0 187 220 0 187 220 0 187 220 0 187 220 0 187 220 0 187 220 0 187 220 0 187 220 0 187 220 0 187 220 0 187 220 0 187 220 0 187 220 0 187 220 1 188 221 1 188 221 1 188 221 1 188 221 1 188 221 1 188 221 1 188 221 1 188 221 1 188 221 1 188 221 1 188 221 1 188 221 1 188 221 1 188 221 1 188 221 1 188 221 0 189 221 0 189 221 0 189 221 1 190 222 1 190 222 2 191 223 2 191 223 2 191 223 1 190 222 1 190 222 1 190 222 1 190 222 1 190 222 1 190 222 1 190 222 1 190 222 1 190 222 1 190 222 1 190 222 1 190 222 1 190 222 1 190 222 1 190 222 1 190 222 1 190 222 1 190 222 1 190 222 1 190 222 1 190 222 1 190 222 1 190 222 1 190 222 1 190 222 1 190 222 1 190 222 1 190 222 1 190 222 1 190 222 1 190 222 1 190 222 2 191 223 2 191 223 2 191 223 2 191 223 2 191 223 2 191 223 2 191 223 2 191 223 2 189 222 2 189 222 2 189 222 2 189 222 2 189 222 2 189 222 2 189 222 2 189 222 5 189 223 5 189 223 5 189 223 5 189 223 5 189 223 5 189 223 5 189 223 5 189 223 4 191 224 5 192 225 5 192 225 5 192 225 
6 193 226 6 193 226 6 193 226 7 194 227 5 193 222 5 193 222 7 192 222 8 193 223 10 193 224 13 194 225 13 194 225 14 195 226 18 193 220 18 193 220 19 193 220 20 194 221 22 193 221 24 193 222 24 193 222 24 193 222 28 191 226 28 191 226 28 191 226 28 191 226 28 191 226 28 191 226 28 191 226 28 191 226 30 195 225 30 195 225 28 196 225 27 195 224 25 194 223 23 194 222 23 194 222 22 193 221 19 188 221 21 190 223 24 191 225 26 193 227 29 193 228 29 192 227 27 190 225 25 188 223 16 193 227 19 192 226 25 189 226 30 188 225 30 188 225 29 189 223 25 192 224 23 194 222 23 193 226 23 193 226 23 193 226 23 193 226 23 193 226 23 193 226 23 193 226 23 193 226 25 192 224 25 192 224 25 192 224 25 192 224 25 192 224 25 192 224 25 192 224 25 192 224 27 192 222 27 192 222 28 193 223 28 193 223 28 193 223 29 194 224 29 194 224 29 194 224 29 194 222 29 194 222 29 194 222 29 194 222 
0 176 209 0 176 209 0 176 209 0 176 209 0 176 209 0 176 209 0 176 209 0 176 209 0 177 210 0 177 210 0 177 210 0 177 210 0 177 210 0 177 210 0 177 210 0 177 210 0 177 210 0 177 210 0 177 210 0 177 210 0 177 210 0 177 210 0 177 210 0 177 210 1 177 214 1 177 214 1 177 214 1 177 214 1 177 214 1 177 214 1 177 214 1 177 214 0 178 214 0 178 214 0 178 214 0 178 214 0 178 214 0 178 214 0 178 214 0 178 214 0 178 214 0 178 214 0 178 214 0 178 214 0 178 214 0 178 214 0 178 214 0 178 214 0 178 214 0 178 214 0 178 214 0 178 214 0 178 214 0 178 214 0 178 214 0 178 214 1 179 215 1 179 215 1 179 215 1 179 215 1 179 215 1 179 215 1 179 215 1 179 215 1 179 215 1 179 215 1 179 215 1 179 215 1 179 215 1 179 215 1 179 215 1 179 215 1 179 215 1 179 215 1 179 215 1 179 215 1 179 215 1 179 215 1 179 215 1 179 215 0 178 214 0 178 214 1 179 215 1 179 215 1 179 215 2 180 216 2 180 216 2 180 216 0 182 216 0 182 216 0 182 216 0 182 216 0 182 216 0 182 216 0 182 216 0 182 216 0 184 218 0 184 218 0 184 218 0 184 218 1 185 219 1 185 219 2 186 220 2 186 220 0 187 220 0 187 220 0 187 220 0 187 220 0 187 220 0 187 220 0 187 220 0 187 220 0 187 220 0 187 220 0 187 220 0 187 220 0 187 220 0 187 220 0 187 220 0 187 220 0 189 221 0 189 221 0 189 221 0 189 221 0 189 221 0 189 221 0 189 221 0 189 221 0 189 221 0 189 221 0 189 221 0 189 221 0 189 221 0 189 221 0 189 221 0 189 221 1 190 222 1 190 222 1 190 222 1 190 222 1 190 222 1 190 222 1 190 222 1 190 222 1 190 222 1 190 222 1 190 222 1 190 222 1 190 222 1 190 222 1 190 222 1 190 222 1 190 222 1 190 222 1 190 222 1 190 222 1 190 222 1 190 222 1 190 222 1 190 222 1 190 222 1 190 222 1 190 222 1 190 222 1 190 222 1 190 222 1 190 222 1 190 222 0 190 224 0 190 224 0 190 224 2 190 225 3 190 225 4 191 226 6 190 226 6 190 226 4 192 221 4 192 221 5 193 222 5 193 222 5 193 222 6 194 223 6 194 223 6 194 223 4 191 224 4 191 224 4 191 224 4 191 224 4 191 224 4 191 224 4 191 224 4 191 224 4 191 224 4 191 224 4 191 224 4 191 224 4 191 224 4 191 224 4 191 224 4 191 224 4 191 224 4 191 224 4 191 224 4 191 224 
4 191 224 4 191 224 4 191 224 4 191 224 6 190 224 6 190 224 8 191 225 8 191 225 10 190 225 12 190 226 12 190 226 12 190 226 20 190 223 20 190 223 21 191 224 22 191 224 24 191 225 25 192 226 28 192 227 28 192 227 26 191 223 26 191 223 26 191 223 26 191 223 26 191 223 26 191 223 26 191 223 26 191 223 33 192 224 32 192 224 32 192 224 29 192 223 28 193 223 27 192 222 25 193 222 25 193 222 24 192 228 24 192 228 25 192 226 26 193 227 28 193 225 30 193 224 30 193 224 30 194 222 26 194 223 26 194 223 28 193 223 28 193 223 29 192 223 31 191 223 31 191 223 32 191 223 29 192 225 29 192 225 29 192 225 29 192 225 29 192 225 29 192 225 29 192 225 29 192 225 29 192 225 29 192 225 29 192 225 29 192 225 29 192 225 29 192 225 29 192 225 29 192 225 29 192 223 29 192 223 29 192 223 29 192 223 29 192 223 29 192 223 29 192 223 29 192 223 35 192 225 35 192 225 35 192 225 35 192 225 
0 176 209 0 176 209 0 176 209 0 176 209 0 176 209 0 176 209 0 176 209 0 176 209 0 177 210 0 177 210 0 177 210 0 177 210 0 177 210 0 177 210 0 177 210 0 177 210 0 177 210 0 177 210 0 177 210 0 177 210 0 177 210 0 177 210 0 177 210 0 177 210 1 177 214 1 177 214 1 177 214 1 177 214 1 177 214 1 177 214 1 177 214 1 177 214 0 178 214 0 178 214 0 178 214 0 178 214 0 178 214 0 178 214 0 178 214 0 178 214 0 178 214 0 178 214 0 178 214 0 178 214 0 178 214 0 178 214 0 178 214 0 178 214 0 178 214 0 178 214 0 178 214 0 178 214 0 178 214 0 178 214 0 178 214 0 178 214 1 179 215 1 179 215 1 179 215 1 179 215 1 179 215 1 179 215 1 179 215 1 179 215 1 179 215 1 179 215 1 179 215 1 179 215 1 179 215 1 179 215 1 179 215 1 179 215 1 179 215 1 179 215 1 179 215 1 179 215 1 179 215 1 179 215 1 179 215 1 179 215 0 178 214 0 178 214 1 179 215 1 179 215 1 179 215 2 180 216 2 180 216 2 180 216 0 182 216 0 182 216 0 182 216 0 182 216 0 182 216 0 182 216 0 182 216 0 182 216 0 184 218 0 184 218 0 184 218 0 184 218 1 185 219 1 185 219 2 186 220 2 186 220 0 187 220 0 187 220 0 187 220 0 187 220 0 187 220 0 187 220 0 187 220 0 187 220 0 187 220 0 187 220 0 187 220 0 187 220 0 187 220 0 187 220 0 187 220 0 187 220 0 189 221 0 189 221 0 189 221 0 189 221 0 189 221 0 189 221 0 189 221 0 189 221 0 189 221 0 189 221 0 189 221 0 189 221 0 189 221 0 189 221 0 189 221 0 189 221 1 190 222 1 190 222 1 190 222 1 190 222 1 190 222 1 190 222 1 190 222 1 190 222 1 190 222 1 190 222 1 190 222 1 190 222 1 190 222 1 190 222 1 190 222 1 190 222 1 190 222 1 190 222 1 190 222 1 190 222 1 190 222 1 190 222 1 190 222 1 190 222 1 190 222 1 190 222 1 190 222 1 190 222 1 190 222 1 190 222 1 190 222 1 190 222 0 190 224 0 190 224 2 190 225 2 190 225 3 190 225 6 190 226 6 190 226 6 190 226 6 191 221 7 192 222 7 192 222 7 192 222 8 193 223 8 193 223 8 193 223 9 194 224 6 190 224 6 190 224 6 190 224 6 190 224 6 190 224 6 190 224 6 190 224 6 190 224 6 190 224 6 190 224 6 190 224 6 190 224 6 190 224 6 190 224 6 190 224 6 190 224 6 190 224 6 190 224 6 190 224 6 190 224 
6 190 224 6 190 224 6 190 224 6 190 224 7 191 225 8 191 225 8 191 225 10 190 225 11 191 226 12 190 226 13 189 226 14 190 227 20 190 223 20 190 223 22 191 224 23 192 225 24 191 225 27 191 226 28 192 227 28 192 227 26 191 223 26 191 223 26 191 223 26 191 223 26 191 223 26 191 223 26 191 223 26 191 223 33 192 224 33 192 224 32 192 224 29 192 223 29 192 223 28 193 223 27 192 222 25 193 222 24 192 228 24 193 226 26 193 227 26 193 225 28 193 225 30 193 224 30 194 222 32 193 222 26 194 223 28 193 223 28 193 223 29 192 223 29 192 223 31 191 223 32 191 223 32 191 223 29 192 225 29 192 225 29 192 225 29 192 225 29 192 225 29 192 225 29 192 225 29 192 225 29 192 225 29 192 225 29 192 225 29 192 225 29 192 225 29 192 225 29 192 225 29 192 225 29 192 223 29 192 223 29 192 223 29 192 223 29 192 223 29 192 223 29 192 223 29 192 223 35 192 225 35 192 225 35 192 225 35 192 225 
0 176 209 0 176 209 0 176 209 0 176 209 0 176 209 0 176 209 0 176 209 0 176 209 0 177 210 0 177 210 0 177 210 0 177 210 0 177 210 0 177 210 0 177 210 0 177 210 0 177 210 0 177 210 0 177 210 0 177 210 0 177 210 0 177 210 0 177 210 0 177 210 1 177 214 1 177 214 1 177 214 1 177 214 1 177 214 1 177 214 1 177 214 1 177 214 0 178 214 0 178 214 0 178 214 0 178 214 0 178 214 0 178 214 0 178 214 0 178 214 0 178 214 0 178 214 0 178 214 0 178 214 0 178 214 0 178 214 0 178 214 0 178 214 0 178 214 0 178 214 0 178 214 0 178 214 0 178 214 0 178 214 0 178 214 0 178 214 1 179 215 1 179 215 1 179 215 1 179 215 1 179 215 1 179 215 1 179 215 1 179 215 1 179 215 1 179 215 1 179 215 1 179 215 1 179 215 1 179 215 1 179 215 1 179 215 1 179 215 1 179 215 1 179 215 1 179 215 1 179 215 1 179 215 1 179 215 1 179 215 0 178 214 0 178 214 1 179 215 1 179 215 1 179 215 2 180 216 2 180 216 2 180 216 0 182 216 0 182 216 0 182 216 0 182 216 0 182 216 0 182 216 0 182 216 0 182 216 0 184 218 0 184 218 0 184 218 0 184 218 1 185 219 1 185 219 2 186 220 2 186 220 0 187 220 0 187 220 0 187 220 0 187 220 0 187 220 0 187 220 0 187 220 0 187 220 0 187 220 0 187 220 0 187 220 0 187 220 0 187 220 0 187 220 0 187 220 0 187 220 0 189 221 0 189 221 0 189 221 0 189 221 0 189 221 0 189 221 0 189 221 0 189 221 0 189 221 0 189 221 0 189 221 0 189 221 0 189 221 0 189 221 0 189 221 0 189 221 1 190 222 1 190 222 1 190 222 1 190 222 1 190 222 1 190 222 1 190 222 1 190 222 1 190 222 1 190 222 1 190 222 1 190 222 1 190 222 1 190 222 1 190 222 1 190 222 1 190 222 1 190 222 1 190 222 1 190 222 1 190 222 1 190 222 1 190 222 1 190 222 1 190 222 1 190 222 1 190 222 1 190 222 1 190 222 1 190 222 1 190 222 1 190 222 1 191 223 2 191 223 2 191 223 3 190 223 4 191 224 6 190 224 7 190 224 8 191 225 8 191 222 8 191 222 8 191 222 9 192 223 9 192 223 9 192 223 10 193 224 10 193 224 8 191 223 8 191 223 8 191 223 8 191 223 8 191 223 8 191 223 8 191 223 8 191 223 8 191 223 8 191 223 8 191 223 8 191 223 8 191 223 8 191 223 8 191 223 8 191 223 8 191 223 8 191 223 8 191 223 8 191 223 
8 191 223 8 191 223 8 191 223 8 191 223 8 191 223 10 190 223 11 191 224 12 191 224 12 191 224 14 191 225 16 190 225 16 190 225 20 190 223 22 191 224 22 191 224 24 191 225 25 192 226 27 191 226 29 192 227 29 192 227 27 192 222 27 192 222 27 192 222 27 192 222 27 192 222 27 192 222 27 192 222 27 192 222 34 193 225 33 192 224 33 192 224 32 192 224 29 192 223 29 192 223 28 193 223 28 193 223 26 193 227 26 193 227 26 193 225 28 193 225 30 193 224 30 194 222 32 193 222 33 194 223 29 194 224 29 194 224 30 193 224 30 193 224 32 192 224 33 192 224 33 192 224 33 192 224 32 192 224 32 192 224 32 192 224 32 192 224 32 192 224 32 192 224 32 192 224 32 192 224 32 192 224 32 192 224 32 192 224 32 192 224 32 192 224 32 192 224 32 192 224 32 192 224 32 192 224 32 192 224 32 192 224 32 192 224 32 192 224 32 192 224 32 192 224 32 192 224 35 192 225 35 192 225 35 192 225 35 192 225 
0 176 209 0 176 209 0 176 209 0 176 209 0 176 209 0 176 209 0 176 209 0 176 209 0 177 210 0 177 210 0 177 210 0 177 210 0 177 210 0 177 210 0 177 210 0 177 210 0 177 210 0 177 210 0 177 210 0 177 210 0 177 210 0 177 210 0 177 210 0 177 210 1 177 214 1 177 214 1 177 214 1 177 214 1 177 214 1 177 214 1 177 214 1 177 214 0 178 214 0 178 214 0 178 214 0 178 214 0 178 214 0 178 214 0 178 214 0 178 214 0 178 214 0 178 214 0 178 214 0 178 214 0 178 214 0 178 214 0 178 214 0 178 214 0 178 214 0 178 214 0 178 214 0 178 214 0 178 214 0 178 214 0 178 214 0 178 214 1 179 215 1 179 215 1 179 215 1 179 215 1 179 215 1 179 215 1 179 215 1 179 215 1 179 215 1 179 215 1 179 215 1 179 215 1 179 215 1 179 215 1 179 215 1 179 215 1 179 215 1 179 215 1 179 215 1 179 215 1 179 215 1 179 215 1 179 215 1 179 215 0 178 214 0 178 214 1 179 215 1 179 215 1 179 215 2 180 216 2 180 216 2 180 216 0 182 216 0 182 216 0 182 216 0 182 216 0 182 216 0 182 216 0 182 216 0 182 216 0 184 218 0 184 218 0 184 218 0 184 218 1 185 219 1 185 219 2 186 220 2 186 220 0 187 220 0 187 220 0 187 220 0 187 220 0 187 220 0 187 220 0 187 220 0 187 220 0 187 220 0 187 220 0 187 220 0 187 220 0 187 220 0 187 220 0 187 220 0 187 220 0 189 221 0 189 221 0 189 221 0 189 221 0 189 221 0 189 221 0 189 221 0 189 221 0 189 221 0 189 221 0 189 221 0 189 221 0 189 221 0 189 221 0 189 221 0 189 221 1 190 222 1 190 222 1 190 222 1 190 222 1 190 222 1 190 222 1 190 222 1 190 222 1 190 222 1 190 222 1 190 222 1 190 222 1 190 222 1 190 222 1 190 222 1 190 222 1 190 222 1 190 222 1 190 222 1 190 222 1 190 222 1 190 222 1 190 222 1 190 222 1 190 222 1 190 222 1 190 222 1 190 222 1 190 222 1 190 222 1 190 222 1 190 222 2 191 223 2 191 223 3 190 223 4 191 224 6 190 224 8 191 225 8 191 225 8 191 225 10 191 222 10 191 222 11 192 223 11 192 223 11 192 223 12 193 224 12 193 224 12 193 224 11 191 224 11 191 224 11 191 224 11 191 224 11 191 224 11 191 224 11 191 224 11 191 224 11 191 224 11 191 224 11 191 224 11 191 224 11 191 224 11 191 224 11 191 224 11 191 224 11 191 224 11 191 224 
11 191 224 11 191 224 11 191 224 11 191 224 11 191 224 11 191 224 12 191 224 12 191 224 13 192 225 14 191 225 16 190 225 17 191 226 18 190 226 18 190 226 22 191 222 22 191 222 24 191 223 24 191 223 27 192 224 29 192 225 30 193 226 30 193 226 29 192 223 29 192 223 29 192 223 29 192 223 29 192 223 29 192 223 29 192 223 29 192 223 35 192 225 35 192 225 34 193 225 33 192 224 32 192 224 29 192 223 29 192 223 28 193 223 26 193 227 26 193 225 28 193 225 30 193 224 30 194 222 33 194 223 33 194 222 34 193 222 29 194 224 30 193 224 30 193 224 32 192 224 33 192 224 33 192 224 34 191 224 34 191 224 32 192 224 32 192 224 32 192 224 32 192 224 32 192 224 32 192 224 32 192 224 32 192 224 32 192 224 32 192 224 32 192 224 32 192 224 32 192 224 32 192 224 32 192 224 32 192 224 32 192 224 32 192 224 32 192 224 32 192 224 32 192 224 32 192 224 32 192 224 32 192 224 35 192 225 35 192 225 35 192 225 35 192 225 
0 176 209 0 176 209 0 176 209 0 176 209 0 176 209 0 176 209 0 176 209 0 176 209 0 177 210 0 177 210 0 177 210 0 177 210 0 177 210 0 177 210 0 177 210 0 177 210 0 177 210 0 177 210 0 177 210 0 177 210 0 177 210 0 177 210 0 177 210 0 177 210 1 177 214 1 177 214 1 177 214 1 177 214 1 177 214 1 177 214 1 177 214 1 177 214 0 178 214 0 178 214 0 178 214 0 178 214 0 178 214 0 178 214 0 178 214 0 178 214 0 178 214 0 178 214 0 178 214 0 178 214 0 178 214 0 178 214 0 178 214 0 178 214 0 178 214 0 178 214 0 178 214 0 178 214 0 178 214 0 178 214 0 178 214 0 178 214 1 179 215 1 179 215 1 179 215 1 179 215 1 179 215 1 179 215 1 179 215 1 179 215 1 179 215 1 179 215 1 179 215 1 179 215 1 179 215 1 179 215 1 179 215 1 179 215 1 179 215 1 179 215 1 179 215 1 179 215 1 179 215 1 179 215 1 179 215 1 179 215 0 178 214 0 178 214 1 179 215 1 179 215 1 179 215 2 180 216 2 180 216 2 180 216 0 182 216 0 182 216 0 182 216 0 182 216 0 182 216 0 182 216 0 182 216 0 182 216 0 184 218 0 184 218 0 184 218 0 184 218 1 185 219 1 185 219 2 186 220 2 186 220 0 187 220 0 187 220 0 187 220 0 187 220 0 187 220 0 187 220 0 187 220 0 187 220 0 187 220 0 187 220 0 187 220 0 187 220 0 187 220 0 187 220 0 187 220 0 187 220 0 189 221 0 189 221 0 189 221 0 189 221 0 189 221 0 189 221 0 189 221 0 189 221 0 189 221 0 189 221 0 189 221 0 189 221 0 189 221 0 189 221 0 189 221 0 189 221 1 190 222 1 190 222 1 190 222 1 190 222 1 190 222 1 190 222 1 190 222 1 190 222 1 190 222 1 190 222 1 190 222 1 190 222 1 190 222 1 190 222 1 190 222 1 190 222 1 190 222 1 190 222 1 190 222 1 190 222 1 190 222 1 190 222 1 190 222 1 190 222 1 190 222 1 190 222 1 190 222 1 190 222 1 190 222 1 190 222 1 190 222 1 190 222 3 190 221 4 191 222 4 191 222 6 191 222 8 191 223 8 191 223 10 190 223 11 191 224 12 191 223 12 191 223 12 191 223 13 192 224 13 192 224 13 192 224 14 193 225 14 193 225 13 192 224 13 192 224 13 192 224 13 192 224 13 192 224 13 192 224 13 192 224 13 192 224 13 192 224 13 192 224 13 192 224 13 192 224 13 192 224 13 192 224 13 192 224 13 192 224 13 192 224 
13 192 224 13 192 224 13 192 224 13 192 224 13 192 224 13 192 224 13 192 224 14 191 224 14 191 224 17 191 225 17 191 225 18 191 225 21 191 226 21 191 226 21 191 226 23 191 220 23 191 220 24 192 221 27 192 222 29 192 223 29 192 223 32 192 224 32 192 224 32 193 222 32 193 222 32 193 222 32 193 222 32 193 222 32 193 222 32 193 222 32 193 222 38 192 226 35 192 225 35 192 225 34 193 225 32 192 224 32 192 224 30 193 224 29 192 223 28 193 225 29 194 226 30 193 224 30 193 224 33 194 223 34 193 222 34 193 222 35 195 221 31 194 225 31 194 225 33 193 225 33 193 225 34 193 225 35 192 225 35 192 225 37 191 225 34 193 223 34 193 223 34 193 223 34 193 223 34 193 223 34 193 223 34 193 223 34 193 223 34 193 223 34 193 223 34 193 223 34 193 223 34 193 223 34 193 223 34 193 223 34 193 223 34 193 225 34 193 225 34 193 225 34 193 225 34 193 225 34 193 225 34 193 225 34 193 225 35 192 225 35 192 225 35 192 225 35 192 225 
0 176 209 0 176 209 0 176 209 0 176 209 0 176 209 0 176 209 0 176 209 0 176 209 0 177 210 0 177 210 0 177 210 0 177 210 0 177 210 0 177 210 0 177 210 0 177 210 0 177 210 0 177 210 0 177 210 0 177 210 0 177 210 0 177 210 0 177 210 0 177 210 1 177 214 1 177 214 1 177 214 1 177 214 1 177 214 1 177 214 1 177 214 1 177 214 0 178 214 0 178 214 0 178 214 0 178 214 0 178 214 0 178 214 0 178 214 0 178 214 0 178 214 0 178 214 0 178 214 0 178 214 0 178 214 0 178 214 0 178 214 0 178 214 0 178 214 0 178 214 0 178 214 0 178 214 0 178 214 0 178 214 0 178 214 0 178 214 1 179 215 1 179 215 1 179 215 1 179 215 1 179 215 1 179 215 1 179 215 1 179 215 1 179 215 1 179 215 1 179 215 1 179 215 1 179 215 1 179 215 1 179 215 1 179 215 1 179 215 1 179 215 1 179 215 1 179 215 1 179 215 1 179 215 1 179 215 1 179 215 0 178 214 0 178 214 1 179 215 1 179 215 1 179 215 2 180 216 2 180 216 2 180 216 0 182 216 0 182 216 0 182 216 0 182 216 0 182 216 0 182 216 0 182 216 0 182 216 0 184 218 0 184 218 0 184 218 0 184 218 1 185 219 1 185 219 2 186 220 2 186 220 0 187 220 0 187 220 0 187 220 0 187 220 0 187 220 0 187 220 0 187 220 0 187 220 0 187 220 0 187 220 0 187 220 0 187 220 0 187 220 0 187 220 0 187 220 0 187 220 0 189 221 0 189 221 0 189 221 0 189 221 0 189 221 0 189 221 0 189 221 0 189 221 0 189 221 0 189 221 0 189 221 0 189 221 0 189 221 0 189 221 0 189 221 0 189 221 1 190 222 1 190 222 1 190 222 1 190 222 1 190 222 1 190 222 1 190 222 1 190 222 1 190 222 1 190 222 1 190 222 1 190 222 1 190 222 1 190 222 1 190 222 1 190 222 1 190 222 1 190 222 1 190 222 1 190 222 1 190 222 1 190 222 1 190 222 1 190 222 1 190 222 1 190 222 1 190 222 1 190 222 1 190 222 1 190 222 1 190 222 1 190 222 4 191 222 4 191 222 6 191 222 8 191 223 8 191 223 11 191 224 11 191 224 12 191 224 13 190 223 13 190 223 14 191 224 14 191 224 14 191 224 15 192 225 15 192 225 15 192 225 15 193 223 15 193 223 15 193 223 15 193 223 15 193 223 15 193 223 15 193 223 15 193 223 15 193 223 15 193 223 15 193 223 15 193 223 15 193 223 15 193 223 15 193 223 15 193 223 15 193 223 
15 193 223 15 193 223 15 193 223 15 193 223 15 193 223 15 193 223 15 193 223 17 192 223 17 192 223 18 191 223 21 191 224 21 191 224 23 192 225 23 192 225 24 191 225 24 192 221 24 192 221 27 192 222 28 191 222 29 192 223 32 192 224 32 192 224 34 193 225 33 194 223 33 194 223 33 194 223 33 194 223 33 194 223 33 194 223 33 194 223 33 194 223 38 192 226 38 192 226 36 193 226 35 192 225 34 193 225 32 192 224 32 192 224 32 192 224 29 194 224 30 193 224 30 193 224 33 194 223 34 193 222 35 194 223 36 194 221 36 194 221 33 193 225 33 193 225 33 193 225 34 193 225 35 192 225 35 192 225 37 191 225 37 191 225 34 193 223 34 193 223 34 193 223 34 193 223 34 193 223 34 193 223 34 193 223 34 193 223 34 193 223 34 193 223 34 193 223 34 193 223 34 193 223 34 193 223 34 193 223 34 193 223 34 193 225 34 193 225 34 193 225 34 193 225 34 193 225 34 193 225 34 193 225 34 193 225 35 192 225 35 192 225 35 192 225 35 192 225 
0 176 209 0 176 209 0 176 209 0 176 209 0 176 209 0 176 209 0 176 209 0 176 209 0 177 210 0 177 210 0 177 210 0 177 210 0 177 210 0 177 210 0 177 210 0 177 210 0 177 210 0 177 210 0 177 210 0 177 210 0 177 210 0 177 210 0 177 210 0 177 210 1 177 214 1 177 214 1 177 214 1 177 214 1 177 214 1 177 214 1 177 214 1 177 214 0 178 214 0 178 214 0 178 214 0 178 214 0 178 214 0 178 214 0 178 214 0 178 214 0 178 214 0 178 214 0 178 214 0 178 214 0 178 214 0 178 214 0 178 214 0 178 214 0 178 214 0 178 214 0 178 214 0 178 214 0 178 214 0 178 214 0 178 214 0 178 214 1 179 215 1 179 215 1 179 215 1 179 215 1 179 215 1 179 215 1 179 215 1 179 215 1 179 215 1 179 215 1 179 215 1 179 215 1 179 215 1 179 215 1 179 215 1 179 215 1 179 215 1 179 215 1 179 215 1 179 215 1 179 215 1 179 215 1 179 215 1 179 215 0 178 214 0 178 214 1 179 215 1 179 215 1 179 215 2 180 216 2 180 216 2 180 216 0 182 216 0 182 216 0 182 216 0 182 216 0 182 216 0 182 216 0 182 216 0 182 216 0 184 218 0 184 218 0 184 218 0 184 218 1 185 219 1 185 219 2 186 220 2 186 220 0 187 220 0 187 220 0 187 220 0 187 220 0 187 220 0 187 220 0 187 220 0 187 220 0 187 220 0 187 220 0 187 220 0 187 220 0 187 220 0 187 220 0 187 220 0 187 220 0 189 221 0 189 221 0 189 221 0 189 221 0 189 221 0 189 221 0 189 221 0 189 221 0 189 221 0 189 221 0 189 221 0 189 221 0 189 221 0 189 221 0 189 221 0 189 221 1 190 222 1 190 222 1 190 222 1 190 222 1 190 222 1 190 222 1 190 222 1 190 222 1 190 222 1 190 222 1 190 222 1 190 222 1 190 222 1 190 222 1 190 222 1 190 222 1 190 222 1 190 222 1 190 222 1 190 222 1 190 222 1 190 222 1 190 222 1 190 222 1 190 222 1 190 222 1 190 222 1 190 222 1 190 222 1 190 222 1 190 222 1 190 222 6 191 221 6 191 221 7 192 222 8 191 222 10 191 222 11 192 223 12 191 223 12 191 223 15 189 223 16 190 224 16 190 224 16 190 224 17 191 225 17 191 225 17 191 225 18 192 226 18 193 224 18 193 224 18 193 224 18 193 224 18 193 224 18 193 224 18 193 224 18 193 224 18 193 224 18 193 224 18 193 224 18 193 224 18 193 224 18 193 224 18 193 224 18 193 224 18 193 224 
18 193 224 18 193 224 18 193 224 18 193 224 18 193 224 18 193 224 18 193 224 19 192 224 19 192 224 21 191 224 22 191 224 23 192 225 24 191 225 25 192 226 27 191 226 26 191 219 26 191 219 27 192 220 29 193 221 31 192 221 32 193 222 34 193 223 34 193 223 34 193 222 34 193 222 34 193 222 34 193 222 34 193 222 34 193 222 34 193 222 34 193 222 39 192 226 38 192 226 38 192 226 35 192 225 35 192 225 34 193 225 32 192 224 32 192 224 30 193 224 30 193 224 33 194 223 33 194 222 34 193 222 36 194 221 36 194 221 36 194 219 33 193 225 33 193 225 34 193 225 35 192 225 35 192 225 37 191 225 37 191 225 38 191 225 35 193 222 35 193 222 35 193 222 35 193 222 35 193 222 35 193 222 35 193 222 35 193 222 35 193 222 35 193 222 35 193 222 35 193 222 35 193 222 35 193 222 35 193 222 35 193 222 35 192 225 35 192 225 35 192 225 35 192 225 35 192 225 35 192 225 35 192 225 35 192 225 35 192 225 35 192 225 35 192 225 35 192 225 
0 176 209 0 176 209 0 176 209 0 176 209 0 176 209 0 176 209 0 176 209 0 176 209 0 177 210 0 177 210 0 177 210 0 177 210 0 177 210 0 177 210 0 177 210 0 177 210 0 177 210 0 177 210 0 177 210 0 177 210 0 177 210 0 177 210 0 177 210 0 177 210 1 177 214 1 177 214 1 177 214 1 177 214 1 177 214 1 177 214 1 177 214 1 177 214 0 178 214 0 178 214 0 178 214 0 178 214 0 178 214 0 178 214 0 178 214 0 178 214 0 178 214 0 178 214 0 178 214 0 178 214 0 178 214 0 178 214 0 178 214 0 178 214 0 178 214 0 178 214 0 178 214 0 178 214 0 178 214 0 178 214 0 178 214 0 178 214 1 179 215 1 179 215 1 179 215 1 179 215 1 179 215 1 179 215 1 179 215 1 179 215 1 179 215 1 179 215 1 179 215 1 179 215 1 179 215 1 179 215 1 179 215 1 179 215 1 179 215 1 179 215 1 179 215 1 179 215 1 179 215 1 179 215 1 179 215 1 179 215 0 178 214 0 178 214 1 179 215 1 179 215 1 179 215 2 180 216 2 180 216 2 180 216 0 182 216 0 182 216 0 182 216 0 182 216 0 182 216 0 182 216 0 182 216 0 182 216 0 184 218 0 184 218 0 184 218 0 184 218 1 185 219 1 185 219 2 186 220 2 186 220 0 187 220 0 187 220 0 187 220 0 187 220 0 187 220 0 187 220 0 187 220 0 187 220 0 187 220 0 187 220 0 187 220 0 187 220 0 187 220 0 187 220 0 187 220 0 187 220 0 189 221 0 189 221 0 189 221 0 189 221 0 189 221 0 189 221 0 189 221 0 189 221 0 189 221 0 189 221 0 189 221 0 189 221 0 189 221 0 189 221 0 189 221 0 189 221 1 190 222 1 190 222 1 190 222 1 190 222 1 190 222 1 190 222 1 190 222 1 190 222 1 190 222 1 190 222 1 190 222 1 190 222 1 190 222 1 190 222 1 190 222 1 190 222 1 190 222 1 190 222 1 190 222 1 190 222 1 190 222 1 190 222 1 190 222 1 190 222 1 190 222 1 190 222 1 190 222 1 190 222 1 190 222 1 190 222 1 190 222 1 190 222 6 191 221 7 192 222 8 191 222 8 191 222 11 192 223 12 191 223 12 191 223 13 192 224 17 190 224 17 190 224 17 190 224 18 191 225 18 191 225 18 191 225 19 192 226 19 192 226 19 192 224 19 192 224 19 192 224 19 192 224 19 192 224 19 192 224 19 192 224 19 192 224 19 192 224 19 192 224 19 192 224 19 192 224 19 192 224 19 192 224 19 192 224 19 192 224 19 192 224 
19 192 224 19 192 224 19 192 224 19 192 224 19 192 224 19 192 224 19 192 224 21 191 224 21 191 224 21 191 224 23 192 225 24 191 225 25 192 226 27 191 226 27 191 226 26 191 219 26 191 219 28 192 220 29 193 221 32 193 222 33 192 222 34 193 223 34 193 223 35 194 223 35 194 223 35 194 223 35 194 223 35 194 223 35 194 223 35 194 223 35 194 223 40 193 227 39 192 226 38 192 226 38 192 226 35 192 225 34 193 225 34 193 225 32 192 224 30 193 224 31 195 223 33 194 223 34 193 222 35 195 221 36 194 221 36 194 219 39 195 220 33 193 225 34 193 225 34 193 225 35 192 225 37 191 225 37 191 225 38 191 225 38 191 225 35 193 222 35 193 222 35 193 222 35 193 222 35 193 222 35 193 222 35 193 222 35 193 222 35 193 222 35 193 222 35 193 222 35 193 222 35 193 222 35 193 222 35 193 222 35 193 222 35 192 225 35 192 225 35 192 225 35 192 225 35 192 225 35 192 225 35 192 225 35 192 225 35 192 225 35 192 225 35 192 225 35 192 225 
0 176 209 0 176 209 0 176 209 0 176 209 0 176 209 0 176 209 0 176 209 0 176 209 0 177 210 0 177 210 0 177 210 0 177 210 0 177 210 0 177 210 0 177 210 0 177 210 0 177 210 0 177 210 0 177 210 0 177 210 0 177 210 0 177 210 0 177 210 0 177 210 0 175 212 0 175 212 0 175 212 0 176 213 0 176 213 1 177 214 1 177 214 1 177 214 1 177 214 1 177 214 1 177 214 1 177 214 1 177 214 1 177 214 1 177 214 1 177 214 0 178 214 0 178 214 0 178 214 0 178 214 0 178 214 0 178 214 0 178 214 0 178 214 0 178 214 0 178 214 0 178 214 0 178 214 0 178 214 0 178 214 0 178 214 0 178 214 0 178 214 0 178 214 0 178 214 0 178 214 0 178 214 0 178 214 0 178 214 0 178 214 1 179 215 1 179 215 1 179 215 1 179 215 1 179 215 1 179 215 1 179 215 1 179 215 2 178 215 2 178 215 2 178 215 2 178 215 2 178 215 2 178 215 2 178 215 2 178 215 0 181 219 0 180 219 0 180 217 1 179 215 1 179 215 1 180 213 0 181 212 0 181 212 0 185 203 0 182 205 0 178 208 2 176 211 3 177 214 0 183 217 0 189 220 0 193 219 6 179 211 7 181 215 7 184 218 9 185 222 9 185 222 10 184 219 11 181 216 11 180 213 5 185 220 5 185 220 5 185 220 5 185 222 5 185 222 6 184 222 6 183 224 6 183 224 1 189 218 1 189 218 1 189 218 1 189 218 1 189 218 1 189 218 1 189 218 1 189 218 1 188 221 1 188 221 1 188 221 1 188 221 1 188 221 1 188 221 1 188 221 1 188 221 0 189 221 0 189 221 0 189 221 0 189 221 0 189 221 0 189 221 0 189 221 0 189 221 1 190 222 1 190 222 1 190 222 1 190 222 1 190 222 1 190 222 1 190 222 1 190 222 1 190 222 1 190 222 1 190 222 1 190 222 1 190 222 1 190 222 1 190 222 1 190 222 2 189 222 2 189 222 3 190 223 3 190 223 3 190 223 4 191 224 4 191 224 4 191 224 2 189 222 2 189 222 2 189 222 2 189 222 2 189 222 2 189 222 2 189 222 2 189 222 8 189 220 9 190 221 9 190 221 8 191 222 9 192 223 8 193 223 9 194 224 7 195 224 16 194 224 16 194 224 18 193 224 18 193 224 19 192 224 21 191 224 21 191 224 22 191 224 18 193 224 18 193 224 18 193 224 18 193 224 18 193 224 18 193 224 18 193 224 18 193 224 19 192 222 19 192 222 21 192 222 21 192 222 23 192 223 24 191 223 25 192 224 27 192 224 25 192 224 
25 192 224 25 192 224 25 192 224 25 192 224 25 192 224 25 192 224 25 192 224 24 193 224 24 193 224 24 193 224 24 193 224 24 193 224 24 193 224 24 193 224 24 193 224 27 193 219 28 192 219 28 192 219 31 192 220 31 192 220 33 192 221 34 192 221 34 192 221 37 191 225 37 191 225 37 191 225 37 191 225 37 191 225 37 191 225 37 191 225 37 191 225 34 193 225 34 193 225 34 193 225 34 193 225 34 193 225 34 193 225 34 193 225 34 193 225 33 192 221 33 192 221 33 192 221 33 192 221 33 192 221 33 192 221 33 192 221 33 192 221 33 192 221 33 192 221 34 193 222 34 193 222 34 193 222 35 194 223 35 194 223 35 194 223 39 192 226 39 192 226 39 192 226 39 192 226 39 192 226 39 192 226 39 192 226 39 192 226 39 192 224 39 192 224 39 192 224 39 192 224 39 192 224 39 192 224 39 192 224 39 192 224 38 192 220 38 192 220 39 193 221 39 193 221 40 194 222 40 194 222 40 194 222 40 194 222 39 192 223 39 192 223 39 192 223 39 192 223 
0 176 209 0 176 209 0 176 209 0 176 209 0 176 209 0 176 209 0 176 209 0 176 209 0 177 210 0 177 210 0 177 210 0 177 210 0 177 210 0 177 210 0 177 210 0 177 210 0 177 210 0 177 210 0 177 210 0 177 210 0 177 210 0 177 210 0 177 210 0 177 210 0 175 212 0 175 212 0 175 212 0 176 213 0 176 213 1 177 214 1 177 214 1 177 214 1 177 214 1 177 214 1 177 214 1 177 214 1 177 214 1 177 214 1 177 214 1 177 214 0 178 214 0 178 214 0 178 214 0 178 214 0 178 214 0 178 214 0 178 214 0 178 214 0 178 214 0 178 214 0 178 214 0 178 214 0 178 214 0 178 214 0 178 214 0 178 214 0 178 214 0 178 214 0 178 214 0 178 214 0 178 214 0 178 214 0 178 214 0 178 214 1 179 215 1 179 215 1 179 215 1 179 215 1 179 215 1 179 215 1 179 215 1 179 215 2 178 215 2 178 215 2 178 215 2 178 215 2 178 215 2 178 215 2 178 215 2 178 215 1 179 215 1 179 215 1 179 215 1 179 215 1 179 215 0 180 213 0 181 213 0 182 213 0 188 210 0 187 213 1 184 215 7 181 216 9 178 217 9 177 216 9 177 216 8 176 213 0 191 214 0 190 216 0 189 214 0 189 215 0 190 219 0 193 219 0 195 222 0 197 224 0 188 220 0 188 220 0 189 220 0 190 220 0 190 218 0 191 218 0 192 218 0 192 218 1 189 218 1 189 218 1 189 218 1 189 218 1 189 218 1 189 218 1 189 218 1 189 218 1 188 221 1 188 221 1 188 221 1 188 221 1 188 221 1 188 221 1 188 221 1 188 221 0 189 221 0 189 221 0 189 221 0 189 221 0 189 221 0 189 221 0 189 221 0 189 221 1 190 222 1 190 222 1 190 222 1 190 222 1 190 222 1 190 222 1 190 222 1 190 222 1 190 222 1 190 222 1 190 222 1 190 222 1 190 222 1 190 222 1 190 222 1 190 222 2 189 222 2 189 222 3 190 223 3 190 223 3 190 223 4 191 224 4 191 224 4 191 224 2 189 222 2 189 222 2 189 222 2 189 222 2 189 222 2 189 222 2 189 222 2 189 222 8 189 220 9 190 221 9 190 221 8 191 222 9 192 223 10 193 224 9 194 224 10 195 225 16 194 224 18 193 224 18 193 224 19 192 224 19 192 224 21 191 224 22 191 224 22 191 224 19 192 224 19 192 224 19 192 224 19 192 224 19 192 224 19 192 224 19 192 224 19 192 224 21 192 222 21 192 222 21 192 222 23 192 223 24 191 223 25 192 224 27 192 224 27 192 224 27 192 224 
27 192 224 27 192 224 27 192 224 27 192 224 27 192 224 27 192 224 27 192 224 24 193 224 24 193 224 24 193 224 24 193 224 24 193 224 24 193 224 24 193 224 24 193 224 28 192 219 28 192 219 29 193 220 31 192 220 33 192 221 33 192 221 34 192 221 34 192 221 38 192 226 38 192 226 38 192 226 38 192 226 38 192 226 38 192 226 38 192 226 38 192 226 35 194 226 35 194 226 35 194 226 35 194 226 35 194 226 35 194 226 35 194 226 35 194 226 33 192 221 33 192 221 33 192 221 33 192 221 33 192 221 33 192 221 33 192 221 33 192 221 34 193 222 34 193 222 34 193 222 34 193 222 35 194 223 35 194 223 35 194 223 36 195 224 40 193 227 40 193 227 40 193 227 40 193 227 40 193 227 40 193 227 40 193 227 40 193 227 40 193 224 40 193 224 40 193 224 40 193 224 40 193 224 40 193 224 40 193 224 40 193 224 39 193 221 39 193 221 39 193 221 39 193 221 40 194 222 40 194 222 41 195 223 41 195 223 40 193 224 40 193 224 40 193 224 40 193 224 
0 176 209 0 176 209 0 176 209 0 176 209 0 176 209 0 176 209 0 176 209 0 176 209 0 177 210 0 177 210 0 177 210 0 177 210 0 177 210 0 177 210 0 177 210 0 177 210 0 177 210 0 177 210 0 177 210 0 177 210 0 177 210 0 177 210 0 177 210 0 177 210 0 175 212 0 175 212 0 175 212 0 176 213 0 176 213 1 177 214 1 177 214 1 177 214 1 177 214 1 177 214 1 177 214 1 177 214 1 177 214 1 177 214 1 177 214 1 177 214 0 178 214 0 178 214 0 178 214 0 178 214 0 178 214 0 178 214 0 178 214 0 178 214 0 178 214 0 178 214 0 178 214 0 178 214 0 178 214 0 178 214 0 178 214 0 178 214 0 178 214 0 178 214 0 178 214 0 178 214 0 178 214 0 178 214 0 178 214 0 178 214 1 179 215 1 179 215 1 179 215 1 179 215 1 179 215 1 179 215 1 179 215 1 179 215 2 178 215 2 178 215 2 178 215 2 178 215 2 178 215 2 178 215 2 178 215 2 178 215 5 178 212 5 178 212 4 178 212 1 180 213 0 180 215 0 181 215 0 181 217 0 181 217 8 182 219 6 182 219 4 184 219 2 185 219 5 185 220 7 183 220 11 183 221 13 182 223 4 185 216 3 183 216 2 182 215 1 181 214 0 183 217 1 185 221 4 188 224 4 190 228 0 187 222 0 187 222 0 188 220 0 188 220 0 190 218 0 190 218 0 191 217 0 191 217 1 189 218 1 189 218 1 189 218 1 189 218 1 189 218 1 189 218 1 189 218 1 189 218 1 188 221 1 188 221 1 188 221 1 188 221 1 188 221 1 188 221 1 188 221 1 188 221 0 189 221 0 189 221 0 189 221 0 189 221 0 189 221 0 189 221 0 189 221 0 189 221 1 190 222 1 190 222 1 190 222 1 190 222 1 190 222 1 190 222 1 190 222 1 190 222 1 190 222 1 190 222 1 190 222 1 190 222 1 190 222 1 190 222 1 190 222 1 190 222 2 189 222 2 189 222 3 190 223 3 190 223 3 190 223 4 191 224 4 191 224 4 191 224 2 189 222 2 189 222 2 189 222 2 189 222 2 189 222 2 189 222 2 189 222 2 189 222 9 190 221 9 190 221 10 191 222 10 191 222 11 192 223 12 193 224 11 194 225 11 194 225 18 193 224 18 193 224 19 192 224 19 192 224 21 191 224 22 191 224 22 191 224 22 191 224 22 192 225 22 192 225 22 192 225 22 192 225 22 192 225 22 192 225 22 192 225 22 192 225 23 192 221 23 192 221 23 192 221 25 193 222 27 192 222 27 192 222 29 192 223 29 192 223 29 192 223 
29 192 223 29 192 223 29 192 223 29 192 223 29 192 223 29 192 223 29 192 223 26 194 223 26 194 223 26 194 223 26 194 223 26 194 223 26 194 223 26 194 223 26 194 223 29 193 220 29 193 220 31 192 220 32 193 221 33 192 221 35 193 222 35 193 222 37 192 222 38 193 224 38 193 224 38 193 224 38 193 224 38 193 224 38 193 224 38 193 224 38 193 224 36 193 224 36 193 224 36 193 224 36 193 224 36 193 224 36 193 224 36 193 224 36 193 224 35 193 222 35 193 222 35 193 222 35 193 222 35 193 222 35 193 222 35 193 222 35 193 222 35 193 222 35 193 222 36 194 223 36 194 223 36 194 223 37 195 224 37 195 224 37 195 224 42 192 225 42 192 225 42 192 225 42 192 225 42 192 225 42 192 225 42 192 225 42 192 225 42 193 224 42 193 224 42 193 224 42 193 224 42 193 224 42 193 224 42 193 224 42 193 224 41 192 221 41 192 221 42 193 222 42 193 222 43 194 223 43 194 223 43 194 223 43 194 223 42 193 224 42 193 224 42 193 224 42 193 224 
0 176 209 0 176 209 0 176 209 0 176 209 0 176 209 0 176 209 0 176 209 0 176 209 0 177 210 0 177 210 0 177 210 0 177 210 0 177 210 0 177 210 0 177 210 0 177 210 0 177 210 0 177 210 0 177 210 0 177 210 0 177 210 0 177 210 0 177 210 0 177 210 0 175 212 0 175 212 0 175 212 0 176 213 0 176 213 1 177 214 1 177 214 1 177 214 1 177 214 1 177 214 1 177 214 1 177 214 1 177 214 1 177 214 1 177 214 1 177 214 0 178 214 0 178 214 0 178 214 0 178 214 0 178 214 0 178 214 0 178 214 0 178 214 0 178 214 0 178 214 0 178 214 0 178 214 0 178 214 0 178 214 0 178 214 0 178 214 0 178 214 0 178 214 0 178 214 0 178 214 0 178 214 0 178 214 0 178 214 0 178 214 1 179 215 1 179 215 1 179 215 1 179 215 1 179 215 1 179 215 1 179 215 1 179 215 2 178 215 2 178 215 2 178 215 2 178 215 2 178 215 2 178 215 2 178 215 2 178 215 9 176 208 8 177 208 4 179 210 1 180 212 0 181 213 0 181 215 0 181 217 0 180 217 20 177 230 12 178 226 0 179 219 0 181 214 0 182 210 0 182 210 0 182 211 0 183 215 7 177 213 9 179 215 10 180 216 12 182 218 8 182 219 4 181 222 0 179 222 0 179 223 3 185 225 3 185 225 5 184 225 6 183 224 7 183 224 7 183 222 9 182 222 10 182 222 1 189 218 1 189 218 1 189 218 1 189 218 1 189 218 1 189 218 1 189 218 1 189 218 1 188 221 1 188 221 1 188 221 1 188 221 1 188 221 1 188 221 1 188 221 1 188 221 0 189 221 0 189 221 0 189 221 0 189 221 0 189 221 0 189 221 0 189 221 0 189 221 1 190 222 1 190 222 1 190 222 1 190 222 1 190 222 1 190 222 1 190 222 1 190 222 1 190 222 1 190 222 1 190 222 1 190 222 1 190 222 1 190 222 1 190 222 1 190 222 2 189 222 2 189 222 3 190 223 3 190 223 3 190 223 4 191 224 4 191 224 4 191 224 3 190 223 3 190 223 3 190 223 3 190 223 3 190 223 3 190 223 3 190 223 3 190 223 7 190 221 7 190 221 10 191 222 11 192 223 12 193 224 13 192 224 14 193 225 14 193 225 19 194 225 20 193 225 20 193 225 22 192 225 23 192 225 23 192 225 24 191 225 24 191 225 24 193 224 24 193 224 24 193 224 24 193 224 24 193 224 24 193 224 24 193 224 24 193 224 25 193 222 25 193 222 27 192 222 27 192 222 29 192 223 31 191 223 32 192 224 32 192 224 32 192 224 
32 192 224 32 192 224 32 192 224 32 192 224 32 192 224 32 192 224 32 192 224 30 193 224 30 193 224 30 193 224 30 193 224 30 193 224 30 193 224 30 193 224 30 193 224 32 193 221 32 193 221 32 193 221 34 193 222 35 193 222 35 193 222 38 193 223 38 193 223 40 193 225 40 193 225 40 193 225 40 193 225 40 193 225 40 193 225 40 193 225 40 193 225 40 193 225 40 193 225 40 193 225 40 193 225 40 193 225 40 193 225 40 193 225 40 193 225 39 192 223 39 192 223 39 192 223 39 192 223 39 192 223 39 192 223 39 192 223 39 192 223 39 192 223 39 192 223 40 193 224 40 193 224 40 193 224 41 194 225 41 194 225 41 194 225 42 192 225 42 192 225 42 192 225 42 192 225 42 192 225 42 192 225 42 192 225 42 192 225 42 193 222 42 193 222 42 193 222 42 193 222 42 193 222 42 193 222 42 193 222 42 193 222 42 193 222 42 193 222 43 194 223 43 194 223 43 194 223 44 195 224 44 195 224 44 195 224 43 194 225 43 194 225 43 194 225 43 194 225 
0 176 209 0 176 209 0 176 209 0 176 209 0 176 209 0 176 209 0 176 209 0 176 209 0 177 210 0 177 210 0 177 210 0 177 210 0 177 210 0 177 210 0 177 210 0 177 210 0 177 210 0 177 210 0 177 210 0 177 210 0 177 210 0 177 210 0 177 210 0 177 210 0 175 212 0 175 212 0 175 212 0 176 213 0 176 213 1 177 214 1 177 214 1 177 214 1 177 214 1 177 214 1 177 214 1 177 214 1 177 214 1 177 214 1 177 214 1 177 214 0 178 214 0 178 214 0 178 214 0 178 214 0 178 214 0 178 214 0 178 214 0 178 214 0 178 214 0 178 214 0 178 214 0 178 214 0 178 214 0 178 214 0 178 214 0 178 214 0 178 214 0 178 214 0 178 214 0 178 214 0 178 214 0 178 214 0 178 214 0 178 214 1 179 215 1 179 215 1 179 215 1 179 215 1 179 215 1 179 215 1 179 215 1 179 215 2 178 215 2 178 215 2 178 215 2 178 215 2 178 215 2 178 215 2 178 215 2 178 215 11 175 210 8 177 210 4 179 210 0 181 212 0 182 212 0 181 213 1 180 213 2 179 213 0 177 222 0 179 218 0 182 212 0 185 206 0 185 204 3 185 206 8 184 208 13 182 213 0 174 200 0 176 198 2 179 199 2 181 201 1 183 204 0 185 211 0 185 214 0 185 218 0 189 224 0 188 224 0 187 225 0 186 225 3 185 225 6 183 227 9 181 227 10 181 227 1 189 218 1 189 218 1 189 218 1 189 218 1 189 218 1 189 218 1 189 218 1 189 218 1 188 221 1 188 221 1 188 221 1 188 221 1 188 221 1 188 221 1 188 221 1 188 221 0 189 221 0 189 221 0 189 221 0 189 221 0 189 221 0 189 221 0 189 221 0 189 221 1 190 222 1 190 222 1 190 222 1 190 222 1 190 222 1 190 222 1 190 222 1 190 222 1 190 222 1 190 222 1 190 222 1 190 222 1 190 222 1 190 222 1 190 222 1 190 222 2 189 222 2 189 222 3 190 223 3 190 223 3 190 223 4 191 224 4 191 224 4 191 224 3 190 223 3 190 223 3 190 223 3 190 223 3 190 223 3 190 223 3 190 223 3 190 223 8 191 222 8 191 222 11 192 223 11 192 223 13 192 224 15 192 225 18 192 226 18 192 226 20 193 225 20 193 225 22 192 225 22 192 225 23 192 225 24 191 225 24 191 225 26 190 225 25 193 222 25 193 222 25 193 222 25 193 222 25 193 222 25 193 222 25 193 222 25 193 222 28 193 221 28 193 221 29 193 221 31 192 221 32 193 222 33 192 222 33 192 222 35 192 223 34 193 223 
34 193 223 34 193 223 34 193 223 34 193 223 34 193 223 34 193 223 34 193 223 33 194 223 33 194 223 33 194 223 33 194 223 33 194 223 33 194 223 33 194 223 33 194 223 33 194 222 34 193 222 34 193 222 36 194 223 36 194 223 38 193 223 40 193 224 40 193 224 43 194 225 43 194 225 43 194 225 43 194 225 43 194 225 43 194 225 43 194 225 43 194 225 43 194 225 43 194 225 43 194 225 43 194 225 43 194 225 43 194 225 43 194 225 43 194 225 42 193 224 42 193 224 42 193 224 42 193 224 42 193 224 42 193 224 42 193 224 42 193 224 42 193 224 42 193 224 43 194 225 43 194 225 43 194 225 44 195 226 44 195 226 44 195 226 44 193 225 44 193 225 44 193 225 44 193 225 44 193 225 44 193 225 44 193 225 44 193 225 44 193 223 44 193 223 44 193 223 44 193 223 44 193 223 44 193 223 44 193 223 44 193 223 44 193 223 44 193 223 45 194 224 45 194 224 45 194 224 46 195 225 46 195 225 46 195 225 45 194 226 45 194 226 45 194 226 45 194 226 
0 176 209 0 176 209 0 176 209 0 176 209 0 176 209 0 176 209 0 176 209 0 176 209 0 177 210 0 177 210 0 177 210 0 177 210 0 177 210 0 177 210 0 177 210 0 177 210 0 177 210 0 177 210 0 177 210 0 177 210 0 177 210 0 177 210 0 177 210 0 177 210 0 175 212 0 175 212 0 175 212 0 176 213 0 176 213 1 177 214 1 177 214 1 177 214 1 177 214 1 177 214 1 177 214 1 177 214 1 177 214 1 177 214 1 177 214 1 177 214 0 178 214 0 178 214 0 178 214 0 178 214 0 178 214 0 178 214 0 178 214 0 178 214 0 178 214 0 178 214 0 178 214 0 178 214 0 178 214 0 178 214 0 178 214 0 178 214 0 178 214 0 178 214 0 178 214 0 178 214 0 178 214 0 178 214 0 178 214 0 178 214 1 179 215 1 179 215 1 179 215 1 179 215 1 179 215 1 179 215 1 179 215 1 179 215 2 178 215 2 178 215 2 178 215 2 178 215 2 178 215 2 178 215 2 178 215 2 178 215 9 175 213 5 177 213 1 180 212 0 182 212 0 182 210 1 181 208 7 178 208 9 177 206 0 188 204 0 186 198 13 181 190 28 175 182 44 167 175 54 157 172 61 149 171 63 144 173 45 156 173 46 156 171 47 155 167 46 157 166 44 161 171 40 167 184 35 174 197 32 177 204 3 188 206 2 189 208 0 189 211 0 188 215 0 189 218 0 188 222 0 188 224 0 189 225 1 189 218 1 189 218 1 189 218 1 189 218 1 189 218 1 189 218 1 189 218 1 189 218 1 188 221 1 188 221 1 188 221 1 188 221 1 188 221 1 188 221 1 188 221 1 188 221 0 189 221 0 189 221 0 189 221 0 189 221 0 189 221 0 189 221 0 189 221 0 189 221 1 190 222 1 190 222 1 190 222 1 190 222 1 190 222 1 190 222 1 190 222 1 190 222 1 190 222 1 190 222 1 190 222 1 190 222 1 190 222 1 190 222 1 190 222 1 190 222 2 189 222 2 189 222 3 190 223 3 190 223 3 190 223 4 191 224 4 191 224 4 191 224 4 191 224 4 191 224 4 191 224 4 191 224 4 191 224 4 191 224 4 191 224 4 191 224 7 192 222 7 192 222 9 192 223 13 192 224 15 192 225 17 191 225 19 192 226 21 191 226 23 193 226 23 193 226 23 193 226 24 193 226 25 192 226 25 192 226 27 191 226 27 191 226 29 192 223 29 192 223 29 192 223 29 192 223 29 192 223 29 192 223 29 192 223 29 192 223 29 193 221 32 193 222 32 193 222 33 192 222 35 192 223 35 192 223 37 192 223 38 193 224 
36 193 224 36 193 224 36 193 224 36 193 224 36 193 224 36 193 224 36 193 224 36 193 224 35 194 224 35 194 224 35 194 224 35 194 224 35 194 224 35 194 224 35 194 224 35 194 224 35 194 223 35 194 223 36 194 223 37 195 224 39 194 224 40 193 224 41 194 225 41 194 225 44 195 224 44 195 224 44 195 224 44 195 224 44 195 224 44 195 224 44 195 224 44 195 224 45 194 224 45 194 224 45 194 224 45 194 224 45 194 224 45 194 224 45 194 224 45 194 224 44 193 225 44 193 225 44 193 225 44 193 225 44 193 225 44 193 225 44 193 225 44 193 225 44 193 225 44 193 225 44 193 225 45 194 226 45 194 226 46 195 227 46 195 227 46 195 227 44 193 223 44 193 223 44 193 223 44 193 223 44 193 223 44 193 223 44 193 223 44 193 223 44 194 221 44 194 221 44 194 221 44 194 221 44 194 221 44 194 221 44 194 221 44 194 221 45 194 224 45 194 224 46 195 225 46 195 225 46 195 225 47 196 226 47 196 226 47 196 226 46 195 227 46 195 227 46 195 227 46 195 227 
0 176 209 0 176 209 0 176 209 0 176 209 0 176 209 0 176 209 0 176 209 0 176 209 0 177 210 0 177 210 0 177 210 0 177 210 0 177 210 0 177 210 0 177 210 0 177 210 0 177 210 0 177 210 0 177 210 0 177 210 0 177 210 0 177 210 0 177 210 0 177 210 0 175 212 0 175 212 0 175 212 0 176 213 0 176 213 1 177 214 1 177 214 1 177 214 1 177 214 1 177 214 1 177 214 1 177 214 1 177 214 1 177 214 1 177 214 1 177 214 0 178 214 0 178 214 0 178 214 0 178 214 0 178 214 0 178 214 0 178 214 0 178 214 0 178 214 0 178 214 0 178 214 0 178 214 0 178 214 0 178 214 0 178 214 0 178 214 0 178 214 0 178 214 0 178 214 0 178 214 0 178 214 0 178 214 0 178 214 0 178 214 1 179 215 1 179 215 1 179 215 1 179 215 1 179 215 1 179 215 1 179 215 1 179 215 2 178 215 2 178 215 2 178 215 2 178 215 2 178 215 2 178 215 2 178 215 2 178 215 5 176 220 2 178 219 0 181 215 0 183 212 0 182 208 4 180 203 12 176 201 18 174 199 44 176 180 53 167 167 66 151 146 80 133 127 89 118 114 94 110 110 95 106 112 95 105 114 103 118 125 105 116 120 104 113 112 101 112 108 95 113 113 87 118 123 77 123 136 73 126 144 56 167 178 52 168 181 44 171 186 33 176 192 21 180 199 12 184 206 3 187 211 0 189 215 1 189 218 1 189 218 1 189 218 1 189 218 1 189 218 1 189 218 1 189 218 1 189 218 1 188 221 1 188 221 1 188 221 1 188 221 1 188 221 1 188 221 1 188 221 1 188 221 0 189 221 0 189 221 0 189 221 0 189 221 0 189 221 0 189 221 0 189 221 0 189 221 1 190 222 1 190 222 1 190 222 1 190 222 1 190 222 1 190 222 1 190 222 1 190 222 1 190 222 1 190 222 1 190 222 1 190 222 1 190 222 1 190 222 1 190 222 1 190 222 2 189 222 2 189 222 3 190 223 3 190 223 3 190 223 4 191 224 4 191 224 4 191 224 4 191 224 4 191 224 4 191 224 4 191 224 4 191 224 4 191 224 4 191 224 4 191 224 7 192 222 8 193 223 9 192 223 13 192 224 17 191 225 19 192 226 22 190 226 23 191 227 23 193 226 23 193 226 24 193 226 25 192 226 25 192 226 27 191 226 27 191 226 28 191 226 32 193 222 32 193 222 32 193 222 32 193 222 32 193 222 32 193 222 32 193 222 32 193 222 32 193 221 33 192 221 34 193 222 35 193 222 37 192 222 38 193 223 39 192 223 
39 192 223 38 193 223 38 193 223 38 193 223 38 193 223 38 193 223 38 193 223 38 193 223 38 193 223 36 194 223 36 194 223 36 194 223 36 194 223 36 194 223 36 194 223 36 194 223 36 194 223 35 194 223 37 195 224 37 195 224 39 194 224 41 194 225 41 194 225 43 194 225 43 194 225 46 195 225 46 195 225 46 195 225 46 195 225 46 195 225 46 195 225 46 195 225 46 195 225 47 195 225 47 195 225 47 195 225 47 195 225 47 195 225 47 195 225 47 195 225 47 195 225 46 193 226 46 193 226 46 193 226 46 193 226 46 193 226 46 193 226 46 193 226 46 193 226 46 193 226 46 193 226 46 193 226 46 193 226 47 194 227 47 194 227 48 195 228 48 195 228 46 194 224 46 194 224 46 194 224 46 194 224 46 194 224 46 194 224 46 194 224 46 194 224 46 194 222 46 194 222 46 194 222 46 194 222 46 194 222 46 194 222 46 194 222 46 194 222 47 195 225 47 195 225 47 195 225 48 196 226 48 196 226 48 196 226 49 197 227 49 197 227 48 195 228 48 195 228 48 195 228 48 195 228 
0 176 209 0 176 209 0 176 209 0 176 209 0 176 209 0 176 209 0 176 209 0 176 209 0 177 210 0 177 210 0 177 210 0 177 210 0 177 210 0 177 210 0 177 210 0 177 210 0 177 210 0 177 210 0 177 210 0 177 210 0 177 210 0 177 210 0 177 210 0 177 210 0 175 212 0 175 212 0 175 212 0 176 213 0 176 213 1 177 214 1 177 214 1 177 214 1 177 214 1 177 214 1 177 214 1 177 214 1 177 214 1 177 214 1 177 214 1 177 214 0 178 214 0 178 214 0 178 214 0 178 214 0 178 214 0 178 214 0 178 214 0 178 214 0 178 214 0 178 214 0 178 214 0 178 214 0 178 214 0 178 214 0 178 214 0 178 214 0 178 214 0 178 214 0 178 214 0 178 214 0 178 214 0 178 214 0 178 214 0 178 214 1 179 215 1 179 215 1 179 215 1 179 215 1 179 215 1 179 215 1 179 215 1 179 215 2 178 215 2 178 215 2 178 215 2 178 215 2 178 215 2 178 215 2 178 215 2 178 215 4 176 224 0 179 222 0 182 217 0 183 212 0 182 206 7 179 201 16 175 196 22 173 194 93 127 136 99 117 121 111 103 100 124 96 85 138 102 86 148 119 101 157 140 122 160 155 136 200 181 167 201 180 163 203 178 156 197 175 151 187 172 151 169 170 154 152 167 160 142 166 166 118 140 154 111 142 160 96 149 165 78 157 174 58 165 183 38 173 192 24 179 199 17 182 202 1 189 218 1 189 218 1 189 218 1 189 218 1 189 218 1 189 218 1 189 218 1 189 218 1 188 221 1 188 221 1 188 221 1 188 221 1 188 221 1 188 221 1 188 221 1 188 221 0 189 221 0 189 221 0 189 221 0 189 221 0 189 221 0 189 221 0 189 221 0 189 221 1 190 222 1 190 222 1 190 222 1 190 222 1 190 222 1 190 222 1 190 222 1 190 222 1 190 222 1 190 222 1 190 222 1 190 222 1 190 222 1 190 222 1 190 222 1 190 222 2 189 222 2 189 222 3 190 223 3 190 223 3 190 223 4 191 224 4 191 224 4 191 224 4 191 224 4 191 224 4 191 224 4 191 224 4 191 224 4 191 224 4 191 224 4 191 224 6 194 223 8 193 223 10 193 224 13 192 224 17 191 225 21 191 226 22 190 226 24 191 227 23 193 226 24 193 226 24 193 226 25 192 226 27 191 226 27 191 226 28 191 226 28 191 226 32 193 222 32 193 222 32 193 222 32 193 222 32 193 222 32 193 222 32 193 222 32 193 222 34 193 222 34 193 222 35 193 222 35 193 222 38 193 223 
39 192 223 39 192 223 40 193 224 40 193 224 40 193 224 40 193 224 40 193 224 40 193 224 40 193 224 40 193 224 40 193 224 39 194 224 39 194 224 39 194 224 39 194 224 39 194 224 39 194 224 39 194 224 39 194 224 37 195 224 37 195 224 37 195 224 40 195 225 41 194 225 41 194 225 44 195 226 44 195 226 46 195 225 46 195 225 46 195 225 46 195 225 46 195 225 46 195 225 46 195 225 46 195 225 49 194 225 49 194 225 49 194 225 49 194 225 49 194 225 49 194 225 49 194 225 49 194 225 48 192 226 48 192 226 48 192 226 48 192 226 48 192 226 48 192 226 48 192 226 48 192 226 48 192 226 48 192 226 48 192 226 49 193 227 49 193 227 50 194 228 50 194 228 50 194 228 46 194 224 46 194 224 46 194 224 46 194 224 46 194 224 46 194 224 46 194 224 46 194 224 46 194 220 46 194 220 46 194 220 46 194 220 46 194 220 46 194 220 46 194 220 46 194 220 47 195 225 47 195 225 48 196 226 48 196 226 48 196 226 49 197 227 49 197 227 49 197 227 48 195 228 48 195 228 48 195 228 48 195 228 
0 176 209 0 176 209 0 176 209 0 176 209 0 176 209 0 176 209 0 176 209 0 176 209 0 176 213 0 176 213 0 176 213 0 176 213 0 176 213 0 176 213 0 176 213 0 176 213 0 176 213 0 176 213 0 176 213 0 176 213 0 176 213 0 176 213 0 176 213 0 176 213 0 176 213 0 176 213 0 176 213 0 176 213 0 176 213 0 176 213 0 176 213 0 176 213 1 177 214 1 177 214 1 177 214 1 177 214 1 177 214 1 177 214 1 177 214 1 177 214 0 178 214 0 178 214 0 178 214 0 178 214 0 178 214 0 178 214 0 178 214 0 178 214 0 178 214 0 178 214 0 178 214 0 178 214 0 178 214 0 178 214 0 178 214 0 178 214 0 178 214 0 178 214 0 178 214 0 178 214 0 178 214 0 178 214 0 178 214 0 178 214 1 177 214 1 177 214 1 177 214 1 177 214 1 177 214 1 177 214 1 177 214 1 177 214 15 166 211 6 173 207 0 179 205 0 179 208 0 175 215 0 173 215 2 177 208 1 181 198 16 178 227 12 180 225 6 180 217 7 175 202 25 167 187 56 160 171 83 146 153 97 135 138 129 104 84 142 121 102 154 141 122 165 158 139 177 174 155 191 189 174 200 196 184 202 198 186 215 215 207 215 215 207 216 216 208 216 216 208 214 214 206 210 210 202 207 207 199 204 204 196 199 200 194 206 203 196 205 196 187 180 180 172 138 159 154 97 151 153 71 160 166 60 171 182 12 185 219 7 191 219 1 190 220 0 182 223 0 179 230 4 184 233 1 191 225 0 194 211 0 190 221 0 189 221 1 188 221 3 187 221 3 187 221 3 187 221 1 188 221 1 188 221 0 189 221 0 189 221 0 189 221 0 189 221 0 189 221 0 189 221 0 189 221 0 189 221 1 190 222 1 190 222 1 190 222 1 190 222 1 190 222 1 190 222 1 190 222 1 190 222 1 190 222 1 190 222 1 190 222 1 190 222 1 190 222 1 190 222 1 190 222 1 190 222 0 190 222 0 190 222 2 191 223 2 191 223 3 190 223 6 190 224 6 190 224 6 190 224 6 191 221 6 191 221 6 191 221 6 191 221 6 191 221 6 191 221 6 191 221 6 191 221 13 192 225 14 191 224 14 191 224 16 191 222 17 192 223 18 191 221 19 192 222 21 192 220 26 191 223 26 191 223 26 191 223 25 192 224 24 193 224 25 194 225 25 194 225 24 195 225 31 192 220 31 192 220 33 192 221 33 192 221 34 192 221 37 192 222 37 192 222 37 192 222 39 194 224 39 194 224 39 194 224 40 193 224 
43 194 225 43 194 225 45 194 226 45 194 226 44 193 225 44 193 225 44 193 225 44 193 225 44 193 225 44 193 225 44 193 225 44 193 225 39 193 221 40 194 222 42 193 222 42 193 222 44 193 223 44 193 223 45 193 223 46 194 224 47 195 225 47 195 225 47 195 225 47 195 225 47 195 225 47 195 225 47 195 225 47 195 225 50 193 225 50 193 225 50 193 225 50 193 225 50 193 225 50 193 225 50 193 225 50 193 225 54 193 224 54 193 224 54 193 224 54 193 224 54 193 224 54 193 224 54 193 224 54 193 224 54 193 226 54 193 226 53 193 226 53 193 226 51 194 226 50 195 226 50 195 226 50 195 226 49 194 225 49 194 225 49 194 225 49 194 225 49 194 225 49 194 225 49 194 225 49 194 225 50 195 226 50 195 226 50 195 226 50 195 226 50 195 226 50 195 226 50 195 226 50 195 226 50 193 223 50 193 223 50 193 223 50 193 223 50 193 223 50 193 223 50 193 223 50 193 223 55 194 225 55 194 225 55 194 225 55 194 225 55 194 225 55 194 225 55 194 225 55 194 225 54 195 225 54 195 225 54 195 225 54 195 225 
0 176 209 0 176 209 0 176 209 0 176 209 0 176 209 0 176 209 0 176 209 0 176 209 0 176 213 0 176 213 0 176 213 0 176 213 0 176 213 0 176 213 0 176 213 0 176 213 0 176 213 0 176 213 0 176 213 0 176 213 0 176 213 0 176 213 0 176 213 0 176 213 0 176 213 0 176 213 0 176 213 0 176 213 0 176 213 0 176 213 0 176 213 0 176 213 1 177 214 1 177 214 1 177 214 1 177 214 1 177 214 1 177 214 1 177 214 1 177 214 0 178 214 0 178 214 0 178 214 0 178 214 0 178 214 0 178 214 0 178 214 0 178 214 0 178 214 0 178 214 0 178 214 0 178 214 0 178 214 0 178 214 0 178 214 0 178 214 0 178 214 0 178 214 0 178 214 0 178 214 0 178 214 0 178 214 0 178 214 0 178 214 1 177 214 1 177 214 1 177 214 1 177 214 1 177 214 1 177 214 1 177 214 1 177 214 0 178 211 0 181 207 0 182 205 0 180 211 1 178 219 0 179 219 0 185 211 0 190 203 0 191 227 0 175 206 6 171 193 43 175 188 72 162 170 94 138 141 131 135 136 171 151 152 186 160 145 195 174 157 201 188 171 203 196 180 204 201 186 210 208 195 213 209 198 211 207 198 216 216 208 217 217 209 218 218 210 218 218 210 217 217 209 214 214 206 210 210 202 208 208 200 214 216 211 217 217 209 221 217 208 220 216 207 204 210 206 173 198 202 136 182 195 112 171 187 45 172 204 22 176 200 1 186 206 0 196 222 0 196 235 0 187 232 3 182 225 7 185 221 0 190 221 0 189 221 0 189 221 1 188 221 1 188 221 1 188 221 0 189 221 0 189 221 0 189 221 0 189 221 0 189 221 0 189 221 0 189 221 0 189 221 0 189 221 0 189 221 1 190 222 1 190 222 1 190 222 1 190 222 1 190 222 1 190 222 1 190 222 1 190 222 1 190 222 1 190 222 1 190 222 1 190 222 1 190 222 1 190 222 1 190 222 1 190 222 0 190 222 0 190 222 2 191 223 2 191 223 3 190 223 6 190 224 6 190 224 6 190 224 6 191 221 6 191 221 6 191 221 6 191 221 6 191 221 6 191 221 6 191 221 6 191 221 13 192 225 14 191 224 14 191 224 16 191 222 17 192 223 18 191 221 19 192 222 21 192 220 26 191 223 26 191 223 24 191 223 25 192 224 25 192 224 25 194 225 25 194 225 25 194 225 31 192 220 31 192 220 33 192 221 33 192 221 35 193 222 37 192 222 37 192 222 37 192 222 39 194 224 39 194 224 39 194 224 40 193 224 
43 194 225 43 194 225 45 194 226 45 194 226 44 193 225 44 193 225 44 193 225 44 193 225 44 193 225 44 193 225 44 193 225 44 193 225 40 194 222 40 194 222 42 193 222 43 194 223 44 193 223 44 193 223 46 194 224 46 194 224 47 195 225 47 195 225 47 195 225 47 195 225 47 195 225 47 195 225 47 195 225 47 195 225 50 193 225 50 193 225 50 193 225 50 193 225 50 193 225 50 193 225 50 193 225 50 193 225 54 193 224 54 193 224 54 193 224 54 193 224 54 193 224 54 193 224 54 193 224 54 193 224 54 193 226 54 193 226 53 193 226 53 193 226 51 194 226 50 195 226 50 195 226 50 195 226 49 194 225 49 194 225 49 194 225 49 194 225 49 194 225 49 194 225 49 194 225 49 194 225 50 195 226 50 195 226 50 195 226 50 195 226 50 195 226 50 195 226 50 195 226 50 195 226 50 193 223 50 193 223 50 193 223 50 193 223 50 193 223 50 193 223 50 193 223 50 193 223 55 194 225 55 194 225 55 194 225 55 194 225 55 194 225 55 194 225 55 194 225 55 194 225 54 195 225 54 195 225 54 195 225 54 195 225 
0 176 209 0 176 209 0 176 209 0 176 209 0 176 209 0 176 209 0 176 209 0 176 209 0 176 213 0 176 213 0 176 213 0 176 213 0 176 213 0 176 213 0 176 213 0 176 213 0 176 213 0 176 213 0 176 213 0 176 213 0 176 213 0 176 213 0 176 213 0 176 213 0 176 213 0 176 213 0 176 213 0 176 213 0 176 213 0 176 213 0 176 213 0 176 213 1 177 214 1 177 214 1 177 214 1 177 214 1 177 214 1 177 214 1 177 214 1 177 214 0 178 214 0 178 214 0 178 214 0 178 214 0 178 214 0 178 214 0 178 214 0 178 214 0 178 214 0 178 214 0 178 214 0 178 214 0 178 214 0 178 214 0 178 214 0 178 214 0 178 214 0 178 214 0 178 214 0 178 214 0 178 214 0 178 214 0 178 214 0 178 214 1 177 214 1 177 214 1 177 214 1 177 214 1 177 214 1 177 214 1 177 214 1 177 214 0 178 209 0 178 206 2 175 205 7 173 211 9 174 220 6 177 221 0 182 213 0 185 203 7 175 201 27 174 192 60 169 176 91 156 152 117 139 127 143 131 115 169 136 119 189 146 130 197 170 159 207 185 174 213 199 188 213 205 194 212 208 197 216 213 206 219 214 210 218 213 209 221 218 211 222 219 212 224 221 214 224 221 214 224 221 214 221 218 211 219 216 209 217 214 207 230 232 229 225 226 220 225 222 213 230 226 215 233 230 225 225 223 226 205 203 216 185 186 206 119 184 206 70 173 188 18 176 185 0 192 204 0 195 219 0 182 220 6 178 228 24 185 240 0 189 221 0 189 221 0 189 221 0 189 221 0 189 221 0 189 221 0 189 221 0 189 221 0 189 221 0 189 221 0 189 221 0 189 221 0 189 221 0 189 221 0 189 221 0 189 221 1 190 222 1 190 222 1 190 222 1 190 222 1 190 222 1 190 222 1 190 222 1 190 222 1 190 222 1 190 222 1 190 222 1 190 222 1 190 222 1 190 222 1 190 222 1 190 222 0 190 222 0 190 222 2 191 223 2 191 223 3 190 223 6 190 224 6 190 224 6 190 224 6 191 221 6 191 221 6 191 221 6 191 221 6 191 221 6 191 221 6 191 221 6 191 221 13 192 225 14 191 224 14 191 224 16 191 222 17 192 223 18 191 221 19 192 222 21 192 220 24 191 223 24 191 223 24 191 223 25 192 224 25 192 224 26 193 225 26 193 225 26 193 225 32 193 221 32 193 221 33 192 221 33 192 221 35 193 222 37 192 222 38 193 223 38 193 223 39 194 224 39 194 224 39 194 224 
40 193 224 43 194 225 43 194 225 45 194 226 45 194 226 44 193 225 44 193 225 44 193 225 44 193 225 44 193 225 44 193 225 44 193 225 44 193 225 40 194 222 40 194 222 42 193 222 43 194 223 44 193 223 45 194 224 46 194 224 46 194 224 47 195 225 47 195 225 47 195 225 47 195 225 47 195 225 47 195 225 47 195 225 47 195 225 50 193 225 50 193 225 50 193 225 50 193 225 50 193 225 50 193 225 50 193 225 50 193 225 54 193 224 54 193 224 54 193 224 54 193 224 54 193 224 54 193 224 54 193 224 54 193 224 54 193 226 54 193 226 53 193 226 53 193 226 51 194 226 50 195 226 50 195 226 50 195 226 49 194 225 49 194 225 49 194 225 49 194 225 49 194 225 49 194 225 49 194 225 49 194 225 50 195 226 50 195 226 50 195 226 50 195 226 50 195 226 50 195 226 50 195 226 50 195 226 50 193 223 50 193 223 50 193 223 50 193 223 50 193 223 50 193 223 50 193 223 50 193 223 55 194 225 55 194 225 55 194 225 55 194 225 55 194 225 55 194 225 55 194 225 55 194 225 55 194 225 55 194 225 55 194 225 55 194 225 
0 176 209 0 176 209 0 176 209 0 176 209 0 176 209 0 176 209 0 176 209 0 176 209 0 176 213 0 176 213 0 176 213 0 176 213 0 176 213 0 176 213 0 176 213 0 176 213 0 176 213 0 176 213 0 176 213 0 176 213 0 176 213 0 176 213 0 176 213 0 176 213 0 176 213 0 176 213 0 176 213 0 176 213 0 176 213 0 176 213 0 176 213 0 176 213 1 177 214 1 177 214 1 177 214 1 177 214 1 177 214 1 177 214 1 177 214 1 177 214 0 178 214 0 178 214 0 178 214 0 178 214 0 178 214 0 178 214 0 178 214 0 178 214 0 178 214 0 178 214 0 178 214 0 178 214 0 178 214 0 178 214 0 178 214 0 178 214 0 178 214 0 178 214 0 178 214 0 178 214 0 178 214 0 178 214 0 178 214 0 178 214 1 177 214 1 177 214 1 177 214 1 177 214 1 177 214 1 177 214 1 177 214 1 177 214 6 177 220 8 176 215 9 176 212 11 179 218 13 181 228 17 179 228 22 175 217 26 170 204 61 147 160 94 155 160 126 152 143 142 134 113 150 119 91 154 119 89 151 124 94 146 127 97 170 143 136 185 162 156 197 182 175 203 194 187 206 201 195 213 209 206 220 214 214 221 215 215 223 220 213 224 221 214 227 224 217 228 225 218 229 226 219 227 224 217 225 222 215 224 221 214 234 228 228 230 227 222 224 224 214 221 223 210 224 222 210 228 218 216 232 213 217 232 209 219 193 206 215 136 184 194 69 172 177 30 178 182 16 184 195 8 184 208 7 182 225 10 185 240 3 187 221 1 188 221 0 189 221 0 190 221 0 191 221 0 190 221 0 189 221 0 189 221 0 189 221 0 189 221 0 189 221 0 189 221 0 189 221 0 189 221 0 189 221 0 189 221 1 190 222 1 190 222 1 190 222 1 190 222 1 190 222 1 190 222 1 190 222 1 190 222 1 190 222 1 190 222 1 190 222 1 190 222 1 190 222 1 190 222 1 190 222 1 190 222 0 190 222 0 190 222 2 191 223 2 191 223 3 190 223 6 190 224 6 190 224 6 190 224 6 191 221 6 191 221 6 191 221 6 191 221 6 191 221 6 191 221 6 191 221 6 191 221 13 192 225 14 191 224 14 191 224 16 191 222 17 192 223 18 191 221 19 192 222 21 192 220 23 192 223 23 192 223 23 192 223 25 192 224 25 192 224 26 193 225 28 193 225 28 193 225 32 193 221 32 193 221 34 193 222 34 193 222 35 193 222 38 193 223 38 193 223 38 193 223 39 194 224 39 194 224 
39 194 224 40 193 224 43 194 225 43 194 225 45 194 226 45 194 226 45 194 226 45 194 226 45 194 226 45 194 226 45 194 226 45 194 226 45 194 226 45 194 226 40 194 222 41 195 223 43 194 223 43 194 223 45 194 224 45 194 224 46 194 224 47 195 225 47 195 225 47 195 225 47 195 225 47 195 225 47 195 225 47 195 225 47 195 225 47 195 225 51 194 226 51 194 226 51 194 226 51 194 226 51 194 226 51 194 226 51 194 226 51 194 226 55 194 225 55 194 225 55 194 225 55 194 225 55 194 225 55 194 225 55 194 225 55 194 225 54 193 226 54 193 226 53 193 226 53 193 226 51 194 226 50 195 226 50 195 226 50 195 226 50 195 226 50 195 226 50 195 226 50 195 226 50 195 226 50 195 226 50 195 226 50 195 226 51 194 226 51 194 226 51 194 226 51 194 226 51 194 226 51 194 226 51 194 226 51 194 226 51 194 224 51 194 224 51 194 224 51 194 224 51 194 224 51 194 224 51 194 224 51 194 224 55 194 225 55 194 225 55 194 225 55 194 225 55 194 225 55 194 225 55 194 225 55 194 225 55 194 225 55 194 225 55 194 225 55 194 225 
0 176 209 0 176 209 0 176 209 0 176 209 0 176 209 0 176 209 0 176 209 0 176 209 0 176 213 0 176 213 0 176 213 0 176 213 0 176 213 0 176 213 0 176 213 0 176 213 0 176 213 0 176 213 0 176 213 0 176 213 0 176 213 0 176 213 0 176 213 0 176 213 0 176 213 0 176 213 0 176 213 0 176 213 0 176 213 0 176 213 0 176 213 0 176 213 1 177 214 1 177 214 1 177 214 1 177 214 1 177 214 1 177 214 1 177 214 1 177 214 0 178 214 0 178 214 0 178 214 0 178 214 0 178 214 0 178 214 0 178 214 0 178 214 0 178 214 0 178 214 0 178 214 0 178 214 0 178 214 0 178 214 0 178 214 0 178 214 0 178 214 0 178 214 0 178 214 0 178 214 0 178 214 0 178 214 0 178 214 0 178 214 1 177 214 1 177 214 1 177 214 1 177 214 1 177 214 1 177 214 1 177 214 1 177 214 7 175 220 3 175 213 0 180 208 0 187 213 0 189 219 7 181 216 29 163 198 45 150 182 114 136 124 119 122 105 142 116 91 169 118 89 163 106 76 133 88 59 116 90 65 119 108 88 161 133 129 180 157 151 199 184 177 208 199 194 211 206 202 216 212 209 222 216 216 223 217 219 224 219 213 226 221 215 229 224 218 232 227 221 233 228 222 233 228 222 232 227 221 231 226 220 236 221 224 235 227 225 233 233 225 228 234 222 224 230 216 226 226 214 230 223 215 236 222 219 224 214 212 190 199 204 139 177 186 97 164 172 73 172 177 53 187 196 20 188 214 0 181 220 8 184 221 6 186 221 0 189 221 0 190 221 0 191 221 0 190 221 0 189 221 1 188 221 0 189 221 0 189 221 0 189 221 0 189 221 0 189 221 0 189 221 0 189 221 0 189 221 1 190 222 1 190 222 1 190 222 1 190 222 1 190 222 1 190 222 1 190 222 1 190 222 1 190 222 1 190 222 1 190 222 1 190 222 1 190 222 1 190 222 1 190 222 1 190 222 0 190 222 0 190 222 2 191 223 2 191 223 3 190 223 6 190 224 6 190 224 6 190 224 6 191 221 6 191 221 6 191 221 6 191 221 6 191 221 6 191 221 6 191 221 6 191 221 13 192 225 14 191 224 14 191 224 16 191 222 17 192 223 18 191 221 19 192 222 21 192 220 20 193 223 22 193 223 22 193 223 24 193 224 25 192 224 28 193 225 29 192 225 29 192 225 33 194 222 33 194 222 34 193 222 34 193 222 36 194 223 38 193 223 39 194 224 39 194 224 39 194 224 39 194 224 39 194 224 
40 193 224 43 194 225 43 194 225 45 194 226 45 194 226 45 194 226 45 194 226 45 194 226 45 194 226 45 194 226 45 194 226 45 194 226 45 194 226 41 195 223 41 195 223 43 194 223 44 195 224 45 194 224 46 195 225 47 195 225 47 195 225 47 195 225 47 195 225 47 195 225 47 195 225 47 195 225 47 195 225 47 195 225 47 195 225 51 194 226 51 194 226 51 194 226 51 194 226 51 194 226 51 194 226 51 194 226 51 194 226 55 194 225 55 194 225 55 194 225 55 194 225 55 194 225 55 194 225 55 194 225 55 194 225 54 193 226 54 193 226 53 193 226 53 193 226 51 194 226 50 195 226 50 195 226 50 195 226 50 195 226 50 195 226 50 195 226 50 195 226 50 195 226 50 195 226 50 195 226 50 195 226 53 193 226 53 193 226 53 193 226 53 193 226 53 193 226 53 193 226 53 193 226 53 193 226 51 194 224 51 194 224 51 194 224 51 194 224 51 194 224 51 194 224 51 194 224 51 194 224 55 194 225 55 194 225 55 194 225 55 194 225 55 194 225 55 194 225 55 194 225 55 194 225 56 193 225 56 193 225 56 193 225 56 193 225 
0 176 209 0 176 209 0 176 209 0 176 209 0 176 209 0 176 209 0 176 209 0 176 209 0 176 213 0 176 213 0 176 213 0 176 213 0 176 213 0 176 213 0 176 213 0 176 213 0 176 213 0 176 213 0 176 213 0 176 213 0 176 213 0 176 213 0 176 213 0 176 213 0 176 213 0 176 213 0 176 213 0 176 213 0 176 213 0 176 213 0 176 213 0 176 213 1 177 214 1 177 214 1 177 214 1 177 214 1 177 214 1 177 214 1 177 214 1 177 214 0 178 214 0 178 214 0 178 214 0 178 214 0 178 214 0 178 214 0 178 214 0 178 214 0 178 214 0 178 214 0 178 214 0 178 214 0 178 214 0 178 214 0 178 214 0 178 214 0 178 214 0 178 214 0 178 214 0 178 214 0 178 214 0 178 214 0 178 214 0 178 214 1 177 214 1 177 214 1 177 214 1 177 214 1 177 214 1 177 214 1 177 214 1 177 214 2 183 210 2 179 199 0 180 191 0 185 191 0 188 194 15 178 185 40 152 163 60 133 142 106 110 77 113 103 68 126 96 62 139 90 60 135 79 54 120 67 51 114 70 61 118 81 75 145 118 111 169 146 140 195 180 173 208 199 192 212 207 201 215 211 208 218 212 212 218 212 212 222 217 211 224 219 213 228 223 217 232 227 221 235 230 224 235 230 224 235 230 224 234 229 223 244 230 230 240 230 228 235 232 227 231 234 225 229 237 224 229 237 224 228 234 222 228 231 220 232 226 212 223 217 217 192 186 196 146 149 156 117 146 141 100 173 164 64 189 195 22 184 205 15 181 221 11 183 221 4 187 221 0 189 221 0 190 221 0 189 221 3 187 221 6 186 221 0 189 221 0 189 221 0 189 221 0 189 221 0 189 221 0 189 221 0 189 221 0 189 221 1 190 222 1 190 222 1 190 222 1 190 222 1 190 222 1 190 222 1 190 222 1 190 222 1 190 222 1 190 222 1 190 222 1 190 222 1 190 222 1 190 222 1 190 222 1 190 222 0 190 222 0 190 222 2 191 223 2 191 223 3 190 223 6 190 224 6 190 224 6 190 224 6 191 221 6 191 221 6 191 221 6 191 221 6 191 221 6 191 221 6 191 221 6 191 221 13 192 225 14 191 224 14 191 224 16 191 222 17 192 223 18 191 221 19 192 222 21 192 220 19 194 223 20 193 223 22 193 223 24 193 224 25 192 224 29 192 225 31 191 225 31 191 225 33 194 222 33 194 222 34 193 222 35 194 223 36 194 223 39 194 224 39 194 224 39 194 224 39 194 224 39 194 224 39 194 224 
40 193 224 43 194 225 43 194 225 45 194 226 45 194 226 45 194 226 45 194 226 45 194 226 45 194 226 45 194 226 45 194 226 45 194 226 45 194 226 41 195 223 42 196 224 44 195 224 44 195 224 46 195 225 46 195 225 47 195 225 47 195 225 47 195 225 47 195 225 47 195 225 47 195 225 47 195 225 47 195 225 47 195 225 47 195 225 52 195 227 52 195 227 52 195 227 52 195 227 52 195 227 52 195 227 52 195 227 52 195 227 56 195 226 56 195 226 56 195 226 56 195 226 56 195 226 56 195 226 56 195 226 56 195 226 54 193 226 54 193 226 53 193 226 53 193 226 51 194 226 50 195 226 50 195 226 50 195 226 51 196 227 51 196 227 51 196 227 51 196 227 51 196 227 51 196 227 51 196 227 51 196 227 53 193 226 53 193 226 53 193 226 53 193 226 53 193 226 53 193 226 53 193 226 53 193 226 52 195 225 52 195 225 52 195 225 52 195 225 52 195 225 52 195 225 52 195 225 52 195 225 55 194 225 55 194 225 55 194 225 55 194 225 55 194 225 55 194 225 55 194 225 55 194 225 58 193 225 58 193 225 58 193 225 58 193 225 
0 176 209 0 176 209 0 176 209 0 176 209 0 176 209 0 176 209 0 176 209 0 176 209 0 176 213 0 176 213 0 176 213 0 176 213 0 176 213 0 176 213 0 176 213 0 176 213 0 176 213 0 176 213 0 176 213 0 176 213 0 176 213 0 176 213 0 176 213 0 176 213 0 176 213 0 176 213 0 176 213 0 176 213 0 176 213 0 176 213 0 176 213 0 176 213 1 177 214 1 177 214 1 177 214 1 177 214 1 177 214 1 177 214 1 177 214 1 177 214 0 178 214 0 178 214 0 178 214 0 178 214 0 178 214 0 178 214 0 178 214 0 178 214 0 178 214 0 178 214 0 178 214 0 178 214 0 178 214 0 178 214 0 178 214 0 178 214 0 178 214 0 178 214 0 178 214 0 178 214 0 178 214 0 178 214 0 178 214 0 178 214 1 177 214 1 177 214 1 177 214 1 177 214 1 177 214 1 177 214 1 177 214 1 177 214 21 184 193 34 171 179 52 159 165 61 159 162 66 162 161 72 153 146 84 132 118 95 112 93 88 67 40 105 81 55 112 86 63 104 73 53 95 62 45 100 64 50 106 68 57 107 67 57 109 82 73 140 118 107 175 161 150 196 187 178 204 200 191 209 206 199 212 207 203 212 207 204 222 215 209 224 217 211 229 222 216 233 226 220 237 230 224 238 231 225 238 231 225 238 231 225 239 236 229 237 232 228 235 227 224 235 227 225 235 230 226 237 234 229 236 237 229 233 239 229 229 236 218 239 235 232 220 203 211 174 148 147 140 123 103 127 141 118 111 166 161 90 173 191 22 177 221 17 180 221 8 184 221 1 188 221 0 189 221 1 188 221 6 186 221 10 184 221 0 189 221 0 189 221 0 189 221 0 189 221 0 189 221 0 189 221 0 189 221 0 189 221 1 190 222 1 190 222 1 190 222 1 190 222 1 190 222 1 190 222 1 190 222 1 190 222 1 190 222 1 190 222 1 190 222 1 190 222 1 190 222 1 190 222 1 190 222 1 190 222 0 190 222 0 190 222 2 191 223 2 191 223 3 190 223 6 190 224 6 190 224 6 190 224 6 191 221 6 191 221 6 191 221 6 191 221 6 191 221 6 191 221 6 191 221 6 191 221 13 192 225 14 191 224 14 191 224 16 191 222 17 192 223 18 191 221 19 192 222 21 192 220 17 195 223 19 194 223 20 193 223 24 193 224 27 192 224 29 192 225 31 191 225 32 190 225 33 194 222 34 195 223 35 194 223 35 194 223 37 195 224 39 194 224 39 194 224 39 194 224 39 194 224 39 194 224 39 194 224 
40 193 224 43 194 225 43 194 225 45 194 226 45 194 226 46 195 227 46 195 227 46 195 227 46 195 227 46 195 227 46 195 227 46 195 227 46 195 227 42 196 224 42 196 224 44 195 224 45 196 225 46 195 225 46 195 225 48 196 226 48 196 226 47 195 225 47 195 225 47 195 225 47 195 225 47 195 225 47 195 225 47 195 225 47 195 225 52 195 227 52 195 227 52 195 227 52 195 227 52 195 227 52 195 227 52 195 227 52 195 227 56 195 226 56 195 226 56 195 226 56 195 226 56 195 226 56 195 226 56 195 226 56 195 226 54 193 226 54 193 226 53 193 226 53 193 226 51 194 226 50 195 226 50 195 226 50 195 226 51 196 227 51 196 227 51 196 227 51 196 227 51 196 227 51 196 227 51 196 227 51 196 227 54 193 226 54 193 226 54 193 226 54 193 226 54 193 226 54 193 226 54 193 226 54 193 226 52 195 225 52 195 225 52 195 225 52 195 225 52 195 225 52 195 225 52 195 225 52 195 225 55 194 225 55 194 225 55 194 225 55 194 225 55 194 225 55 194 225 55 194 225 55 194 225 58 193 225 58 193 225 58 193 225 58 193 225 
0 176 209 0 176 209 0 176 209 0 176 209 0 176 209 0 176 209 0 176 209 0 176 209 0 176 213 0 176 213 0 176 213 0 176 213 0 176 213 0 176 213 0 176 213 0 176 213 0 176 213 0 176 213 0 176 213 0 176 213 0 176 213 0 176 213 0 176 213 0 176 213 0 176 213 0 176 213 0 176 213 0 176 213 0 176 213 0 176 213 0 176 213 0 176 213 1 177 214 1 177 214 1 177 214 1 177 214 1 177 214 1 177 214 1 177 214 1 177 214 0 178 214 0 178 214 0 178 214 0 178 214 0 178 214 0 178 214 0 178 214 0 178 214 0 178 214 0 178 214 0 178 214 0 178 214 0 178 214 0 178 214 0 178 214 0 178 214 0 178 214 0 178 214 0 178 214 0 178 214 0 178 214 0 178 214 0 178 214 0 178 214 1 177 214 1 177 214 1 177 214 1 177 214 1 177 214 1 177 214 1 177 214 1 177 214 32 157 159 59 138 143 96 115 129 118 107 121 122 109 118 118 105 97 115 89 66 116 73 39 99 38 33 98 47 43 102 69 64 100 81 74 80 72 59 62 55 36 70 60 33 93 79 50 90 63 52 125 103 90 165 151 138 191 183 170 202 198 187 208 205 196 211 206 200 211 206 202 220 213 207 223 216 210 228 221 215 232 225 219 236 229 223 238 231 225 239 232 226 238 231 225 222 230 217 232 233 225 245 235 234 252 233 237 250 229 234 246 230 233 244 234 233 245 240 236 219 234 215 238 244 240 234 223 227 194 167 156 154 121 88 141 116 85 137 134 129 133 145 169 27 175 221 20 179 221 11 183 221 4 187 221 1 188 221 4 187 221 8 184 221 13 182 221 0 189 221 0 189 221 0 189 221 0 189 221 0 189 221 0 189 221 0 189 221 0 189 221 1 190 222 1 190 222 1 190 222 1 190 222 1 190 222 1 190 222 1 190 222 1 190 222 1 190 222 1 190 222 1 190 222 1 190 222 1 190 222 1 190 222 1 190 222 1 190 222 0 190 222 0 190 222 2 191 223 2 191 223 3 190 223 6 190 224 6 190 224 6 190 224 6 191 221 6 191 221 6 191 221 6 191 221 6 191 221 6 191 221 6 191 221 6 191 221 13 192 225 14 191 224 14 191 224 16 191 222 17 192 223 18 191 221 19 192 222 21 192 220 17 195 223 19 194 223 20 193 223 24 193 224 27 192 224 31 191 225 32 190 225 33 190 225 34 195 223 34 195 223 35 194 223 35 194 223 37 195 224 39 194 224 39 194 224 40 195 225 39 194 224 39 194 224 39 194 224 
40 193 224 43 194 225 43 194 225 45 194 226 45 194 226 46 195 227 46 195 227 46 195 227 46 195 227 46 195 227 46 195 227 46 195 227 46 195 227 42 196 224 42 196 224 44 195 224 45 196 225 46 195 225 47 196 226 48 196 226 48 196 226 47 195 225 47 195 225 47 195 225 47 195 225 47 195 225 47 195 225 47 195 225 47 195 225 52 195 227 52 195 227 52 195 227 52 195 227 52 195 227 52 195 227 52 195 227 52 195 227 56 195 226 56 195 226 56 195 226 56 195 226 56 195 226 56 195 226 56 195 226 56 195 226 54 193 226 54 193 226 53 193 226 53 193 226 51 194 226 50 195 226 50 195 226 50 195 226 51 196 227 51 196 227 51 196 227 51 196 227 51 196 227 51 196 227 51 196 227 51 196 227 54 193 226 54 193 226 54 193 226 54 193 226 54 193 226 54 193 226 54 193 226 54 193 226 52 195 225 52 195 225 52 195 225 52 195 225 52 195 225 52 195 225 52 195 225 52 195 225 55 194 225 55 194 225 55 194 225 55 194 225 55 194 225 55 194 225 55 194 225 55 194 225 58 193 225 58 193 225 58 193 225 58 193 225 
1 175 212 1 175 212 1 175 212 1 175 212 1 175 212 1 175 212 1 175 212 1 175 212 1 175 212 1 175 212 1 175 212 1 175 212 1 175 212 1 175 212 1 175 212 1 175 212 0 176 213 0 176 213 0 176 213 0 176 213 0 176 213 0 176 213 0 176 213 0 176 213 1 177 214 1 177 214 1 177 214 1 177 214 1 177 214 1 177 214 1 177 214 1 177 214 1 177 214 1 177 214 1 177 214 1 177 214 1 177 214 1 177 214 1 177 214 1 177 214 1 177 214 1 177 214 1 177 214 1 177 214 1 177 214 1 177 214 1 177 214 1 177 214 1 177 214 1 177 214 1 177 214 1 177 214 1 177 214 1 177 214 1 177 214 1 177 214 0 179 214 0 179 214 0 179 214 0 179 214 0 179 214 0 179 214 0 179 214 0 179 214 0 177 225 7 179 217 8 177 210 0 174 209 0 174 216 10 174 212 33 165 188 49 153 162 77 115 100 97 103 91 126 97 83 129 84 63 140 101 70 116 88 51 105 75 41 94 57 28 69 42 35 79 55 45 79 60 46 71 54 38 71 54 34 82 62 38 82 58 34 71 45 22 99 75 63 130 108 95 158 138 127 183 164 157 206 191 184 211 198 192 210 199 195 222 211 209 210 201 194 221 212 205 230 221 216 233 224 219 235 225 223 240 230 229 241 231 230 240 230 229 239 231 229 239 231 229 239 231 229 239 231 229 239 231 229 239 231 229 239 231 229 239 231 229 235 236 231 230 231 226 228 227 225 216 211 208 175 168 162 126 118 107 112 103 86 125 114 94 92 155 173 59 164 183 16 175 196 0 189 218 0 185 224 0 187 230 5 199 237 0 182 216 1 188 221 1 188 221 1 188 221 1 188 221 1 188 221 1 188 221 1 188 221 1 188 221 0 189 221 0 189 221 0 189 221 0 189 221 0 189 221 0 189 221 0 189 221 0 189 221 1 190 222 1 190 222 1 190 222 1 190 222 1 190 222 1 190 222 1 190 222 1 190 222 2 189 222 2 189 222 2 189 222 2 189 222 2 189 222 2 189 222 2 189 222 2 189 222 3 190 223 3 190 223 3 190 223 3 190 223 3 190 223 3 190 223 3 190 223 3 190 223 7 190 224 8 191 225 10 190 223 11 191 224 13 192 224 14 193 223 15 193 223 16 194 224 21 191 224 21 191 224 23 192 225 24 193 224 25 193 222 28 193 223 29 194 222 29 194 222 32 192 226 32 192 226 34 193 225 34 193 225 36 193 224 38 193 224 38 193 223 38 193 223 40 193 224 40 193 224 42 193 224 42 193 224 
44 193 225 44 193 225 46 193 226 46 193 226 47 195 225 47 195 225 47 195 225 47 195 225 47 195 225 47 195 225 47 195 225 47 195 225 50 195 226 50 195 226 50 195 226 50 195 226 50 195 226 50 195 226 50 195 226 50 195 226 51 194 224 51 194 224 51 194 224 51 194 224 51 194 224 51 194 224 51 194 224 51 194 224 56 195 226 56 195 226 56 195 226 56 195 226 56 195 226 56 195 226 56 195 226 56 195 226 56 195 226 56 195 226 56 195 226 56 195 226 56 195 226 56 195 226 56 195 226 56 195 226 59 194 223 59 194 223 59 194 224 57 195 224 56 195 226 56 195 228 55 195 228 55 195 228 55 194 225 55 194 225 55 194 225 55 194 225 55 194 225 55 194 225 55 194 225 55 194 225 56 195 226 56 195 226 56 195 226 56 195 226 56 195 226 56 195 226 56 195 226 56 195 226 54 195 225 54 195 225 54 195 225 54 195 225 54 195 225 54 195 225 54 195 225 54 195 225 57 194 226 57 194 226 58 195 227 58 195 227 59 196 228 59 196 228 59 196 228 59 196 228 60 195 227 60 195 227 60 195 227 60 195 227 
1 175 212 1 175 212 1 175 212 1 175 212 1 175 212 1 175 212 1 175 212 1 175 212 1 175 212 1 175 212 1 175 212 1 175 212 1 175 212 1 175 212 1 175 212 1 175 212 0 176 213 0 176 213 0 176 213 0 176 213 0 176 213 0 176 213 0 176 213 0 176 213 1 177 214 1 177 214 1 177 214 1 177 214 1 177 214 1 177 214 1 177 214 1 177 214 1 177 214 1 177 214 1 177 214 1 177 214 1 177 214 1 177 214 1 177 214 1 177 214 1 177 214 1 177 214 1 177 214 1 177 214 1 177 214 1 177 214 1 177 214 1 177 214 1 177 214 1 177 214 1 177 214 1 177 214 1 177 214 1 177 214 1 177 214 1 177 214 0 179 214 0 179 214 0 179 214 0 179 214 0 179 214 0 179 214 0 179 214 0 179 214 2 179 223 2 178 215 1 178 211 0 179 216 2 179 220 19 169 202 41 151 168 58 133 136 83 104 89 89 86 71 104 75 57 110 70 45 109 76 43 93 67 32 88 57 28 81 43 20 64 42 31 69 49 38 68 50 36 60 47 31 64 48 32 73 56 38 78 55 37 75 49 32 79 57 44 108 86 75 142 122 113 172 153 146 193 178 171 203 189 186 207 196 194 215 205 203 220 211 204 225 216 209 229 220 213 231 222 217 232 222 220 234 224 222 235 225 224 234 224 223 236 228 226 237 229 227 237 229 227 238 230 228 239 231 229 239 231 229 240 232 230 240 232 230 236 237 232 230 229 225 230 226 225 220 215 212 179 172 166 122 114 103 95 86 69 100 89 69 93 123 125 87 145 149 66 162 176 46 181 203 21 180 210 4 178 213 8 192 226 0 188 223 1 188 221 1 188 221 1 188 221 1 188 221 1 188 221 1 188 221 1 188 221 1 188 221 0 189 221 0 189 221 0 189 221 0 189 221 0 189 221 0 189 221 0 189 221 0 189 221 1 190 222 1 190 222 1 190 222 1 190 222 1 190 222 1 190 222 1 190 222 1 190 222 2 189 222 2 189 222 2 189 222 2 189 222 2 189 222 2 189 222 2 189 222 2 189 222 3 190 223 3 190 223 3 190 223 3 190 223 3 190 223 3 190 223 3 190 223 3 190 223 7 190 224 8 191 225 10 190 223 11 191 224 13 192 224 14 193 223 15 193 223 16 194 224 21 191 224 21 191 224 23 192 225 24 193 224 25 193 222 28 193 223 29 194 222 29 194 222 32 192 226 32 192 226 34 193 225 34 193 225 36 193 224 38 193 224 38 193 223 38 193 223 40 193 224 40 193 224 42 193 224 42 193 224 
44 193 225 44 193 225 46 193 226 46 193 226 47 195 225 47 195 225 47 195 225 47 195 225 47 195 225 47 195 225 47 195 225 47 195 225 50 195 226 50 195 226 50 195 226 50 195 226 50 195 226 50 195 226 50 195 226 50 195 226 51 194 224 51 194 224 51 194 224 51 194 224 51 194 224 51 194 224 51 194 224 51 194 224 56 195 226 56 195 226 56 195 226 56 195 226 56 195 226 56 195 226 56 195 226 56 195 226 57 194 226 57 194 226 57 194 226 57 194 226 57 194 226 57 194 226 57 194 226 57 194 226 59 194 223 59 194 223 59 194 224 57 195 224 56 195 226 56 195 228 55 195 228 55 195 228 55 194 225 55 194 225 55 194 225 55 194 225 55 194 225 55 194 225 55 194 225 55 194 225 56 195 226 56 195 226 56 195 226 56 195 226 56 195 226 56 195 226 56 195 226 56 195 226 54 195 225 54 195 225 54 195 225 54 195 225 54 195 225 54 195 225 54 195 225 54 195 225 57 194 226 57 194 226 58 195 227 58 195 227 59 196 228 59 196 228 59 196 228 59 196 228 60 195 227 60 195 227 60 195 227 60 195 227 
1 175 212 1 175 212 1 175 212 1 175 212 1 175 212 1 175 212 1 175 212 1 175 212 1 175 212 1 175 212 1 175 212 1 175 212 1 175 212 1 175 212 1 175 212 1 175 212 0 176 213 0 176 213 0 176 213 0 176 213 0 176 213 0 176 213 0 176 213 0 176 213 1 177 214 1 177 214 1 177 214 1 177 214 1 177 214 1 177 214 1 177 214 1 177 214 1 177 214 1 177 214 1 177 214 1 177 214 1 177 214 1 177 214 1 177 214 1 177 214 1 177 214 1 177 214 1 177 214 1 177 214 1 177 214 1 177 214 1 177 214 1 177 214 1 177 214 1 177 214 1 177 214 1 177 214 1 177 214 1 177 214 1 177 214 1 177 214 0 178 214 0 178 214 0 178 214 0 178 214 0 178 214 0 178 214 0 178 214 0 178 214 6 179 219 0 178 214 0 181 214 0 185 220 10 180 213 30 159 181 55 126 132 71 102 94 99 94 75 90 73 53 96 69 42 111 80 49 95 71 35 89 64 33 83 51 28 75 36 21 60 42 30 59 43 30 55 43 29 52 43 28 57 45 31 66 50 37 74 54 43 79 55 45 80 58 45 103 81 70 141 121 112 174 155 148 188 173 166 200 186 183 209 198 196 211 201 199 222 213 204 222 213 204 225 216 209 230 221 216 232 223 218 231 221 219 230 220 218 229 219 218 232 224 221 233 225 222 234 226 223 236 228 225 237 229 226 239 231 228 240 232 229 241 233 230 240 239 235 230 229 225 231 227 226 225 220 217 185 176 171 123 113 103 88 76 60 84 73 53 96 90 68 116 112 100 114 130 130 101 158 169 69 176 194 26 178 202 10 188 218 3 190 225 1 188 221 1 188 221 1 188 221 1 188 221 1 188 221 1 188 221 1 188 221 1 188 221 0 189 221 0 189 221 0 189 221 0 189 221 0 189 221 0 189 221 0 189 221 0 189 221 1 190 222 1 190 222 1 190 222 1 190 222 1 190 222 1 190 222 1 190 222 1 190 222 2 189 222 2 189 222 2 189 222 2 189 222 2 189 222 2 189 222 2 189 222 2 189 222 3 190 223 3 190 223 3 190 223 3 190 223 3 190 223 3 190 223 3 190 223 3 190 223 7 190 224 8 191 225 10 190 223 11 191 224 13 192 224 14 193 223 15 193 223 16 194 224 21 191 224 21 191 224 23 192 225 24 193 224 25 193 222 28 193 223 29 194 222 29 194 222 32 192 226 32 192 226 34 193 225 34 193 225 36 193 224 38 193 224 38 193 223 38 193 223 40 193 224 40 193 224 42 193 224 42 193 224 44 193 225 
44 193 225 46 193 226 46 193 226 47 195 225 47 195 225 47 195 225 47 195 225 47 195 225 47 195 225 47 195 225 47 195 225 50 195 226 50 195 226 50 195 226 50 195 226 50 195 226 50 195 226 50 195 226 50 195 226 51 194 224 51 194 224 51 194 224 51 194 224 51 194 224 51 194 224 51 194 224 51 194 224 56 195 226 56 195 226 56 195 226 56 195 226 56 195 226 56 195 226 56 195 226 56 195 226 57 194 226 57 194 226 57 194 226 57 194 226 57 194 226 57 194 226 57 194 226 57 194 226 59 194 223 59 194 223 59 194 224 57 195 224 56 195 226 56 195 228 55 195 228 55 195 228 55 194 225 55 194 225 55 194 225 55 194 225 55 194 225 55 194 225 55 194 225 55 194 225 56 195 226 56 195 226 56 195 226 56 195 226 56 195 226 56 195 226 56 195 226 56 195 226 56 195 226 56 195 226 56 195 226 56 195 226 56 195 226 56 195 226 56 195 226 56 195 226 57 194 226 57 194 226 58 195 227 58 195 227 59 196 228 59 196 228 59 196 228 59 196 228 60 195 227 60 195 227 60 195 227 60 195 227 
1 175 212 1 175 212 1 175 212 1 175 212 1 175 212 1 175 212 1 175 212 1 175 212 1 175 212 1 175 212 1 175 212 1 175 212 1 175 212 1 175 212 1 175 212 1 175 212 0 176 213 0 176 213 0 176 213 0 176 213 0 176 213 0 176 213 0 176 213 0 176 213 0 176 213 0 176 213 0 176 213 0 176 213 0 176 213 0 176 213 0 176 213 0 176 213 1 177 214 1 177 214 1 177 214 1 177 214 1 177 214 1 177 214 1 177 214 1 177 214 1 177 214 1 177 214 1 177 214 1 177 214 1 177 214 1 177 214 1 177 214 1 177 214 0 176 213 0 176 213 0 176 213 0 176 213 0 176 213 0 176 213 0 176 213 0 176 213 0 177 213 0 177 213 0 177 213 0 177 213 0 177 213 0 177 213 0 177 213 0 177 213 6 176 211 0 178 211 0 182 217 1 184 216 19 169 193 42 136 146 68 99 93 85 77 58 97 69 47 86 56 30 96 67 35 124 100 62 103 81 44 97 72 42 81 48 31 66 28 19 54 42 30 48 38 26 46 38 25 52 44 31 56 46 34 61 47 38 71 51 44 82 57 52 89 63 50 105 82 68 146 124 111 178 158 149 189 172 164 203 188 181 218 205 199 217 203 200 212 203 194 213 204 195 219 210 201 229 220 213 234 225 220 232 223 218 229 219 217 228 218 216 228 220 217 229 221 218 231 223 220 233 225 222 236 228 225 238 230 227 240 232 229 241 233 230 240 239 235 234 230 227 234 228 228 230 222 220 189 180 175 130 117 108 94 81 65 89 76 57 95 69 34 121 84 58 126 88 79 125 123 124 104 169 175 49 182 197 8 188 215 0 186 223 1 188 221 1 188 221 1 188 221 1 188 221 1 188 221 1 188 221 1 188 221 1 188 221 0 189 221 0 189 221 0 189 221 0 189 221 0 189 221 0 189 221 0 189 221 0 189 221 1 190 222 1 190 222 1 190 222 1 190 222 1 190 222 1 190 222 1 190 222 1 190 222 2 189 222 2 189 222 2 189 222 2 189 222 2 189 222 2 189 222 2 189 222 2 189 222 3 190 223 3 190 223 3 190 223 3 190 223 3 190 223 3 190 223 3 190 223 3 190 223 7 190 224 8 191 225 10 190 223 11 191 224 13 192 224 14 193 223 15 193 223 16 194 224 21 191 224 21 191 224 23 192 225 24 193 224 25 193 222 28 193 223 29 194 222 29 194 222 32 192 226 32 192 226 34 193 225 34 193 225 36 193 224 38 193 224 38 193 223 38 193 223 40 193 224 40 193 224 42 193 224 42 193 224 44 193 225 
44 193 225 46 193 226 46 193 226 47 195 225 47 195 225 47 195 225 47 195 225 47 195 225 47 195 225 47 195 225 47 195 225 50 195 226 50 195 226 50 195 226 50 195 226 50 195 226 50 195 226 50 195 226 50 195 226 51 194 224 51 194 224 51 194 224 51 194 224 51 194 224 51 194 224 51 194 224 51 194 224 56 195 226 56 195 226 56 195 226 56 195 226 56 195 226 56 195 226 56 195 226 56 195 226 59 194 226 59 194 226 59 194 226 59 194 226 59 194 226 59 194 226 59 194 226 59 194 226 59 194 223 59 194 223 59 194 224 57 195 224 56 195 226 56 195 228 55 195 228 55 195 228 55 194 225 55 194 225 55 194 225 55 194 225 55 194 225 55 194 225 55 194 225 55 194 225 56 195 226 56 195 226 56 195 226 56 195 226 56 195 226 56 195 226 56 195 226 56 195 226 56 195 226 56 195 226 56 195 226 56 195 226 56 195 226 56 195 226 56 195 226 56 195 226 57 194 226 57 194 226 58 195 227 58 195 227 59 196 228 59 196 228 59 196 228 59 196 228 60 195 227 60 195 227 60 195 227 60 195 227 
1 175 212 1 175 212 1 175 212 1 175 212 1 175 212 1 175 212 1 175 212 1 175 212 1 175 212 1 175 212 1 175 212 1 175 212 1 175 212 1 175 212 1 175 212 1 175 212 0 176 213 0 176 213 0 176 213 0 176 213 0 176 213 0 176 213 0 176 213 0 176 213 0 176 213 0 176 213 0 176 213 0 176 213 0 176 213 0 176 213 0 176 213 0 176 213 1 177 214 1 177 214 1 177 214 1 177 214 1 177 214 1 177 214 1 177 214 1 177 214 1 177 214 1 177 214 1 177 214 1 177 214 1 177 214 1 177 214 1 177 214 1 177 214 0 176 213 0 176 213 0 176 213 0 176 213 0 176 213 0 176 213 0 176 213 0 176 213 0 176 213 0 176 213 0 176 213 0 176 213 0 176 213 0 176 213 0 176 213 0 176 213 0 172 202 0 178 210 3 180 213 14 168 194 30 140 153 54 106 102 78 77 59 94 59 37 94 52 27 84 49 17 101 73 34 140 115 74 125 97 60 116 85 57 89 56 41 67 33 24 43 33 23 37 29 18 39 33 21 50 42 29 57 47 35 62 45 35 71 48 40 83 56 49 90 61 43 105 76 60 143 115 101 174 148 135 183 161 148 200 180 171 218 199 192 219 202 194 208 200 189 211 203 192 217 208 199 222 213 204 226 217 210 228 219 214 228 219 214 228 219 214 225 218 212 226 219 213 228 221 215 230 223 217 233 226 220 235 228 222 237 230 224 238 231 225 235 231 228 234 230 227 238 232 232 233 223 222 194 183 179 137 124 115 98 85 69 89 74 55 82 57 26 109 67 42 114 66 46 124 100 88 115 151 149 63 175 186 12 186 213 0 187 225 1 188 221 1 188 221 1 188 221 1 188 221 1 188 221 1 188 221 1 188 221 1 188 221 0 189 221 0 189 221 0 189 221 0 189 221 0 189 221 0 189 221 0 189 221 0 189 221 1 190 222 1 190 222 1 190 222 1 190 222 1 190 222 1 190 222 1 190 222 1 190 222 2 189 222 2 189 222 2 189 222 2 189 222 2 189 222 2 189 222 2 189 222 2 189 222 3 190 223 3 190 223 3 190 223 3 190 223 3 190 223 3 190 223 3 190 223 3 190 223 7 190 224 8 191 225 10 190 223 11 191 224 13 192 224 14 193 223 15 193 223 16 194 224 21 191 224 21 191 224 23 192 225 24 193 224 25 193 222 28 193 223 29 194 222 29 194 222 32 192 226 32 192 226 34 193 225 34 193 225 36 193 224 38 193 224 38 193 223 38 193 223 40 193 224 40 193 224 42 193 224 42 193 224 44 193 225 
44 193 225 46 193 226 46 193 226 47 195 225 47 195 225 47 195 225 47 195 225 47 195 225 47 195 225 47 195 225 47 195 225 50 195 226 50 195 226 50 195 226 50 195 226 50 195 226 50 195 226 50 195 226 50 195 226 51 194 224 51 194 224 51 194 224 51 194 224 51 194 224 51 194 224 51 194 224 51 194 224 56 195 226 56 195 226 56 195 226 56 195 226 56 195 226 56 195 226 56 195 226 56 195 226 59 194 226 59 194 226 59 194 226 59 194 226 59 194 226 59 194 226 59 194 226 59 194 226 59 194 223 59 194 223 59 194 224 57 195 224 56 195 226 56 195 228 55 195 228 55 195 228 55 194 225 55 194 225 55 194 225 55 194 225 55 194 225 55 194 225 55 194 225 55 194 225 56 195 226 56 195 226 56 195 226 56 195 226 56 195 226 56 195 226 56 195 226 56 195 226 58 195 227 58 195 227 58 195 227 58 195 227 58 195 227 58 195 227 58 195 227 58 195 227 57 194 226 57 194 226 58 195 227 58 195 227 59 196 228 59 196 228 59 196 228 59 196 228 60 195 227 60 195 227 60 195 227 60 195 227 
1 175 212 1 175 212 1 175 212 1 175 212 1 175 212 1 175 212 1 175 212 1 175 212 1 175 212 1 175 212 1 175 212 1 175 212 1 175 212 1 175 212 1 175 212 1 175 212 0 176 213 0 176 213 0 176 213 0 176 213 0 176 213 0 176 213 0 176 213 0 176 213 0 175 212 0 175 212 0 175 212 0 175 212 0 175 212 0 175 212 0 175 212 0 175 212 1 177 214 1 177 214 1 177 214 1 177 214 1 177 214 1 177 214 1 177 214 1 177 214 1 177 214 1 177 214 1 177 214 1 177 214 1 177 214 1 177 214 1 177 214 1 177 214 0 175 212 0 175 212 0 175 212 0 175 212 0 175 212 0 175 212 0 175 212 0 175 212 1 175 212 1 175 212 1 175 212 1 175 212 1 175 212 1 175 212 1 175 212 1 175 212 0 172 202 5 175 208 16 167 198 27 138 158 45 103 104 68 79 63 84 62 39 88 52 28 88 47 19 86 52 17 108 79 39 147 112 72 148 105 71 134 90 65 101 66 47 70 44 31 29 18 12 27 17 8 32 24 13 46 36 24 59 46 30 68 49 34 80 54 39 94 62 47 115 79 55 129 93 71 153 118 98 170 139 119 177 148 130 189 161 147 203 177 164 207 184 170 204 196 183 214 206 195 219 211 200 216 207 198 215 206 197 222 213 206 227 218 213 227 218 213 225 218 210 226 219 211 227 220 212 229 222 214 230 223 215 232 225 217 233 226 218 234 227 219 225 220 217 231 226 223 239 230 231 233 223 222 202 188 185 150 136 127 104 88 73 78 63 44 67 44 30 93 65 43 107 71 45 122 92 68 119 122 111 82 151 158 37 181 205 0 191 224 1 188 221 1 188 221 1 188 221 1 188 221 1 188 221 1 188 221 1 188 221 1 188 221 0 189 221 0 189 221 0 189 221 0 189 221 0 189 221 0 189 221 0 189 221 0 189 221 1 190 222 1 190 222 1 190 222 1 190 222 1 190 222 1 190 222 1 190 222 1 190 222 2 189 222 2 189 222 2 189 222 2 189 222 2 189 222 2 189 222 2 189 222 2 189 222 3 190 223 3 190 223 3 190 223 3 190 223 3 190 223 3 190 223 3 190 223 3 190 223 7 190 224 8 191 225 10 190 223 11 191 224 13 192 224 14 193 223 15 193 223 16 194 224 21 191 224 21 191 224 23 192 225 24 193 224 25 193 222 28 193 223 29 194 222 29 194 222 32 192 226 32 192 226 34 193 225 34 193 225 36 193 224 38 193 224 38 193 223 38 193 223 40 193 224 40 193 224 42 193 224 42 193 224 44 193 225 
44 193 225 46 193 226 46 193 226 47 195 225 47 195 225 47 195 225 47 195 225 47 195 225 47 195 225 47 195 225 47 195 225 50 195 226 50 195 226 50 195 226 50 195 226 50 195 226 50 195 226 50 195 226 50 195 226 51 194 224 51 194 224 51 194 224 51 194 224 51 194 224 51 194 224 51 194 224 51 194 224 56 195 226 56 195 226 56 195 226 56 195 226 56 195 226 56 195 226 56 195 226 56 195 226 60 193 226 60 193 226 60 193 226 60 193 226 60 193 226 60 193 226 60 193 226 60 193 226 59 194 223 59 194 223 59 194 224 57 195 224 56 195 226 56 195 228 55 195 228 55 195 228 55 194 225 55 194 225 55 194 225 55 194 225 55 194 225 55 194 225 55 194 225 55 194 225 56 195 226 56 195 226 56 195 226 56 195 226 56 195 226 56 195 226 56 195 226 56 195 226 60 195 227 60 195 227 60 195 227 60 195 227 60 195 227 60 195 227 60 195 227 60 195 227 57 194 226 57 194 226 58 195 227 58 195 227 59 196 228 59 196 228 59 196 228 59 196 228 60 195 227 60 195 227 60 195 227 60 195 227 
1 175 212 1 175 212 1 175 212 1 175 212 1 175 212 1 175 212 1 175 212 1 175 212 1 175 212 1 175 212 1 175 212 1 175 212 1 175 212 1 175 212 1 175 212 1 175 212 0 176 213 0 176 213 0 176 213 0 176 213 0 176 213 0 176 213 0 176 213 0 176 213 0 175 212 0 175 212 0 175 212 0 175 212 0 175 212 0 175 212 0 175 212 0 175 212 1 177 214 1 177 214 1 177 214 1 177 214 1 177 214 1 177 214 1 177 214 1 177 214 1 177 214 1 177 214 1 177 214 1 177 214 1 177 214 1 177 214 1 177 214 1 177 214 0 175 212 0 175 212 0 175 212 0 175 212 0 175 212 0 175 212 0 175 212 0 175 212 1 175 212 1 175 212 1 175 212 1 175 212 1 175 212 1 175 212 1 175 212 1 175 212 0 175 206 9 174 206 24 147 178 36 102 116 61 68 60 85 59 36 87 55 30 74 49 29 74 39 9 81 51 15 111 79 38 142 97 58 161 102 70 138 80 58 96 60 38 55 40 19 25 11 10 26 12 9 33 20 11 47 35 21 66 49 31 85 63 40 106 76 52 120 86 59 151 107 78 163 119 92 169 127 102 170 133 107 173 137 115 175 140 120 180 147 128 190 159 139 186 178 165 209 201 188 224 216 205 218 210 199 215 206 197 223 214 207 227 218 211 223 214 207 226 219 211 226 219 211 227 220 212 227 220 212 228 221 213 229 222 214 229 222 214 230 223 215 222 217 214 229 221 219 232 222 223 227 215 215 210 196 193 172 158 149 121 105 90 81 64 46 68 36 39 89 67 53 105 85 50 127 93 55 136 99 80 120 130 132 79 174 192 19 185 207 1 188 221 1 188 221 1 188 221 1 188 221 1 188 221 1 188 221 1 188 221 1 188 221 0 189 221 0 189 221 0 189 221 0 189 221 0 189 221 0 189 221 0 189 221 0 189 221 1 190 222 1 190 222 1 190 222 1 190 222 1 190 222 1 190 222 1 190 222 1 190 222 2 189 222 2 189 222 2 189 222 2 189 222 2 189 222 2 189 222 2 189 222 2 189 222 3 190 223 3 190 223 3 190 223 3 190 223 3 190 223 3 190 223 3 190 223 3 190 223 7 190 224 8 191 225 10 190 223 11 191 224 13 192 224 14 193 223 15 193 223 16 194 224 21 191 224 21 191 224 23 192 225 24 193 224 25 193 222 28 193 223 29 194 222 29 194 222 32 192 226 32 192 226 34 193 225 34 193 225 36 193 224 38 193 224 38 193 223 38 193 223 40 193 224 40 193 224 42 193 224 42 193 224 44 193 225 
44 193 225 46 193 226 46 193 226 47 195 225 47 195 225 47 195 225 47 195 225 47 195 225 47 195 225 47 195 225 47 195 225 50 195 226 50 195 226 50 195 226 50 195 226 50 195 226 50 195 226 50 195 226 50 195 226 51 194 224 51 194 224 51 194 224 51 194 224 51 194 224 51 194 224 51 194 224 51 194 224 56 195 226 56 195 226 56 195 226 56 195 226 56 195 226 56 195 226 56 195 226 56 195 226 60 193 226 60 193 226 60 193 226 60 193 226 60 193 226 60 193 226 60 193 226 60 193 226 59 194 223 59 194 223 59 194 224 57 195 224 56 195 226 56 195 228 55 195 228 55 195 228 55 194 225 55 194 225 55 194 225 55 194 225 55 194 225 55 194 225 55 194 225 55 194 225 56 195 226 56 195 226 56 195 226 56 195 226 56 195 226 56 195 226 56 195 226 56 195 226 60 195 227 60 195 227 60 195 227 60 195 227 60 195 227 60 195 227 60 195 227 60 195 227 57 194 226 57 194 226 58 195 227 58 195 227 59 196 228 59 196 228 59 196 228 59 196 228 60 195 227 60 195 227 60 195 227 60 195 227 
1 175 212 1 175 212 1 175 212 1 175 212 1 175 212 1 175 212 1 175 212 1 175 212 1 175 212 1 175 212 1 175 212 1 175 212 1 175 212 1 175 212 1 175 212 1 175 212 0 176 213 0 176 213 0 176 213 0 176 213 0 176 213 0 176 213 0 176 213 0 176 213 0 175 212 0 175 212 0 175 212 0 175 212 0 175 212 0 175 212 0 175 212 0 175 212 1 177 214 1 177 214 1 177 214 1 177 214 1 177 214 1 177 214 1 177 214 1 177 214 1 177 214 1 177 214 1 177 214 1 177 214 1 177 214 1 177 214 1 177 214 1 177 214 0 175 212 0 175 212 0 175 212 0 175 212 0 175 212 0 175 212 0 175 212 0 175 212 1 175 212 1 175 212 1 175 212 1 175 212 1 175 212 1 175 212 1 175 212 1 175 212 0 179 210 12 170 205 28 133 162 42 79 88 70 48 34 96 51 22 89 55 30 64 48 32 71 42 12 86 60 23 123 90 49 149 97 60 181 110 82 149 83 59 97 61 37 50 40 13 28 12 13 30 15 12 37 22 15 52 36 21 74 56 34 104 78 51 131 98 67 147 111 77 163 117 84 175 128 98 172 127 98 167 123 96 168 128 102 165 128 102 167 131 107 183 147 125 162 154 141 199 191 178 227 219 206 226 218 207 223 214 205 230 221 212 229 220 213 218 209 202 227 220 212 227 220 212 227 220 212 227 220 212 227 220 212 227 220 212 227 220 212 227 220 212 225 220 217 227 219 217 224 214 215 219 207 207 215 201 198 194 177 169 145 127 113 96 79 61 81 34 50 90 68 55 104 91 49 135 94 48 156 90 64 156 120 120 113 169 182 37 174 190 1 188 221 1 188 221 1 188 221 1 188 221 1 188 221 1 188 221 1 188 221 1 188 221 0 189 221 0 189 221 0 189 221 0 189 221 0 189 221 0 189 221 0 189 221 0 189 221 1 190 222 1 190 222 1 190 222 1 190 222 1 190 222 1 190 222 1 190 222 1 190 222 2 189 222 2 189 222 2 189 222 2 189 222 2 189 222 2 189 222 2 189 222 2 189 222 3 190 223 3 190 223 3 190 223 3 190 223 3 190 223 3 190 223 3 190 223 3 190 223 7 190 224 8 191 225 10 190 223 11 191 224 13 192 224 14 193 223 15 193 223 16 194 224 21 191 224 21 191 224 23 192 225 24 193 224 25 193 222 28 193 223 29 194 222 29 194 222 32 192 226 32 192 226 34 193 225 34 193 225 36 193 224 38 193 224 38 193 223 38 193 223 40 193 224 40 193 224 42 193 224 42 193 224 
44 193 225 44 193 225 46 193 226 46 193 226 47 195 225 47 195 225 47 195 225 47 195 225 47 195 225 47 195 225 47 195 225 47 195 225 50 195 226 50 195 226 50 195 226 50 195 226 50 195 226 50 195 226 50 195 226 50 195 226 51 194 224 51 194 224 51 194 224 51 194 224 51 194 224 51 194 224 51 194 224 51 194 224 56 195 226 56 195 226 56 195 226 56 195 226 56 195 226 56 195 226 56 195 226 56 195 226 62 192 226 62 192 226 62 192 226 62 192 226 62 192 226 62 192 226 62 192 226 62 192 226 59 194 223 59 194 223 59 194 224 57 195 224 56 195 226 56 195 228 55 195 228 55 195 228 55 194 225 55 194 225 55 194 225 55 194 225 55 194 225 55 194 225 55 194 225 55 194 225 56 195 226 56 195 226 56 195 226 56 195 226 56 195 226 56 195 226 56 195 226 56 195 226 60 195 227 60 195 227 60 195 227 60 195 227 60 195 227 60 195 227 60 195 227 60 195 227 57 194 226 57 194 226 58 195 227 58 195 227 59 196 228 59 196 228 59 196 228 59 196 228 60 195 227 60 195 227 60 195 227 60 195 227 
1 175 209 1 175 209 1 175 209 1 175 209 1 175 209 1 175 209 1 175 209 1 175 209 2 175 209 2 175 209 2 175 209 2 175 209 2 175 209 2 175 209 2 175 209 2 175 209 1 175 209 1 175 209 1 175 209 1 175 209 1 175 209 1 175 209 1 175 209 1 175 209 0 178 210 0 178 210 0 178 210 0 178 210 0 178 210 0 178 210 0 178 210 0 178 210 1 175 212 1 175 212 1 175 212 1 175 212 1 175 212 1 175 212 1 175 212 1 175 212 2 176 213 2 176 213 2 176 213 2 176 213 2 176 213 2 176 213 2 176 213 2 176 213 2 176 213 2 176 213 1 175 212 1 175 212 1 175 212 0 174 211 0 174 211 0 174 211 7 180 222 1 179 217 0 179 210 0 176 206 0 170 203 0 167 203 0 170 208 0 175 213 21 169 199 36 131 149 53 83 83 60 53 35 58 47 19 60 51 18 69 50 20 78 47 19 68 40 16 87 58 26 130 92 55 154 102 63 167 107 73 160 106 82 96 61 42 31 15 0 17 8 11 19 7 7 34 15 9 60 34 21 90 55 36 117 77 52 143 99 72 162 117 88 175 136 95 170 126 87 182 133 100 186 135 104 162 115 87 164 122 97 171 137 110 161 131 105 164 135 131 199 176 170 214 199 192 211 202 193 216 212 203 220 213 207 219 208 204 226 210 210 231 216 211 239 226 220 219 206 200 219 206 198 230 220 210 226 218 207 223 215 202 218 210 197 223 222 228 216 211 215 215 205 204 217 200 192 209 187 174 211 185 168 186 159 140 148 121 100 91 72 42 86 67 52 137 104 99 152 94 82 173 102 74 171 122 90 152 155 138 122 172 173 35 177 215 4 182 212 2 193 222 17 189 229 10 179 220 0 189 220 0 198 224 0 187 217 1 188 221 1 188 221 1 188 221 1 188 221 1 188 221 1 188 221 1 188 221 1 188 221 0 189 221 0 189 221 0 189 221 0 189 221 0 189 221 0 189 221 0 189 221 0 189 221 2 189 222 2 189 222 2 189 222 2 189 222 2 189 222 2 189 222 2 189 222 2 189 222 1 188 221 1 188 221 1 188 221 2 189 222 2 189 222 3 190 223 3 190 223 3 190 223 3 192 224 5 192 225 5 192 225 7 191 225 8 192 226 9 192 226 9 192 226 12 192 227 21 191 224 22 191 224 22 191 224 24 191 225 26 190 225 26 190 225 28 191 226 28 191 226 32 192 226 34 192 227 34 193 225 35 192 225 38 193 224 38 193 224 39 192 223 40 193 224 39 194 224 39 194 224 39 194 224 40 193 224 43 194 225 
43 194 225 45 194 226 45 194 226 47 195 225 47 195 225 47 195 225 47 195 225 47 195 225 47 195 225 47 195 225 47 195 225 50 193 225 50 193 225 50 193 225 51 194 226 51 194 226 52 195 227 52 195 227 52 195 227 54 193 224 54 193 224 55 194 225 55 194 225 55 194 225 56 195 226 56 195 226 56 195 226 59 194 224 59 194 224 60 195 225 60 195 225 61 196 226 61 196 226 61 196 226 61 196 226 63 196 227 63 196 227 63 196 227 63 196 227 63 196 227 63 196 227 63 196 227 63 196 227 59 196 228 59 196 228 58 197 228 57 198 228 56 197 227 54 197 227 53 196 226 52 197 226 60 195 227 60 195 227 60 195 227 60 195 227 60 195 227 60 195 227 60 195 227 60 195 227 59 194 226 59 194 226 60 195 227 60 195 227 61 196 228 61 196 228 61 196 228 61 196 228 63 196 229 63 196 229 63 196 229 63 196 229 63 196 229 63 196 229 63 196 229 63 196 229 63 196 229 63 196 229 63 196 229 63 196 229 63 196 229 63 196 229 63 196 229 63 196 229 58 196 225 58 196 225 60 195 225 60 195 225 
1 175 209 1 175 209 1 175 209 1 175 209 1 175 209 1 175 209 1 175 209 1 175 209 2 175 209 2 175 209 2 175 209 2 175 209 2 175 209 2 175 209 2 175 209 2 175 209 1 175 209 1 175 209 1 175 209 1 175 209 1 175 209 1 175 209 1 175 209 1 175 209 0 177 210 0 177 210 0 177 210 0 177 210 0 177 210 0 177 210 0 177 210 0 177 210 1 175 212 1 175 212 1 175 212 1 175 212 1 175 212 1 175 212 1 175 212 1 175 212 2 176 213 2 176 213 2 176 213 2 176 213 2 176 213 2 176 213 2 176 213 2 176 213 2 176 213 2 176 213 1 175 212 1 175 212 1 175 212 0 174 211 0 174 211 0 174 211 6 178 218 0 178 214 0 177 210 0 175 207 0 172 206 0 170 206 0 171 211 0 175 215 28 152 176 37 115 127 49 68 64 56 43 24 58 43 14 62 48 19 66 46 19 71 39 14 69 43 18 88 59 29 131 93 56 155 103 64 166 105 74 157 103 79 91 58 41 29 13 0 22 18 19 19 9 7 35 18 10 73 47 32 113 78 56 137 97 71 150 106 77 157 112 81 161 117 82 171 125 92 164 113 84 168 114 90 158 106 84 149 102 82 145 104 84 172 135 116 149 118 113 188 163 156 210 192 182 210 197 188 215 206 197 222 212 203 222 209 203 227 209 205 226 213 207 236 223 217 220 207 201 218 208 199 230 220 210 227 217 207 225 217 204 220 212 199 217 208 211 215 205 204 194 179 174 209 187 176 218 191 174 204 172 151 184 150 125 192 156 130 125 98 69 92 66 49 116 84 73 143 90 72 176 111 79 173 125 89 152 145 126 128 160 157 46 181 211 8 182 207 0 190 218 12 188 227 9 181 221 0 189 220 0 197 223 0 187 218 1 188 221 1 188 221 1 188 221 1 188 221 1 188 221 1 188 221 1 188 221 1 188 221 0 189 221 0 189 221 0 189 221 0 189 221 0 189 221 0 189 221 0 189 221 0 189 221 2 189 222 2 189 222 2 189 222 2 189 222 2 189 222 2 189 222 2 189 222 2 189 222 1 188 221 1 188 221 1 188 221 2 189 222 2 189 222 3 190 223 3 190 223 3 190 223 3 192 224 4 191 224 5 192 225 7 191 225 7 191 225 9 192 226 9 192 226 11 191 226 21 191 224 21 191 224 22 191 224 24 191 225 24 191 225 26 190 225 27 191 226 28 191 226 32 192 226 32 192 226 34 193 225 35 192 225 35 192 223 38 193 224 38 193 223 39 192 223 39 194 224 39 194 224 39 194 224 40 193 224 43 194 225 
43 194 225 45 194 226 45 194 226 47 195 225 47 195 225 47 195 225 47 195 225 47 195 225 47 195 225 47 195 225 47 195 225 50 193 225 50 193 225 50 193 225 51 194 226 51 194 226 52 195 227 52 195 227 52 195 227 54 193 224 54 193 224 55 194 225 55 194 225 55 194 225 56 195 226 56 195 226 56 195 226 59 194 224 59 194 224 60 195 225 60 195 225 61 196 226 61 196 226 61 196 226 61 196 226 63 196 227 63 196 227 63 196 227 63 196 227 63 196 227 63 196 227 63 196 227 63 196 227 59 196 228 59 196 228 58 197 228 58 197 228 56 197 227 54 197 227 53 196 226 53 196 226 60 195 227 60 195 227 60 195 227 60 195 227 60 195 227 60 195 227 60 195 227 60 195 227 59 194 226 59 194 226 60 195 227 60 195 227 61 196 228 61 196 228 61 196 228 61 196 228 63 196 229 63 196 229 63 196 229 63 196 229 63 196 229 63 196 229 63 196 229 63 196 229 63 196 229 63 196 229 63 196 229 63 196 229 63 196 229 63 196 229 63 196 229 63 196 229 58 196 225 60 195 225 60 195 225 61 194 225 
0 174 208 0 174 208 0 174 208 0 174 208 0 174 208 0 174 208 0 174 208 0 174 208 1 174 208 1 174 208 1 174 208 1 174 208 1 174 208 1 174 208 1 174 208 1 174 208 0 174 208 0 174 208 0 174 208 0 174 208 0 174 208 0 174 208 0 174 208 0 174 208 0 177 210 0 177 210 0 177 210 0 177 210 0 177 210 0 177 210 0 177 210 0 177 210 1 175 212 1 175 212 1 175 212 1 175 212 1 175 212 1 175 212 1 175 212 1 175 212 2 176 213 2 176 213 2 176 213 2 176 213 2 176 213 2 176 213 2 176 213 2 176 213 2 176 213 2 176 213 1 175 212 1 175 212 1 175 212 0 174 211 0 174 211 0 174 211 4 176 212 0 177 211 0 176 209 0 174 209 0 173 210 4 174 210 9 173 211 11 170 210 40 126 139 42 91 95 47 50 39 52 31 10 57 36 9 63 43 18 65 41 17 65 33 10 71 45 22 87 60 30 131 96 58 155 105 68 165 106 74 151 99 75 85 52 35 24 8 0 22 22 22 19 14 10 42 26 13 85 58 37 123 87 61 136 95 65 139 96 62 141 98 64 151 107 82 155 109 85 136 88 66 127 78 61 123 74 59 116 70 55 109 67 53 130 92 79 123 93 83 169 141 130 200 178 167 207 189 177 214 200 189 224 210 201 228 211 203 228 209 202 220 209 203 232 221 215 221 210 204 221 211 202 228 218 208 226 216 206 227 217 205 219 209 197 209 191 187 208 189 183 198 176 165 206 178 164 181 146 126 192 152 126 214 169 138 193 147 113 159 117 93 111 76 57 113 80 63 140 96 71 169 113 76 162 114 76 154 132 109 156 159 152 68 183 202 17 182 201 0 186 211 5 187 224 8 184 221 0 191 219 0 194 221 4 188 224 1 188 221 1 188 221 1 188 221 1 188 221 1 188 221 1 188 221 1 188 221 1 188 221 0 189 221 0 189 221 0 189 221 0 189 221 0 189 221 0 189 221 0 189 221 0 189 221 2 189 222 2 189 222 2 189 222 2 189 222 2 189 222 2 189 222 2 189 222 2 189 222 1 188 221 1 188 221 1 188 221 2 189 222 2 189 222 3 190 223 3 190 223 3 190 223 3 192 224 4 191 224 4 191 224 7 191 225 7 191 225 9 192 226 9 192 226 11 191 226 21 191 224 21 191 224 21 191 224 23 192 225 24 191 225 24 191 225 27 191 226 27 191 226 32 192 226 32 192 226 32 192 224 34 193 225 35 192 223 36 193 224 38 193 223 38 193 223 39 194 224 39 194 224 39 194 224 40 193 224 43 194 225 43 194 225 
45 194 226 45 194 226 47 195 225 47 195 225 47 195 225 47 195 225 47 195 225 47 195 225 47 195 225 47 195 225 50 193 225 50 193 225 50 193 225 51 194 226 51 194 226 52 195 227 52 195 227 52 195 227 54 193 224 54 193 224 55 194 225 55 194 225 55 194 225 56 195 226 56 195 226 56 195 226 59 194 224 59 194 224 60 195 225 60 195 225 61 196 226 61 196 226 61 196 226 61 196 226 63 196 227 63 196 227 63 196 227 63 196 227 63 196 227 63 196 227 63 196 227 63 196 227 61 196 228 59 196 228 59 196 228 58 197 228 56 197 227 56 197 227 53 196 226 53 196 226 60 195 227 60 195 227 60 195 227 60 195 227 60 195 227 60 195 227 60 195 227 60 195 227 59 194 226 59 194 226 60 195 227 60 195 227 61 196 228 61 196 228 61 196 228 61 196 228 63 196 229 63 196 229 63 196 229 63 196 229 63 196 229 63 196 229 63 196 229 63 196 229 63 196 229 63 196 229 63 196 229 63 196 229 63 196 229 63 196 229 63 196 229 63 196 229 61 196 226 61 196 226 62 195 226 62 195 226 
1 174 208 1 174 208 1 174 208 1 174 208 1 174 208 1 174 208 1 174 208 1 174 208 1 174 208 1 174 208 1 174 208 1 174 208 1 174 208 1 174 208 1 174 208 1 174 208 0 174 208 0 174 208 0 174 208 0 174 208 0 174 208 0 174 208 0 174 208 0 174 208 1 175 209 1 175 209 1 175 209 1 175 209 1 175 209 1 175 209 1 175 209 1 175 209 1 175 212 1 175 212 1 175 212 1 175 212 1 175 212 1 175 212 1 175 212 1 175 212 2 176 213 2 176 213 2 176 213 2 176 213 2 176 213 2 176 213 2 176 213 2 176 213 2 176 213 2 176 213 1 175 212 1 175 212 1 175 212 0 174 211 0 174 211 0 174 211 1 174 206 1 175 209 0 173 210 0 173 210 0 173 210 10 174 209 22 166 201 28 156 193 51 97 97 50 71 64 50 42 23 53 27 4 57 29 7 62 37 17 65 38 17 65 34 13 70 46 22 87 60 31 131 97 60 156 108 70 164 105 75 146 94 72 78 46 31 19 5 0 15 15 13 23 18 12 54 37 21 95 67 43 119 84 54 120 81 48 119 80 47 123 87 55 120 91 73 107 75 60 101 69 54 83 51 38 92 60 49 88 55 46 84 54 44 63 34 26 97 68 54 143 113 102 184 158 145 202 180 167 214 194 183 227 209 197 232 214 204 229 211 201 221 212 205 234 225 218 227 216 210 226 216 207 227 217 207 226 213 204 225 213 201 211 199 187 224 197 188 205 177 166 146 118 106 154 122 107 165 129 107 163 119 92 178 129 96 198 146 109 178 127 106 130 89 69 114 79 57 135 96 63 159 112 70 159 111 71 163 126 99 176 150 137 96 181 186 34 181 191 0 182 206 0 185 222 7 187 222 0 192 217 0 193 220 4 188 226 1 188 221 1 188 221 1 188 221 1 188 221 1 188 221 1 188 221 1 188 221 1 188 221 0 189 221 0 189 221 0 189 221 0 189 221 0 189 221 0 189 221 0 189 221 0 189 221 2 189 222 2 189 222 2 189 222 2 189 222 2 189 222 2 189 222 2 189 222 2 189 222 1 188 221 1 188 221 1 188 221 2 189 222 2 189 222 3 190 223 3 190 223 3 190 223 2 191 223 4 191 224 4 191 224 6 190 224 7 191 225 8 191 225 8 191 225 11 191 226 19 192 224 19 192 224 21 191 224 22 192 225 23 192 225 24 191 225 25 192 226 27 191 226 29 192 225 30 193 226 32 192 224 32 192 224 34 193 223 35 192 223 35 193 222 38 193 223 39 194 224 39 194 224 39 194 224 40 193 224 43 194 225 43 194 225 45 194 226 
45 194 226 47 195 225 47 195 225 47 195 225 47 195 225 47 195 225 47 195 225 47 195 225 47 195 225 50 193 225 50 193 225 50 193 225 51 194 226 51 194 226 52 195 227 52 195 227 52 195 227 54 193 224 54 193 224 55 194 225 55 194 225 55 194 225 56 195 226 56 195 226 56 195 226 59 194 224 59 194 224 60 195 225 60 195 225 61 196 226 61 196 226 61 196 226 61 196 226 63 196 227 63 196 227 63 196 227 63 196 227 63 196 227 63 196 227 63 196 227 63 196 227 61 196 228 61 196 228 59 196 228 59 196 228 57 196 227 56 197 227 55 196 226 55 196 226 60 195 227 60 195 227 60 195 227 60 195 227 60 195 227 60 195 227 60 195 227 60 195 227 59 194 226 59 194 226 60 195 227 60 195 227 61 196 228 61 196 228 61 196 228 61 196 228 63 196 229 63 196 229 63 196 229 63 196 229 63 196 229 63 196 229 63 196 229 63 196 229 63 196 229 63 196 229 63 196 229 63 196 229 63 196 229 63 196 229 63 196 229 63 196 229 61 196 226 62 195 226 62 195 226 64 194 226 
3 173 208 3 173 208 3 173 208 3 173 208 3 173 208 3 173 208 3 173 208 3 173 208 1 174 208 1 174 208 1 174 208 1 174 208 1 174 208 1 174 208 1 174 208 1 174 208 0 174 208 0 174 208 0 174 208 0 174 208 0 174 208 0 174 208 0 174 208 0 174 208 1 175 209 1 175 209 1 175 209 1 175 209 1 175 209 1 175 209 1 175 209 1 175 209 1 175 212 1 175 212 1 175 212 1 175 212 1 175 212 1 175 212 1 175 212 1 175 212 2 176 213 2 176 213 2 176 213 2 176 213 2 176 213 2 176 213 2 176 213 2 176 213 2 176 213 2 176 213 1 175 212 1 175 212 1 175 212 0 174 211 0 174 211 0 174 211 0 174 200 2 175 209 1 173 213 0 172 210 0 173 207 17 171 199 34 152 178 45 132 159 61 71 63 59 57 42 56 40 15 54 28 5 54 27 8 59 31 17 64 37 18 68 40 18 69 44 22 85 60 30 132 98 63 158 110 74 162 105 75 140 89 68 74 42 27 16 4 0 14 13 9 31 22 13 68 47 28 105 75 49 118 83 53 107 72 42 95 65 39 93 67 44 58 48 38 42 32 22 29 21 10 7 0 0 52 43 34 34 23 17 45 32 26 47 34 28 76 48 34 115 87 75 164 136 124 196 169 158 213 191 180 228 208 197 234 217 207 228 214 203 227 220 212 237 230 222 232 223 216 229 219 210 227 214 205 224 210 201 221 207 196 198 181 171 182 148 136 178 146 135 151 123 112 127 99 88 108 79 63 109 74 54 141 99 74 140 95 64 168 121 103 136 93 74 104 67 41 119 81 45 148 104 65 168 118 81 171 122 92 171 125 102 127 170 163 59 178 182 0 182 204 0 183 221 6 189 223 1 193 216 0 191 217 4 187 229 1 188 221 1 188 221 1 188 221 1 188 221 1 188 221 1 188 221 1 188 221 1 188 221 0 189 221 0 189 221 0 189 221 0 189 221 0 189 221 0 189 221 0 189 221 0 189 221 2 189 222 2 189 222 2 189 222 2 189 222 2 189 222 2 189 222 2 189 222 2 189 222 1 188 221 1 188 221 1 188 221 2 189 222 2 189 222 3 190 223 3 190 223 3 190 223 2 191 223 3 190 223 3 190 223 6 190 224 6 190 224 8 191 225 8 191 225 10 190 225 18 193 224 19 192 224 19 192 224 22 192 225 23 192 225 23 192 225 25 192 226 25 192 226 28 193 225 29 192 225 29 192 223 32 192 224 33 192 222 34 193 223 35 193 222 35 193 222 39 194 224 39 194 224 39 194 224 40 193 224 43 194 225 43 194 225 45 194 226 45 194 226 
47 195 225 47 195 225 47 195 225 47 195 225 47 195 225 47 195 225 47 195 225 47 195 225 50 193 225 50 193 225 50 193 225 51 194 226 51 194 226 52 195 227 52 195 227 52 195 227 54 193 224 54 193 224 55 194 225 55 194 225 55 194 225 56 195 226 56 195 226 56 195 226 59 194 224 59 194 224 60 195 225 60 195 225 61 196 226 61 196 226 61 196 226 61 196 226 63 196 227 63 196 227 63 196 227 63 196 227 63 196 227 63 196 227 63 196 227 63 196 227 62 195 228 62 195 228 61 196 228 59 196 228 58 195 227 57 196 227 56 195 226 55 196 226 60 195 227 60 195 227 60 195 227 60 195 227 60 195 227 60 195 227 60 195 227 60 195 227 59 194 226 59 194 226 60 195 227 60 195 227 61 196 228 61 196 228 61 196 228 61 196 228 63 196 229 63 196 229 63 196 229 63 196 229 63 196 229 63 196 229 63 196 229 63 196 229 63 196 229 63 196 229 63 196 229 63 196 229 63 196 229 63 196 229 63 196 229 63 196 229 63 196 227 63 196 227 65 195 227 65 195 227 
2 172 207 2 172 207 2 172 207 2 172 207 2 172 207 2 172 207 2 172 207 2 172 207 0 173 207 0 173 207 0 173 207 0 173 207 0 173 207 0 173 207 0 173 207 0 173 207 0 173 207 0 173 207 0 173 207 0 173 207 0 173 207 0 173 207 0 173 207 0 173 207 1 174 208 1 174 208 1 174 208 1 174 208 1 174 208 1 174 208 1 174 208 1 174 208 1 175 212 1 175 212 1 175 212 1 175 212 1 175 212 1 175 212 1 175 212 1 175 212 2 176 213 2 176 213 2 176 213 2 176 213 2 176 213 2 176 213 2 176 213 2 176 213 2 176 213 2 176 213 1 175 212 1 175 212 1 175 212 0 174 211 0 174 211 0 174 211 0 173 198 2 175 209 5 174 215 0 171 211 3 172 201 23 162 181 46 132 147 57 101 114 67 53 44 61 48 29 55 39 14 49 31 7 50 27 13 55 28 17 61 35 18 66 42 16 63 41 20 82 56 29 130 97 62 158 112 78 161 106 76 136 88 66 69 40 26 16 3 0 29 20 15 47 31 18 77 50 31 103 69 42 106 70 44 84 56 34 55 36 21 38 24 15 0 1 0 14 19 15 24 30 26 14 23 18 96 102 98 38 40 37 12 11 9 37 33 32 63 41 28 90 66 54 142 115 106 189 162 153 212 189 181 227 208 201 233 220 211 228 220 209 231 227 218 237 233 224 233 226 218 231 221 212 227 214 205 226 212 203 220 203 193 186 168 158 168 130 117 141 109 98 99 74 69 35 17 15 40 22 20 33 14 7 57 33 21 71 42 26 123 87 71 131 93 74 111 69 44 118 75 43 134 88 54 159 109 76 171 116 85 172 115 85 154 151 136 86 174 175 15 183 209 0 182 223 6 189 221 2 195 213 0 190 216 0 184 228 1 188 221 1 188 221 1 188 221 1 188 221 1 188 221 1 188 221 1 188 221 1 188 221 0 189 221 0 189 221 0 189 221 0 189 221 0 189 221 0 189 221 0 189 221 0 189 221 2 189 222 2 189 222 2 189 222 2 189 222 2 189 222 2 189 222 2 189 222 2 189 222 1 188 221 1 188 221 1 188 221 2 189 222 2 189 222 3 190 223 3 190 223 3 190 223 2 191 223 3 190 223 3 190 223 5 189 223 6 190 224 7 190 224 7 190 224 10 190 225 18 193 224 18 193 224 19 192 224 20 193 225 22 192 225 23 192 225 24 193 226 24 193 226 28 193 225 28 193 225 29 192 223 29 192 223 32 193 222 33 192 222 33 192 221 34 193 222 39 194 224 39 194 224 39 194 224 40 193 224 43 194 225 43 194 225 45 194 226 45 194 226 47 195 225 
47 195 225 47 195 225 47 195 225 47 195 225 47 195 225 47 195 225 47 195 225 50 193 225 50 193 225 50 193 225 51 194 226 51 194 226 52 195 227 52 195 227 52 195 227 54 193 224 54 193 224 55 194 225 55 194 225 55 194 225 56 195 226 56 195 226 56 195 226 59 194 224 59 194 224 60 195 225 60 195 225 61 196 226 61 196 226 61 196 226 61 196 226 63 196 227 63 196 227 63 196 227 63 196 227 63 196 227 63 196 227 63 196 227 63 196 227 62 195 228 62 195 228 62 195 228 61 196 228 58 195 227 58 195 227 56 195 226 56 195 226 60 195 227 60 195 227 60 195 227 60 195 227 60 195 227 60 195 227 60 195 227 60 195 227 59 194 226 59 194 226 60 195 227 60 195 227 61 196 228 61 196 228 61 196 228 61 196 228 63 196 229 63 196 229 63 196 229 63 196 229 63 196 229 63 196 229 63 196 229 63 196 229 63 196 229 63 196 229 63 196 229 63 196 229 63 196 229 63 196 229 63 196 229 63 196 229 65 195 227 65 195 227 65 195 227 66 195 227 
3 171 207 3 171 207 3 171 207 3 171 207 3 171 207 3 171 207 3 171 207 3 171 207 0 173 207 0 173 207 0 173 207 0 173 207 0 173 207 0 173 207 0 173 207 0 173 207 0 173 207 0 173 207 0 173 207 0 173 207 0 173 207 0 173 207 0 173 207 0 173 207 1 174 208 1 174 208 1 174 208 1 174 208 1 174 208 1 174 208 1 174 208 1 174 208 1 175 212 1 175 212 1 175 212 1 175 212 1 175 212 1 175 212 1 175 212 1 175 212 2 176 213 2 176 213 2 176 213 2 176 213 2 176 213 2 176 213 2 176 213 2 176 213 2 176 213 2 176 213 1 175 212 1 175 212 1 175 212 0 174 211 0 174 211 0 174 211 0 173 197 4 177 211 8 175 217 3 172 211 6 170 195 30 154 164 53 113 114 64 70 70 70 43 34 57 40 22 45 35 10 40 29 9 45 27 15 52 28 18 56 33 15 57 38 8 58 37 16 77 53 27 128 95 62 159 113 79 162 106 79 134 86 66 67 39 25 15 5 0 41 24 16 62 39 25 84 52 31 90 53 27 80 45 23 57 34 20 32 21 19 13 12 17 14 17 24 11 18 24 2 13 17 0 3 5 26 36 38 19 24 27 31 29 34 46 39 46 58 41 31 72 52 43 122 99 91 181 156 151 211 190 185 224 209 202 232 223 216 228 224 215 231 228 219 235 231 222 230 223 215 230 221 212 229 216 207 232 215 207 223 205 195 180 160 151 166 128 115 111 82 74 65 47 47 40 33 41 136 134 145 50 49 57 3 0 2 29 20 21 77 55 42 123 92 72 126 82 57 135 84 57 133 82 55 151 100 71 170 116 82 181 125 88 175 132 113 112 170 171 33 187 215 0 182 224 6 189 221 3 196 213 0 189 215 0 182 227 1 188 221 1 188 221 1 188 221 1 188 221 1 188 221 1 188 221 1 188 221 1 188 221 0 189 221 0 189 221 0 189 221 0 189 221 0 189 221 0 189 221 0 189 221 0 189 221 2 189 222 2 189 222 2 189 222 2 189 222 2 189 222 2 189 222 2 189 222 2 189 222 1 188 221 1 188 221 1 188 221 2 189 222 2 189 222 3 190 223 3 190 223 3 190 223 1 190 222 2 189 222 3 190 223 5 189 223 5 189 223 7 190 224 7 190 224 9 189 224 16 194 224 18 193 224 18 193 224 20 193 225 20 193 225 22 192 225 24 193 226 24 193 226 25 192 224 27 192 224 28 193 223 29 192 223 29 193 221 32 193 222 33 192 221 33 192 221 39 194 224 39 194 224 39 194 224 40 193 224 43 194 225 43 194 225 45 194 226 45 194 226 47 195 225 47 195 225 
47 195 225 47 195 225 47 195 225 47 195 225 47 195 225 47 195 225 50 193 225 50 193 225 50 193 225 51 194 226 51 194 226 52 195 227 52 195 227 52 195 227 54 193 224 54 193 224 55 194 225 55 194 225 55 194 225 56 195 226 56 195 226 56 195 226 59 194 224 59 194 224 60 195 225 60 195 225 61 196 226 61 196 226 61 196 226 61 196 226 63 196 227 63 196 227 63 196 227 63 196 227 63 196 227 63 196 227 63 196 227 63 196 227 64 194 228 64 194 228 62 195 228 62 195 228 60 195 227 58 195 227 57 194 226 56 195 226 60 195 227 60 195 227 60 195 227 60 195 227 60 195 227 60 195 227 60 195 227 60 195 227 59 194 226 59 194 226 60 195 227 60 195 227 61 196 228 61 196 228 61 196 228 61 196 228 63 196 229 63 196 229 63 196 229 63 196 229 63 196 229 63 196 229 63 196 229 63 196 229 63 196 229 63 196 229 63 196 229 63 196 229 63 196 229 63 196 229 63 196 229 63 196 229 66 196 228 66 196 228 67 196 228 68 195 228 
3 171 207 3 171 207 3 171 207 3 171 207 3 171 207 3 171 207 3 171 207 3 171 207 0 173 207 0 173 207 0 173 207 0 173 207 0 173 207 0 173 207 0 173 207 0 173 207 0 173 207 0 173 207 0 173 207 0 173 207 0 173 207 0 173 207 0 173 207 0 173 207 3 173 208 3 173 208 3 173 208 3 173 208 3 173 208 3 173 208 3 173 208 3 173 208 1 175 212 1 175 212 1 175 212 1 175 212 1 175 212 1 175 212 1 175 212 1 175 212 2 176 213 2 176 213 2 176 213 2 176 213 2 176 213 2 176 213 2 176 213 2 176 213 2 176 213 2 176 213 1 175 212 1 175 212 1 175 212 0 174 211 0 174 211 0 174 211 0 174 196 3 177 211 11 177 219 6 172 210 9 168 189 33 148 151 57 100 93 67 52 45 70 40 30 53 36 18 34 30 5 32 27 7 41 27 18 51 28 20 52 31 12 48 32 0 56 35 14 75 51 25 125 95 61 158 114 79 161 107 79 134 86 66 67 39 27 16 6 0 41 18 10 69 41 27 92 55 36 84 43 21 63 28 9 46 26 19 40 35 41 36 42 56 38 36 50 12 14 26 28 35 45 26 35 42 4 11 19 57 57 65 86 78 89 24 10 23 57 43 34 62 45 37 111 90 85 178 154 150 212 191 188 224 210 207 230 225 219 227 226 221 227 227 217 230 227 218 225 221 212 229 220 211 231 218 209 237 220 212 226 208 198 178 158 149 130 94 82 47 19 15 106 94 98 34 33 47 0 0 19 0 9 27 58 65 81 15 19 31 62 52 40 117 91 74 126 80 57 146 90 67 148 92 69 164 110 84 175 122 88 183 128 87 187 121 99 127 169 168 44 189 218 2 181 224 7 187 220 5 196 214 0 188 214 0 181 226 1 188 221 1 188 221 1 188 221 1 188 221 1 188 221 1 188 221 1 188 221 1 188 221 0 189 221 0 189 221 0 189 221 0 189 221 0 189 221 0 189 221 0 189 221 0 189 221 2 189 222 2 189 222 2 189 222 2 189 222 2 189 222 2 189 222 2 189 222 2 189 222 1 188 221 1 188 221 1 188 221 2 189 222 2 189 222 3 190 223 3 190 223 3 190 223 1 190 222 2 189 222 2 189 222 5 189 223 5 189 223 7 190 224 7 190 224 9 189 224 16 194 224 16 194 224 18 193 224 19 194 225 20 193 225 22 192 225 23 193 226 24 193 226 25 192 224 25 192 224 27 192 222 28 193 223 29 193 221 32 193 222 32 193 221 33 192 221 39 194 224 39 194 224 39 194 224 40 193 224 43 194 225 43 194 225 45 194 226 45 194 226 47 195 225 47 195 225 47 195 225 
47 195 225 47 195 225 47 195 225 47 195 225 47 195 225 50 193 225 50 193 225 50 193 225 51 194 226 51 194 226 52 195 227 52 195 227 52 195 227 54 193 224 54 193 224 55 194 225 55 194 225 55 194 225 56 195 226 56 195 226 56 195 226 59 194 224 59 194 224 60 195 225 60 195 225 61 196 226 61 196 226 61 196 226 61 196 226 63 196 227 63 196 227 63 196 227 63 196 227 63 196 227 63 196 227 63 196 227 63 196 227 64 194 228 64 194 228 62 195 228 62 195 228 60 195 227 58 195 227 57 194 226 57 194 226 60 195 227 60 195 227 60 195 227 60 195 227 60 195 227 60 195 227 60 195 227 60 195 227 59 194 226 59 194 226 60 195 227 60 195 227 61 196 228 61 196 228 61 196 228 61 196 228 63 196 229 63 196 229 63 196 229 63 196 229 63 196 229 63 196 229 63 196 229 63 196 229 63 196 229 63 196 229 63 196 229 63 196 229 63 196 229 63 196 229 63 196 229 63 196 229 66 196 228 67 196 228 67 196 228 68 195 228 
3 171 207 3 171 207 3 171 207 3 171 207 3 171 207 3 171 207 3 171 207 3 171 207 3 171 207 3 171 207 3 171 207 3 171 207 3 171 207 3 171 207 3 171 207 3 171 207 3 171 207 3 171 207 3 171 207 3 171 207 3 171 207 3 171 207 3 171 207 3 171 207 0 173 207 0 173 207 0 173 207 1 174 208 1 174 208 1 174 208 2 175 209 2 175 209 1 174 208 1 174 208 1 174 208 1 174 208 1 174 208 1 174 208 1 174 208 1 174 208 2 174 212 2 174 212 2 174 212 2 174 212 2 174 212 2 174 212 2 174 212 2 174 212 1 173 211 1 173 211 0 172 210 0 172 210 0 171 209 0 171 209 0 171 209 0 171 209 0 169 192 4 169 214 8 169 221 9 168 200 45 149 158 82 100 100 77 60 52 51 50 30 57 42 21 49 33 17 37 24 8 33 19 8 36 24 12 42 30 14 45 37 18 47 39 16 48 30 8 79 53 28 138 98 72 156 109 79 165 116 86 132 88 61 66 31 9 52 25 4 81 43 32 95 56 41 100 59 41 100 59 37 91 56 34 60 35 15 37 21 5 42 33 18 30 34 37 24 25 29 15 14 19 24 19 23 43 34 39 49 37 41 50 35 40 57 40 46 51 30 27 88 69 65 137 119 115 184 171 165 216 207 200 222 218 209 216 213 204 216 216 206 229 216 207 229 216 208 231 218 210 235 222 216 238 225 219 234 220 217 226 212 209 218 204 203 138 132 118 70 56 55 150 137 147 35 37 52 16 40 52 14 43 49 46 57 61 64 54 62 104 71 54 102 74 60 76 53 35 137 107 81 165 121 84 160 105 66 178 118 82 189 129 101 169 124 95 147 144 129 86 172 169 14 191 199 0 189 216 0 181 226 6 183 225 0 193 224 0 187 220 0 187 220 0 187 220 0 187 220 0 187 220 0 187 220 0 187 220 0 187 220 0 187 220 0 187 220 0 187 220 0 187 220 0 187 220 0 187 220 0 187 220 0 187 220 0 189 221 0 189 221 0 189 221 0 189 221 0 189 221 0 189 221 0 189 221 0 189 221 3 190 223 3 190 223 3 190 223 3 190 223 3 190 223 3 190 223 3 190 223 3 190 223 2 191 223 3 190 223 4 191 224 6 190 224 7 191 225 8 191 225 8 191 225 10 190 225 16 191 222 16 191 222 18 191 221 18 191 221 21 192 220 23 193 219 24 194 220 24 194 220 26 190 225 26 190 225 27 190 225 28 191 224 30 190 222 32 191 223 32 191 221 32 191 221 38 192 226 38 192 226 40 193 225 40 193 225 43 194 225 45 194 224 45 194 224 46 195 225 48 193 224 
48 193 224 49 192 224 50 193 225 52 192 225 53 192 225 54 193 226 54 193 226 54 193 224 54 193 224 55 194 225 55 194 225 55 194 225 56 195 226 56 195 226 56 195 226 58 193 225 58 193 225 59 194 226 59 194 226 59 194 226 60 195 227 60 195 227 60 195 227 60 195 225 60 195 225 60 195 225 61 194 225 63 193 225 63 193 225 64 193 225 64 193 225 67 196 228 67 196 228 67 196 228 67 196 228 67 196 228 67 196 228 67 196 228 67 196 228 65 194 226 65 194 226 64 194 226 64 194 226 61 194 225 60 195 225 59 194 224 59 194 224 60 195 225 60 195 225 60 195 225 60 195 225 60 195 225 60 195 225 60 195 225 60 195 225 61 194 225 61 194 225 61 194 225 61 194 225 61 194 225 61 194 225 61 194 225 61 194 225 63 196 227 63 196 227 63 196 227 63 196 227 63 196 227 63 196 227 63 196 227 63 196 227 66 195 227 66 195 227 66 195 227 66 195 227 66 195 227 66 195 227 66 195 227 66 195 227 67 196 228 67 196 228 67 196 228 67 196 228 
3 171 207 3 171 207 3 171 207 3 171 207 3 171 207 3 171 207 3 171 207 3 171 207 3 171 207 3 171 207 3 171 207 3 171 207 3 171 207 3 171 207 3 171 207 3 171 207 3 171 207 3 171 207 3 171 207 3 171 207 3 171 207 3 171 207 3 171 207 3 171 207 0 173 207 0 173 207 0 173 207 0 173 207 1 174 208 1 174 208 2 175 209 2 175 209 1 174 208 1 174 208 1 174 208 1 174 208 1 174 208 1 174 208 1 174 208 1 174 208 2 174 212 2 174 212 2 174 212 2 174 212 2 174 212 2 174 212 2 174 212 2 174 212 1 173 211 1 173 211 0 172 210 0 172 210 0 171 209 0 171 209 0 171 209 0 171 209 0 170 205 7 168 214 13 160 204 28 149 176 57 124 130 75 82 75 70 50 39 65 47 33 56 41 20 48 32 16 37 23 10 33 19 8 36 24 12 42 30 16 44 36 17 46 38 15 44 26 6 76 50 27 134 97 70 159 112 82 170 121 91 142 98 71 78 44 19 70 42 21 99 62 46 108 70 51 109 68 46 107 67 42 101 65 41 74 46 24 52 31 12 55 38 22 37 29 27 38 30 28 37 27 26 45 33 33 56 42 41 52 36 36 45 29 29 52 34 34 82 61 58 124 105 101 172 154 150 205 192 186 223 214 207 224 217 209 217 213 204 218 215 206 220 210 200 222 212 203 225 215 206 229 218 212 232 221 215 232 221 217 228 217 213 225 214 212 189 182 172 122 111 109 103 90 99 40 40 52 11 28 35 11 29 31 20 20 20 67 49 49 123 88 69 90 63 46 59 36 20 101 73 49 142 99 64 162 107 68 163 103 69 174 117 88 170 123 93 150 143 127 90 170 167 18 189 197 0 188 214 0 182 224 5 184 225 0 193 222 0 187 220 0 187 220 0 187 220 0 187 220 0 187 220 0 187 220 0 187 220 0 187 220 0 187 220 0 187 220 0 187 220 0 187 220 0 187 220 0 187 220 0 187 220 0 187 220 0 189 221 0 189 221 0 189 221 0 189 221 0 189 221 0 189 221 0 189 221 0 189 221 3 190 223 3 190 223 3 190 223 3 190 223 3 190 223 3 190 223 3 190 223 3 190 223 2 191 223 3 190 223 4 191 224 6 190 224 6 190 224 8 191 225 8 191 225 10 190 225 16 191 222 16 191 222 16 191 222 18 191 221 21 192 220 22 193 221 23 193 219 24 194 220 26 190 225 26 190 225 26 190 225 28 191 224 30 190 222 31 191 223 32 191 221 32 191 221 37 191 225 38 192 226 38 193 224 40 193 225 43 194 225 44 195 224 45 194 224 46 195 225 48 193 224 
48 193 224 48 193 224 50 193 225 52 192 225 52 192 225 54 193 226 54 193 226 54 193 224 54 193 224 55 194 225 55 194 225 55 194 225 56 195 226 56 195 226 56 195 226 58 193 225 58 193 225 59 194 226 59 194 226 59 194 226 60 195 227 60 195 227 60 195 227 60 195 225 60 195 225 60 195 225 61 194 225 63 193 225 63 193 225 64 193 225 64 193 225 67 196 228 67 196 228 67 196 228 67 196 228 67 196 228 67 196 228 67 196 228 67 196 228 65 194 226 65 194 226 64 194 226 64 194 226 61 194 225 60 195 225 59 194 224 59 194 224 60 195 225 60 195 225 60 195 225 60 195 225 60 195 225 60 195 225 60 195 225 60 195 225 61 194 225 61 194 225 61 194 225 61 194 225 61 194 225 61 194 225 61 194 225 61 194 225 63 196 227 63 196 227 63 196 227 63 196 227 63 196 227 63 196 227 63 196 227 63 196 227 66 195 227 66 195 227 66 195 227 66 195 227 66 195 227 66 195 227 66 195 227 66 195 227 67 196 228 67 196 228 67 196 228 67 196 228 
2 170 206 2 170 206 2 170 206 2 170 206 2 170 206 2 170 206 2 170 206 2 170 206 2 170 206 2 170 206 2 170 206 2 170 206 2 170 206 2 170 206 2 170 206 2 170 206 2 170 206 2 170 206 2 170 206 2 170 206 2 170 206 2 170 206 2 170 206 2 170 206 0 172 206 0 172 206 0 173 207 0 173 207 1 174 208 1 174 208 1 174 208 1 174 208 1 174 208 1 174 208 1 174 208 1 174 208 1 174 208 1 174 208 1 174 208 1 174 208 1 173 211 1 173 211 1 173 211 1 173 211 1 173 211 1 173 211 1 173 211 1 173 211 1 173 211 1 173 211 0 172 210 0 172 210 0 171 209 0 171 209 0 171 209 0 171 209 7 171 222 9 170 212 23 152 183 55 122 138 73 92 88 65 60 41 59 40 23 75 41 32 54 39 20 46 30 14 36 22 9 33 19 10 35 22 13 41 29 15 43 35 16 44 36 15 48 31 13 79 54 32 135 98 71 164 117 87 174 123 92 149 104 75 86 50 26 82 51 30 117 81 59 119 83 59 120 80 55 121 81 55 118 81 55 99 64 42 77 46 26 72 43 27 58 33 26 63 40 32 66 43 35 69 49 40 72 52 43 62 44 34 55 37 27 62 44 34 115 96 92 161 143 139 201 186 181 219 206 200 226 215 209 223 216 208 218 214 205 220 216 207 213 207 195 216 209 199 221 214 204 224 217 209 226 219 211 228 221 215 232 225 219 234 226 223 227 224 217 185 177 175 92 81 85 53 48 54 30 32 31 22 21 16 24 10 0 82 54 42 152 117 97 91 64 47 47 24 8 70 42 20 121 78 46 165 111 75 153 97 64 165 110 80 172 123 91 154 141 124 98 166 165 24 187 196 0 187 214 0 182 224 5 184 225 0 193 222 0 187 220 0 187 220 0 187 220 0 187 220 0 187 220 0 187 220 0 187 220 0 187 220 0 187 220 0 187 220 0 187 220 0 187 220 0 187 220 0 187 220 0 187 220 0 187 220 0 189 221 0 189 221 0 189 221 0 189 221 0 189 221 0 189 221 0 189 221 0 189 221 3 190 223 3 190 223 3 190 223 3 190 223 3 190 223 3 190 223 3 190 223 3 190 223 2 191 223 3 190 223 3 190 223 6 190 224 6 190 224 7 190 224 8 191 225 10 190 225 13 190 223 14 191 224 16 191 222 18 191 221 19 192 222 21 192 220 22 193 221 23 193 219 24 191 225 24 191 225 26 190 225 28 191 224 28 191 222 31 191 223 31 192 221 32 191 221 35 192 225 35 192 225 38 193 224 40 193 225 41 194 225 43 194 223 44 195 224 45 194 224 46 194 224 
46 194 224 48 193 224 50 193 225 50 193 225 52 192 225 53 193 226 54 193 226 54 193 224 54 193 224 55 194 225 55 194 225 55 194 225 56 195 226 56 195 226 56 195 226 58 193 225 58 193 225 59 194 226 59 194 226 59 194 226 60 195 227 60 195 227 60 195 227 60 195 225 60 195 225 60 195 225 61 194 225 63 193 225 63 193 225 64 193 225 64 193 225 67 196 228 67 196 228 67 196 228 67 196 228 67 196 228 67 196 228 67 196 228 67 196 228 65 194 226 65 194 226 64 194 226 64 194 226 61 194 225 60 195 225 59 194 224 59 194 224 60 195 225 60 195 225 60 195 225 60 195 225 60 195 225 60 195 225 60 195 225 60 195 225 61 194 225 61 194 225 61 194 225 61 194 225 61 194 225 61 194 225 61 194 225 61 194 225 63 196 227 63 196 227 63 196 227 63 196 227 63 196 227 63 196 227 63 196 227 63 196 227 66 195 227 66 195 227 66 195 227 66 195 227 66 195 227 66 195 227 66 195 227 66 195 227 67 196 228 67 196 228 67 196 228 67 196 228 
2 170 206 2 170 206 2 170 206 2 170 206 2 170 206 2 170 206 2 170 206 2 170 206 2 170 206 2 170 206 2 170 206 2 170 206 2 170 206 2 170 206 2 170 206 2 170 206 2 170 206 2 170 206 2 170 206 2 170 206 2 170 206 2 170 206 2 170 206 2 170 206 0 172 206 0 172 206 0 172 206 0 173 207 0 173 207 0 173 207 1 174 208 1 174 208 1 174 208 1 174 208 1 174 208 1 174 208 1 174 208 1 174 208 1 174 208 1 174 208 1 173 211 1 173 211 1 173 211 1 173 211 1 173 211 1 173 211 1 173 211 1 173 211 1 173 211 1 173 211 0 172 210 0 172 210 0 171 209 0 171 209 0 171 209 0 171 209 9 172 229 13 176 211 36 148 160 75 99 101 86 67 52 60 51 22 50 38 14 69 32 24 51 35 19 45 29 14 35 21 10 33 19 10 35 22 13 40 28 16 41 32 15 41 33 14 47 31 15 74 52 31 126 90 64 163 116 86 174 123 92 154 109 80 91 54 28 91 59 36 124 89 61 125 88 61 125 88 61 132 92 66 134 94 69 122 84 61 104 66 45 93 56 37 92 54 41 93 57 43 90 57 42 91 62 46 94 68 53 88 67 50 86 67 52 96 79 63 137 119 115 176 161 156 207 192 187 213 200 194 216 205 199 219 210 203 219 212 204 222 215 207 215 209 197 218 211 201 222 215 205 222 215 207 222 215 207 226 219 213 233 226 220 240 232 229 230 227 222 218 213 210 149 141 139 80 72 69 70 60 51 58 39 25 79 48 28 114 76 53 167 133 108 103 76 57 40 17 1 56 27 9 105 64 36 151 98 66 150 95 64 156 105 76 173 123 86 161 138 120 108 162 162 32 183 194 0 186 213 0 183 222 5 184 225 0 192 222 0 187 220 0 187 220 0 187 220 0 187 220 0 187 220 0 187 220 0 187 220 0 187 220 0 187 220 0 187 220 0 187 220 0 187 220 0 187 220 0 187 220 0 187 220 0 187 220 0 189 221 0 189 221 0 189 221 0 189 221 0 189 221 0 189 221 0 189 221 0 189 221 2 189 222 2 189 222 2 189 222 2 189 222 2 189 222 2 189 222 2 189 222 2 189 222 1 190 222 2 189 222 3 190 223 5 189 223 6 190 224 7 190 224 7 190 224 9 189 224 13 190 223 13 190 223 14 191 224 16 191 222 18 191 221 19 192 222 22 193 221 22 193 221 24 191 225 24 191 225 24 191 225 27 192 224 28 191 222 29 192 223 31 192 221 31 192 221 35 192 225 35 192 225 36 193 224 38 193 224 40 193 224 41 195 223 44 195 224 44 195 224 
46 194 224 46 194 224 46 194 224 49 194 225 50 193 225 50 193 225 53 193 226 53 193 226 54 193 224 54 193 224 55 194 225 55 194 225 55 194 225 56 195 226 56 195 226 56 195 226 58 193 225 58 193 225 59 194 226 59 194 226 59 194 226 60 195 227 60 195 227 60 195 227 60 195 225 60 195 225 60 195 225 61 194 225 63 193 225 63 193 225 64 193 225 64 193 225 67 196 228 67 196 228 67 196 228 67 196 228 67 196 228 67 196 228 67 196 228 67 196 228 65 194 226 65 194 226 64 194 226 64 194 226 61 194 225 60 195 225 59 194 224 59 194 224 60 195 225 60 195 225 60 195 225 60 195 225 60 195 225 60 195 225 60 195 225 60 195 225 61 194 225 61 194 225 61 194 225 61 194 225 61 194 225 61 194 225 61 194 225 61 194 225 63 196 227 63 196 227 63 196 227 63 196 227 63 196 227 63 196 227 63 196 227 63 196 227 66 195 227 66 195 227 66 195 227 66 195 227 66 195 227 66 195 227 66 195 227 66 195 227 67 196 228 67 196 228 67 196 228 67 196 228 
1 169 205 1 169 205 1 169 205 1 169 205 1 169 205 1 169 205 1 169 205 1 169 205 1 169 205 1 169 205 1 169 205 1 169 205 1 169 205 1 169 205 1 169 205 1 169 205 1 169 205 1 169 205 1 169 205 1 169 205 1 169 205 1 169 205 1 169 205 1 169 205 0 171 205 0 171 205 0 172 206 0 172 206 0 173 207 0 173 207 0 173 207 0 173 207 1 174 208 1 174 208 1 174 208 1 174 208 1 174 208 1 174 208 1 174 208 1 174 208 1 173 211 1 173 211 1 173 211 1 173 211 1 173 211 1 173 211 1 173 211 1 173 211 1 173 211 1 173 211 0 172 210 0 172 210 0 171 209 0 171 209 0 171 209 0 171 209 2 171 226 21 177 202 50 142 141 81 83 69 89 55 30 65 52 18 45 41 14 52 25 14 48 32 16 43 27 14 35 21 12 33 18 11 35 22 14 39 26 17 39 30 15 38 30 11 37 25 9 61 40 21 109 73 49 156 109 79 172 121 90 163 116 86 100 60 34 103 69 44 127 88 59 124 87 60 126 89 63 129 93 69 132 96 74 134 96 75 129 91 70 122 81 59 122 81 61 121 80 62 114 77 58 116 83 64 124 97 78 125 102 84 125 106 89 137 118 101 156 143 137 184 171 165 199 186 180 197 186 180 205 194 188 214 203 197 216 207 200 218 209 202 219 213 201 221 214 204 222 215 205 221 214 206 219 212 204 222 215 209 229 222 216 236 228 225 225 224 222 218 217 213 202 199 192 127 117 108 114 90 78 113 78 59 131 89 65 150 106 77 164 129 101 117 89 68 37 14 0 57 29 15 95 54 32 124 75 45 145 94 63 147 100 70 176 123 83 168 135 116 118 158 158 41 179 190 0 185 209 0 184 222 3 185 224 0 191 222 0 187 220 0 187 220 0 187 220 0 187 220 0 187 220 0 187 220 0 187 220 0 187 220 0 187 220 0 187 220 0 187 220 0 187 220 0 187 220 0 187 220 0 187 220 0 187 220 0 189 221 0 189 221 0 189 221 0 189 221 0 189 221 0 189 221 0 189 221 0 189 221 2 189 222 2 189 222 2 189 222 2 189 222 2 189 222 2 189 222 2 189 222 2 189 222 1 190 222 2 189 222 2 189 222 5 189 223 5 189 223 6 189 223 7 190 224 9 189 224 11 190 223 12 191 224 13 190 223 14 191 224 17 192 223 19 192 222 19 192 222 19 192 222 23 192 225 23 192 225 24 191 225 25 192 224 27 192 222 29 192 223 29 193 221 29 193 221 33 192 224 33 192 224 35 192 223 36 193 224 39 194 224 40 194 222 
41 195 223 41 195 223 45 194 224 45 194 224 46 194 224 47 195 225 49 194 225 50 193 225 51 194 226 51 194 226 54 193 224 54 193 224 55 194 225 55 194 225 55 194 225 56 195 226 56 195 226 56 195 226 58 193 225 58 193 225 59 194 226 59 194 226 59 194 226 60 195 227 60 195 227 60 195 227 60 195 225 60 195 225 60 195 225 61 194 225 63 193 225 63 193 225 64 193 225 64 193 225 67 196 228 67 196 228 67 196 228 67 196 228 67 196 228 67 196 228 67 196 228 67 196 228 65 194 226 65 194 226 64 194 226 64 194 226 61 194 225 60 195 225 59 194 224 59 194 224 60 195 225 60 195 225 60 195 225 60 195 225 60 195 225 60 195 225 60 195 225 60 195 225 61 194 225 61 194 225 61 194 225 61 194 225 61 194 225 61 194 225 61 194 225 61 194 225 63 196 227 63 196 227 63 196 227 63 196 227 63 196 227 63 196 227 63 196 227 63 196 227 66 195 227 66 195 227 66 195 227 66 195 227 66 195 227 66 195 227 66 195 227 66 195 227 67 196 228 67 196 228 67 196 228 67 196 228 
1 169 205 1 169 205 1 169 205 1 169 205 1 169 205 1 169 205 1 169 205 1 169 205 1 169 205 1 169 205 1 169 205 1 169 205 1 169 205 1 169 205 1 169 205 1 169 205 1 169 205 1 169 205 1 169 205 1 169 205 1 169 205 1 169 205 1 169 205 1 169 205 0 171 205 0 171 205 0 171 205 0 172 206 0 172 206 0 173 207 0 173 207 0 173 207 1 174 208 1 174 208 1 174 208 1 174 208 1 174 208 1 174 208 1 174 208 1 174 208 0 172 210 0 172 210 0 172 210 0 172 210 0 172 210 0 172 210 0 172 210 0 172 210 1 173 211 1 173 211 0 172 210 0 172 210 0 171 209 0 171 209 0 171 209 0 171 209 1 172 216 29 162 181 57 120 111 77 69 48 86 52 25 71 51 24 46 38 15 35 24 6 46 30 15 41 25 12 34 20 11 33 18 13 35 22 16 38 25 16 37 28 13 36 27 10 40 31 16 56 37 20 95 61 36 149 104 75 170 119 88 169 120 88 100 59 31 101 65 39 128 84 57 125 85 59 127 91 69 124 91 72 121 90 70 133 100 81 148 113 91 148 112 90 143 107 85 143 108 86 140 108 87 145 116 98 156 130 113 155 134 117 154 135 120 162 144 130 175 164 158 190 179 173 193 182 176 192 181 175 202 191 185 210 199 193 211 200 194 213 202 196 220 210 200 220 210 201 218 208 199 217 206 200 216 205 199 218 207 203 222 211 207 226 215 213 233 229 228 214 215 209 215 215 205 176 164 150 152 120 105 164 119 100 152 106 82 169 128 98 167 132 100 127 99 77 45 21 9 69 41 29 96 58 39 113 66 38 143 96 66 149 104 75 177 123 77 174 133 111 128 154 155 49 175 189 0 184 207 0 185 221 3 185 224 0 190 222 0 187 220 0 187 220 0 187 220 0 187 220 0 187 220 0 187 220 0 187 220 0 187 220 0 187 220 0 187 220 0 187 220 0 187 220 0 187 220 0 187 220 0 187 220 0 187 220 0 189 221 0 189 221 0 189 221 0 189 221 0 189 221 0 189 221 0 189 221 0 189 221 1 188 221 1 188 221 1 188 221 1 188 221 1 188 221 1 188 221 1 188 221 1 188 221 0 189 221 2 189 222 2 189 222 4 188 222 5 189 223 6 189 223 6 189 223 8 188 223 10 190 225 11 190 223 12 191 224 14 191 224 14 191 224 17 192 223 19 192 222 19 192 222 22 192 225 23 192 225 23 192 225 25 192 224 25 193 222 28 193 223 29 193 221 29 193 221 32 192 224 33 192 224 34 193 223 35 192 223 36 194 223 
39 194 222 41 195 223 41 195 223 44 195 224 45 194 224 45 194 224 47 195 225 47 195 225 49 194 225 51 194 226 51 194 226 54 193 224 54 193 224 55 194 225 55 194 225 55 194 225 56 195 226 56 195 226 56 195 226 58 193 225 58 193 225 59 194 226 59 194 226 59 194 226 60 195 227 60 195 227 60 195 227 60 195 225 60 195 225 60 195 225 61 194 225 63 193 225 63 193 225 64 193 225 64 193 225 67 196 228 67 196 228 67 196 228 67 196 228 67 196 228 67 196 228 67 196 228 67 196 228 65 194 226 65 194 226 64 194 226 64 194 226 61 194 225 60 195 225 59 194 224 59 194 224 60 195 225 60 195 225 60 195 225 60 195 225 60 195 225 60 195 225 60 195 225 60 195 225 61 194 225 61 194 225 61 194 225 61 194 225 61 194 225 61 194 225 61 194 225 61 194 225 63 196 227 63 196 227 63 196 227 63 196 227 63 196 227 63 196 227 63 196 227 63 196 227 66 195 227 66 195 227 66 195 227 66 195 227 66 195 227 66 195 227 66 195 227 66 195 227 67 196 228 67 196 228 67 196 228 67 196 228 
0 168 204 0 168 204 0 168 204 0 168 204 0 168 204 0 168 204 0 168 204 0 168 204 0 168 204 0 168 204 0 168 204 0 168 204 0 168 204 0 168 204 0 168 204 0 168 204 0 168 204 0 168 204 0 168 204 0 168 204 0 168 204 0 168 204 0 168 204 0 168 204 0 171 205 0 171 205 0 171 205 0 171 205 0 172 206 0 172 206 0 172 206 0 173 207 1 174 208 1 174 208 1 174 208 1 174 208 1 174 208 1 174 208 1 174 208 1 174 208 0 172 210 0 172 210 0 172 210 0 172 210 0 172 210 0 172 210 0 172 210 0 172 210 1 173 211 1 173 211 0 172 210 0 172 210 0 171 209 0 171 209 0 171 209 0 171 209 11 174 207 36 136 152 57 84 77 71 56 33 83 51 30 78 40 27 51 28 14 30 25 5 44 28 13 39 22 12 33 18 11 33 18 13 35 22 16 38 25 17 35 25 13 34 25 8 49 41 28 58 39 22 86 54 31 147 102 73 170 120 87 173 124 92 100 56 27 97 60 33 123 75 52 127 85 63 136 101 82 130 101 85 119 93 78 131 105 88 152 125 104 156 128 104 161 135 112 166 139 118 167 142 122 170 147 131 174 152 139 167 147 136 165 147 137 175 158 150 181 172 165 190 181 174 193 182 176 195 184 178 204 193 187 209 196 190 208 195 189 212 199 193 215 198 190 213 196 189 211 194 187 211 193 189 214 196 192 216 198 196 217 199 197 217 199 199 230 224 224 222 223 217 217 221 207 201 189 173 191 155 139 191 142 125 161 115 92 171 135 109 179 143 109 125 97 73 53 29 17 72 43 35 99 62 44 120 74 50 135 90 61 150 109 79 179 123 74 178 132 109 135 151 151 56 172 185 0 183 207 0 185 221 2 186 224 1 190 222 0 187 220 0 187 220 0 187 220 0 187 220 0 187 220 0 187 220 0 187 220 0 187 220 0 187 220 0 187 220 0 187 220 0 187 220 0 187 220 0 187 220 0 187 220 0 187 220 0 189 221 0 189 221 0 189 221 0 189 221 0 189 221 0 189 221 0 189 221 0 189 221 1 188 221 1 188 221 1 188 221 1 188 221 1 188 221 1 188 221 1 188 221 1 188 221 0 189 221 1 188 221 2 189 222 4 188 222 4 188 222 6 189 223 6 189 223 8 188 223 10 190 225 10 190 225 11 190 223 12 191 224 14 191 224 17 192 223 17 192 223 18 193 224 22 192 225 22 192 225 23 192 225 24 193 224 25 193 222 28 193 223 28 193 221 28 193 221 31 191 223 32 192 224 33 192 222 34 193 223 
36 194 223 39 194 222 39 194 222 40 195 223 44 195 224 44 195 224 45 194 224 46 195 225 47 195 225 49 194 225 50 195 226 50 195 226 54 193 224 54 193 224 55 194 225 55 194 225 55 194 225 56 195 226 56 195 226 56 195 226 58 193 225 58 193 225 59 194 226 59 194 226 59 194 226 60 195 227 60 195 227 60 195 227 60 195 225 60 195 225 60 195 225 61 194 225 63 193 225 63 193 225 64 193 225 64 193 225 67 196 228 67 196 228 67 196 228 67 196 228 67 196 228 67 196 228 67 196 228 67 196 228 65 194 226 65 194 226 64 194 226 64 194 226 61 194 225 60 195 225 59 194 224 59 194 224 60 195 225 60 195 225 60 195 225 60 195 225 60 195 225 60 195 225 60 195 225 60 195 225 61 194 225 61 194 225 61 194 225 61 194 225 61 194 225 61 194 225 61 194 225 61 194 225 63 196 227 63 196 227 63 196 227 63 196 227 63 196 227 63 196 227 63 196 227 63 196 227 66 195 227 66 195 227 66 195 227 66 195 227 66 195 227 66 195 227 66 195 227 66 195 227 67 196 228 67 196 228 67 196 228 67 196 228 
0 168 204 0 168 204 0 168 204 0 168 204 0 168 204 0 168 204 0 168 204 0 168 204 0 168 204 0 168 204 0 168 204 0 168 204 0 168 204 0 168 204 0 168 204 0 168 204 0 168 204 0 168 204 0 168 204 0 168 204 0 168 204 0 168 204 0 168 204 0 168 204 0 170 204 0 171 205 0 171 205 0 171 205 0 172 206 0 172 206 0 172 206 0 172 206 1 174 208 1 174 208 1 174 208 1 174 208 1 174 208 1 174 208 1 174 208 1 174 208 0 172 210 0 172 210 0 172 210 0 172 210 0 172 210 0 172 210 0 172 210 0 172 210 1 173 211 1 173 211 0 172 210 0 172 210 0 171 209 0 171 209 0 171 209 0 171 209 22 176 204 43 114 132 56 56 54 65 47 25 81 50 32 81 30 27 56 17 12 33 28 6 43 27 14 39 22 12 33 18 11 33 18 13 35 22 16 37 24 16 35 25 13 33 24 9 49 41 28 53 36 20 79 47 24 145 100 71 175 122 90 182 131 100 107 63 34 103 66 37 117 66 45 129 84 65 147 111 97 142 116 103 121 102 88 129 110 95 150 129 108 153 131 107 173 155 133 180 162 142 182 163 146 179 161 147 176 158 148 165 148 140 166 148 144 180 162 158 175 166 159 184 175 168 190 181 174 198 187 181 209 196 190 208 195 189 206 193 187 213 198 193 206 187 180 203 184 178 201 182 176 204 185 181 210 191 187 213 193 192 211 191 190 209 189 190 218 210 208 233 236 227 230 234 219 204 193 175 223 186 170 200 148 134 171 126 107 167 135 112 184 148 112 113 83 59 51 27 15 62 35 26 95 58 42 124 79 56 121 77 48 147 106 76 180 122 72 181 131 108 139 149 151 59 171 185 1 183 205 0 185 219 2 186 224 2 189 222 0 187 220 0 187 220 0 187 220 0 187 220 0 187 220 0 187 220 0 187 220 0 187 220 0 187 220 0 187 220 0 187 220 0 187 220 0 187 220 0 187 220 0 187 220 0 187 220 0 189 221 0 189 221 0 189 221 0 189 221 0 189 221 0 189 221 0 189 221 0 189 221 1 188 221 1 188 221 1 188 221 1 188 221 1 188 221 1 188 221 1 188 221 1 188 221 0 189 221 1 188 221 1 188 221 4 188 222 4 188 222 5 188 222 6 189 223 8 188 223 9 189 224 10 190 225 10 190 225 12 191 224 14 191 224 15 192 225 17 192 223 17 192 223 22 192 225 22 192 225 22 192 225 24 193 224 25 193 222 26 194 223 28 193 221 28 193 221 31 191 223 32 192 224 32 193 222 34 193 223 
36 194 223 36 194 221 39 194 222 39 194 222 44 195 224 44 195 224 44 195 224 46 195 225 47 195 225 47 195 225 50 195 226 50 195 226 54 193 224 54 193 224 55 194 225 55 194 225 55 194 225 56 195 226 56 195 226 56 195 226 58 193 225 58 193 225 59 194 226 59 194 226 59 194 226 60 195 227 60 195 227 60 195 227 60 195 225 60 195 225 60 195 225 61 194 225 63 193 225 63 193 225 64 193 225 64 193 225 67 196 228 67 196 228 67 196 228 67 196 228 67 196 228 67 196 228 67 196 228 67 196 228 65 194 226 65 194 226 64 194 226 64 194 226 61 194 225 60 195 225 59 194 224 59 194 224 60 195 225 60 195 225 60 195 225 60 195 225 60 195 225 60 195 225 60 195 225 60 195 225 61 194 225 61 194 225 61 194 225 61 194 225 61 194 225 61 194 225 61 194 225 61 194 225 63 196 227 63 196 227 63 196 227 63 196 227 63 196 227 63 196 227 63 196 227 63 196 227 66 195 227 66 195 227 66 195 227 66 195 227 66 195 227 66 195 227 66 195 227 66 195 227 67 196 228 67 196 228 67 196 228 67 196 228 
0 166 204 0 166 204 0 166 204 0 166 204 0 166 204 0 166 204 0 166 204 0 166 204 0 167 206 0 167 206 0 167 206 0 167 206 0 167 206 0 167 206 0 167 206 0 167 206 0 169 204 0 169 204 0 169 204 0 169 204 0 169 204 0 169 204 0 169 204 0 169 204 0 169 204 0 169 204 0 169 204 0 169 204 0 169 204 0 169 204 0 169 204 0 169 204 0 173 207 0 173 207 0 173 207 0 173 207 0 173 207 0 173 207 0 173 207 0 173 207 0 173 207 0 173 207 0 173 207 0 173 207 0 173 207 0 173 207 0 173 207 0 173 207 1 174 208 1 174 208 0 173 207 0 173 207 0 173 207 0 172 206 0 172 206 0 172 206 6 166 200 38 131 149 38 48 49 61 27 17 87 51 39 69 45 35 60 30 22 56 11 5 47 29 17 39 25 16 33 20 14 30 21 16 34 25 20 40 27 21 39 25 16 40 22 10 52 37 18 49 34 15 57 36 15 127 93 66 163 114 81 184 131 99 119 74 51 84 48 34 99 71 57 127 101 88 154 130 118 163 141 130 159 139 130 158 141 133 162 147 140 167 152 147 165 162 153 174 170 161 178 174 165 171 164 156 158 149 142 152 143 136 160 149 143 170 159 153 171 171 171 193 189 186 184 173 169 200 182 178 190 169 166 198 177 176 210 188 191 210 189 196 206 182 172 194 169 162 193 170 162 195 172 166 194 174 167 209 190 184 216 197 191 202 183 179 215 206 191 217 211 199 228 224 215 216 213 208 192 185 179 190 175 168 164 140 128 177 149 135 170 144 131 79 55 43 62 42 31 66 46 35 87 64 48 98 68 44 113 77 45 140 97 62 162 116 83 170 125 84 140 144 119 65 167 182 7 184 225 0 190 225 0 187 214 0 180 212 1 185 219 1 185 219 1 185 219 1 185 219 1 185 219 1 185 219 1 185 219 1 185 219 0 187 220 0 187 220 0 187 220 0 187 220 0 187 220 0 187 220 0 187 220 0 187 220 0 187 220 0 187 220 0 187 220 0 187 220 0 187 220 0 187 220 0 187 220 0 187 220 0 189 221 0 189 221 0 189 221 0 189 221 0 189 221 0 189 221 0 189 221 0 189 221 1 188 221 1 188 221 1 188 221 1 188 221 1 188 221 1 188 221 1 188 221 1 188 221 8 188 223 8 188 223 9 189 224 9 189 224 10 190 225 10 190 225 10 190 225 10 190 225 17 191 228 18 190 228 20 190 226 22 190 227 23 190 226 25 189 224 27 190 225 29 189 225 27 190 223 29 189 223 31 190 222 33 190 223 
36 191 222 39 189 222 41 190 222 41 190 222 44 193 225 44 193 225 44 193 225 45 194 226 45 194 226 45 194 226 46 195 227 46 195 227 47 194 228 47 194 227 48 195 228 50 195 226 51 194 226 52 195 225 54 195 225 54 195 223 58 193 225 58 193 225 60 193 226 60 193 226 63 193 227 64 192 227 64 192 227 64 192 227 62 192 224 63 193 225 63 193 225 63 193 225 64 194 226 64 194 226 64 194 226 65 195 227 67 196 228 67 196 228 67 196 228 67 196 228 67 196 228 67 196 228 67 196 228 67 196 228 63 197 226 62 196 225 62 196 225 62 196 225 61 195 224 61 195 224 61 195 224 60 194 223 58 193 225 58 193 225 60 193 226 60 193 226 63 193 227 64 192 227 64 192 227 64 192 227 57 194 226 58 195 227 58 195 227 60 195 227 62 195 228 62 195 228 64 194 228 65 195 229 64 194 228 64 194 228 64 194 228 64 194 228 65 195 229 65 195 229 65 195 229 66 196 230 65 195 229 65 195 229 65 195 229 65 195 229 65 195 229 65 195 229 65 195 229 65 195 229 64 197 228 64 197 228 64 197 228 64 197 228 
0 167 203 0 167 203 0 167 203 0 167 203 0 167 203 0 167 203 0 167 203 0 167 203 0 167 206 0 167 206 0 167 206 0 167 206 0 167 206 0 167 206 0 167 206 0 167 206 0 169 204 0 169 204 0 169 204 0 169 204 0 169 204 0 169 204 0 169 204 0 169 204 0 169 204 0 169 204 0 169 204 0 169 204 0 169 204 0 169 204 0 169 204 0 169 204 0 173 207 0 173 207 0 173 207 0 173 207 0 173 207 0 173 207 0 173 207 0 173 207 0 173 207 0 173 207 0 173 207 0 173 207 0 173 207 0 173 207 0 173 207 0 173 207 1 174 208 0 173 207 0 173 207 0 173 207 0 172 206 0 172 206 0 172 206 0 171 205 0 171 205 40 147 165 53 79 76 61 38 22 70 42 21 59 37 23 50 28 17 53 23 15 46 28 16 38 24 15 31 18 12 27 18 13 31 22 17 37 24 18 39 25 16 41 23 11 54 39 20 50 34 18 56 35 16 118 84 57 157 111 78 184 133 102 123 81 59 91 57 45 105 79 66 133 107 94 160 136 124 167 147 136 165 146 139 165 148 141 170 155 150 174 160 157 167 164 155 171 168 159 172 168 159 166 159 151 155 148 140 153 144 137 160 151 144 170 159 153 167 166 162 186 181 177 186 175 169 198 181 174 185 164 159 176 155 152 185 165 166 190 170 172 181 161 154 136 116 109 112 93 87 118 100 96 123 105 101 131 116 113 152 137 134 164 150 149 171 164 154 225 221 212 210 209 204 205 204 200 215 210 207 201 190 184 188 170 160 186 162 150 144 125 111 59 41 29 55 37 25 65 46 32 90 64 49 107 75 52 123 82 54 136 91 58 155 110 79 170 122 82 142 144 120 70 167 183 10 183 223 0 187 223 0 185 213 0 181 215 1 185 219 1 185 219 1 185 219 1 185 219 1 185 219 1 185 219 1 185 219 1 185 219 0 187 220 0 187 220 0 187 220 0 187 220 0 187 220 0 187 220 0 187 220 0 187 220 0 187 220 0 187 220 0 187 220 0 187 220 0 187 220 0 187 220 0 187 220 0 187 220 0 189 221 0 189 221 0 189 221 0 189 221 0 189 221 0 189 221 0 189 221 0 189 221 1 188 221 1 188 221 1 188 221 1 188 221 1 188 221 1 188 221 1 188 221 1 188 221 6 189 223 6 189 223 7 190 224 7 190 224 7 190 224 8 191 225 8 191 225 8 191 225 15 191 228 15 191 228 17 191 226 18 190 226 22 190 226 23 190 224 26 190 225 27 190 225 26 191 223 26 191 223 28 191 222 32 191 223 
34 191 222 36 191 222 38 191 222 40 191 222 44 193 225 44 193 225 44 193 225 44 193 225 45 194 226 45 194 226 46 195 227 46 195 227 46 195 228 47 194 227 47 194 227 50 195 226 51 194 226 51 194 224 54 195 225 54 195 223 55 194 225 55 194 225 57 194 226 59 194 226 59 194 226 61 194 227 61 194 227 63 193 227 60 193 224 60 193 224 61 194 225 61 194 225 61 194 225 62 195 226 62 195 226 62 195 226 67 196 228 67 196 228 67 196 228 67 196 228 67 196 228 67 196 228 67 196 228 67 196 228 61 196 225 61 196 225 61 196 225 60 195 224 60 195 224 60 195 224 59 194 223 59 194 223 55 194 225 55 194 225 57 194 226 59 194 226 59 194 226 61 194 227 61 194 227 63 193 227 56 195 226 57 194 226 58 195 227 60 195 227 61 194 227 62 195 228 64 194 228 64 194 228 61 194 227 62 195 228 62 195 228 62 195 228 63 196 229 63 196 229 63 196 229 63 196 229 62 195 228 62 195 228 62 195 228 62 195 228 62 195 228 62 195 228 62 195 228 62 195 228 64 197 228 64 197 228 64 197 228 64 197 228 
0 167 203 0 167 203 0 167 203 0 167 203 0 167 203 0 167 203 0 167 203 0 167 203 0 167 204 0 167 204 0 167 204 0 167 204 0 167 204 0 167 204 0 167 204 0 167 204 0 168 204 0 168 204 0 168 204 0 168 204 0 168 204 0 168 204 0 168 204 0 168 204 0 168 204 0 168 204 0 168 204 0 168 204 0 168 204 0 168 204 0 168 204 0 168 204 1 171 206 1 171 206 1 171 206 1 171 206 1 171 206 1 171 206 1 171 206 1 171 206 1 171 206 1 171 206 1 171 206 1 171 206 1 171 206 1 171 206 1 171 206 1 171 206 2 172 207 2 172 207 2 172 207 1 171 206 1 171 206 1 171 206 0 170 205 0 170 205 0 175 209 33 158 176 61 108 102 55 47 26 59 33 6 59 38 17 46 30 17 49 35 26 46 28 16 37 23 14 29 16 10 24 15 10 26 17 12 35 22 16 40 26 17 44 26 14 61 45 29 52 39 23 55 36 19 103 71 46 148 103 72 182 135 105 129 88 68 100 71 57 109 85 73 135 113 100 160 140 129 168 150 140 165 150 143 167 154 148 171 160 156 176 165 161 168 165 156 167 164 155 163 160 151 157 153 144 153 146 138 153 146 138 161 152 145 168 159 152 165 162 155 184 177 169 192 182 172 195 178 168 192 174 164 176 157 150 173 154 150 156 138 136 111 97 94 65 51 48 39 25 24 43 32 30 46 36 35 46 36 37 54 45 46 64 55 56 81 80 75 157 158 153 203 205 204 209 209 209 212 211 209 210 205 202 210 199 193 202 187 180 127 115 101 40 28 16 47 33 20 69 50 36 93 66 49 115 79 57 128 84 59 127 77 50 147 102 71 167 119 79 149 145 120 78 167 183 15 181 219 0 184 219 0 183 211 0 181 215 1 185 219 1 185 219 1 185 219 1 185 219 1 185 219 1 185 219 1 185 219 1 185 219 0 187 220 0 187 220 0 187 220 0 187 220 0 187 220 0 187 220 0 187 220 0 187 220 0 187 220 0 187 220 0 187 220 0 187 220 0 187 220 0 187 220 0 187 220 0 187 220 0 189 221 0 189 221 0 189 221 0 189 221 0 189 221 0 189 221 0 189 221 0 189 221 1 188 221 1 188 221 1 188 221 1 188 221 1 188 221 1 188 221 1 188 221 1 188 221 6 189 223 6 189 223 6 189 223 7 190 224 7 190 224 7 190 224 8 191 225 8 191 225 12 192 227 12 192 227 14 193 226 17 191 226 19 192 226 21 191 224 22 191 224 23 190 224 23 192 223 24 191 223 27 192 222 29 192 223 32 193 222 34 191 222 
37 192 222 37 192 222 42 193 224 42 193 224 43 194 225 43 194 225 44 195 226 44 195 226 44 195 226 44 195 226 46 195 228 46 195 227 47 194 227 47 195 225 50 195 226 51 194 224 51 194 224 52 196 223 52 195 225 52 195 225 54 195 225 55 196 226 56 195 226 57 194 226 58 195 227 58 195 227 60 193 224 60 193 224 60 193 224 61 194 225 61 194 225 62 195 226 62 195 226 62 195 226 65 195 227 65 195 227 65 195 227 65 195 227 65 195 227 65 195 227 65 195 227 65 195 227 58 197 226 58 197 226 58 197 226 57 196 225 57 196 225 56 195 224 56 195 224 56 195 224 52 195 225 52 195 225 54 195 225 55 196 226 56 195 226 57 194 226 58 195 227 58 195 227 56 195 226 56 195 226 57 194 226 58 195 227 60 195 227 62 195 228 62 195 228 62 195 228 61 194 227 61 194 227 61 194 227 62 195 228 62 195 228 63 196 229 63 196 229 63 196 229 62 195 228 62 195 228 62 195 228 62 195 228 62 195 228 62 195 228 62 195 228 62 195 228 63 196 227 63 196 227 63 196 227 63 196 227 
0 166 200 0 166 200 0 166 200 0 166 200 0 166 200 0 166 200 0 166 200 0 166 200 0 166 203 0 166 203 0 166 203 0 166 203 0 166 203 0 166 203 0 166 203 0 166 203 0 168 204 0 168 204 0 168 204 0 168 204 0 168 204 0 168 204 0 168 204 0 168 204 0 168 204 0 168 204 0 168 204 0 168 204 0 168 204 0 168 204 0 168 204 0 168 204 1 171 206 1 171 206 1 171 206 1 171 206 1 171 206 1 171 206 1 171 206 1 171 206 1 171 206 1 171 206 1 171 206 1 171 206 1 171 206 1 171 206 1 171 206 1 171 206 2 172 207 2 172 207 1 171 206 1 171 206 1 171 206 0 170 205 0 170 205 0 170 205 0 175 213 22 158 180 53 121 120 46 53 35 57 33 7 72 44 22 51 32 18 48 37 31 45 27 15 37 23 14 29 16 10 22 13 8 24 15 10 33 20 14 41 27 18 48 30 18 68 54 41 63 49 36 63 44 29 89 58 37 136 95 65 179 134 105 128 93 73 105 78 67 110 90 79 132 114 102 156 139 129 163 148 141 162 149 143 163 154 149 167 159 156 171 163 161 165 165 157 160 160 152 154 151 144 148 145 138 148 143 137 154 147 141 161 154 148 166 157 152 175 171 162 189 180 171 198 186 174 183 167 152 188 170 156 164 146 136 129 112 105 74 59 54 35 26 27 31 22 23 27 21 21 33 27 29 46 41 45 60 55 59 58 56 61 47 45 50 43 47 48 61 65 68 188 192 195 210 214 215 187 188 190 215 213 214 213 209 208 206 201 198 132 128 116 35 29 17 47 35 21 78 59 44 98 69 53 113 75 56 124 78 55 119 69 44 138 94 65 163 114 74 152 142 117 84 166 180 20 178 217 0 182 214 0 183 211 0 183 218 1 185 219 1 185 219 1 185 219 1 185 219 1 185 219 1 185 219 1 185 219 1 185 219 0 187 220 0 187 220 0 187 220 0 187 220 0 187 220 0 187 220 0 187 220 0 187 220 0 187 220 0 187 220 0 187 220 0 187 220 0 187 220 0 187 220 0 187 220 0 187 220 0 189 221 0 189 221 0 189 221 0 189 221 0 189 221 0 189 221 0 189 221 0 189 221 1 188 221 1 188 221 1 188 221 1 188 221 1 188 221 1 188 221 1 188 221 1 188 221 4 188 222 4 188 222 5 189 223 5 189 223 6 190 224 6 190 224 6 190 224 6 190 224 10 193 227 10 193 227 12 192 225 14 193 226 17 191 225 18 191 223 21 191 224 21 191 224 22 193 223 22 193 223 24 193 222 28 193 223 30 194 222 32 193 222 34 193 222 
35 193 222 42 193 224 42 193 224 42 193 224 43 194 225 43 194 225 43 194 225 44 195 226 44 195 226 44 194 227 45 194 226 46 195 227 47 195 225 47 195 225 50 195 224 51 194 224 51 195 222 48 196 224 48 196 224 51 196 225 51 196 225 53 196 226 55 196 226 55 196 226 55 196 226 58 193 223 59 194 224 59 194 224 59 194 224 60 195 225 60 195 225 60 195 225 61 196 226 65 195 227 65 195 227 65 195 227 65 195 227 65 195 227 65 195 227 65 195 227 65 195 227 55 199 226 54 198 225 54 198 225 54 198 225 53 197 224 53 197 224 53 197 224 52 196 223 48 196 224 48 196 224 51 196 225 51 196 225 53 196 226 55 196 226 55 196 226 55 196 226 54 195 225 56 195 226 56 195 226 57 194 226 58 195 227 60 195 227 61 194 227 62 195 228 60 195 227 60 195 227 60 195 227 60 195 227 61 196 228 61 196 228 62 197 229 62 197 229 61 196 228 61 196 228 61 196 228 61 196 228 61 196 228 61 196 228 61 196 228 61 196 228 63 196 227 63 196 227 63 196 227 63 196 227 
0 166 200 0 166 200 0 166 200 0 166 200 0 166 200 0 166 200 0 166 200 0 166 200 0 166 202 0 166 202 0 166 202 0 166 202 0 166 202 0 166 202 0 166 202 0 166 202 0 167 203 0 167 203 0 167 203 0 167 203 0 167 203 0 167 203 0 167 203 0 167 203 0 167 203 0 167 203 0 167 203 0 167 203 0 167 203 0 167 203 0 167 203 0 167 203 1 169 205 1 169 205 1 169 205 1 169 205 1 169 205 1 169 205 1 169 205 1 169 205 1 169 205 1 169 205 1 169 205 1 169 205 1 169 205 1 169 205 1 169 205 1 169 205 2 170 206 2 170 206 2 170 206 1 169 205 1 169 205 1 169 205 0 168 204 0 168 204 0 168 208 16 159 189 48 136 148 43 72 67 55 38 20 75 40 21 58 28 17 52 35 28 44 26 14 37 23 14 31 18 12 24 15 10 25 16 11 34 21 15 43 29 20 53 35 23 74 60 49 75 61 50 75 57 45 80 52 31 128 88 62 171 132 103 124 93 73 104 84 73 113 96 86 132 118 109 152 139 131 157 146 140 157 148 143 157 152 149 161 157 156 163 159 158 159 160 154 154 153 148 146 145 140 144 141 136 146 141 137 152 147 143 160 152 149 164 156 153 179 172 164 179 169 160 193 179 168 185 167 153 185 167 153 142 125 115 82 67 60 22 11 5 25 21 22 40 36 37 44 42 45 44 42 45 58 57 62 79 80 85 82 83 88 73 74 79 50 57 63 30 35 39 134 138 141 196 197 199 194 195 197 213 215 214 203 204 206 200 201 203 143 144 136 39 35 24 50 38 24 89 68 51 106 75 57 110 72 53 119 74 53 120 73 53 131 90 62 161 109 70 153 137 111 89 161 175 26 174 210 5 179 213 1 182 211 0 184 221 1 185 219 1 185 219 1 185 219 1 185 219 1 185 219 1 185 219 1 185 219 1 185 219 0 187 220 0 187 220 0 187 220 0 187 220 0 187 220 0 187 220 0 187 220 0 187 220 0 187 220 0 187 220 0 187 220 0 187 220 0 187 220 0 187 220 0 187 220 0 187 220 0 189 221 0 189 221 0 189 221 0 189 221 0 189 221 0 189 221 0 189 221 0 189 221 1 188 221 1 188 221 1 188 221 1 188 221 1 188 221 1 188 221 1 188 221 1 188 221 4 188 222 4 188 222 4 188 222 5 189 223 5 189 223 5 189 223 6 190 224 6 190 224 9 192 226 9 192 226 12 192 225 13 192 225 17 191 225 18 191 223 20 190 223 20 190 223 22 193 223 22 193 223 24 193 222 28 193 223 30 194 222 32 193 222 34 193 222 35 193 222 
39 192 223 39 192 223 40 193 224 40 193 224 41 194 225 41 194 225 41 194 225 41 194 225 44 194 227 44 195 226 44 195 226 45 194 224 47 195 225 47 195 223 50 195 224 50 195 222 47 197 224 47 197 224 48 196 224 51 196 225 51 196 225 52 195 225 53 196 226 55 196 226 58 193 223 58 193 223 58 193 223 59 194 224 59 194 224 60 195 225 60 195 225 60 195 225 62 195 226 62 195 226 62 195 226 62 195 226 62 195 226 62 195 226 62 195 226 62 195 226 54 197 227 54 197 227 54 197 227 53 196 226 53 196 226 52 195 225 52 195 225 52 195 225 47 197 224 47 197 224 48 196 224 51 196 225 51 196 225 52 195 225 53 196 226 55 196 226 54 195 225 54 195 225 54 195 225 56 195 226 57 194 226 58 195 227 60 195 227 60 195 227 59 194 226 59 194 226 60 195 227 60 195 227 60 195 227 61 196 228 61 196 228 61 196 228 60 195 227 60 195 227 60 195 227 60 195 227 60 195 227 60 195 227 60 195 227 60 195 227 62 195 226 62 195 226 62 195 226 62 195 226 
0 165 197 0 165 197 0 165 197 0 165 197 0 165 197 0 165 197 0 165 197 0 165 197 0 164 199 0 164 199 0 164 199 0 164 199 0 164 199 0 164 199 0 164 199 0 164 199 2 166 203 2 166 203 2 166 203 2 166 203 2 166 203 2 166 203 2 166 203 2 166 203 2 166 203 2 166 203 2 166 203 2 166 203 2 166 203 2 166 203 2 166 203 2 166 203 1 169 205 1 169 205 1 169 205 1 169 205 1 169 205 1 169 205 1 169 205 1 169 205 1 169 205 1 169 205 1 169 205 1 169 205 1 169 205 1 169 205 1 169 205 1 169 205 2 170 206 2 170 206 1 169 205 1 169 205 1 169 205 0 168 204 0 168 204 0 168 204 0 166 202 14 167 199 36 156 180 44 106 117 54 56 53 65 33 22 59 25 13 56 34 21 42 24 12 38 24 15 35 22 16 29 20 15 29 20 15 37 24 18 46 32 23 56 38 26 72 58 49 82 67 60 89 72 62 76 49 30 121 85 59 166 129 103 120 93 74 106 89 79 118 105 97 134 124 115 150 141 134 154 147 141 152 147 144 151 150 148 153 153 153 153 153 153 151 152 146 147 148 142 143 142 137 140 139 134 144 141 136 151 146 142 156 151 147 160 155 151 182 173 168 173 160 154 189 175 166 196 178 168 182 164 154 121 107 98 54 41 35 17 8 3 10 6 7 12 10 11 8 6 9 6 6 8 11 12 16 10 11 16 7 10 15 14 17 22 15 22 30 45 48 55 76 77 81 183 183 183 225 225 223 204 206 205 192 198 198 200 208 210 146 145 140 46 42 33 56 42 31 92 69 53 111 80 60 110 75 55 115 77 56 122 84 65 129 90 61 158 105 65 151 130 103 90 152 165 31 169 205 10 179 212 4 183 213 0 186 222 1 185 219 1 185 219 1 185 219 1 185 219 1 185 219 1 185 219 1 185 219 1 185 219 0 187 220 0 187 220 0 187 220 0 187 220 0 187 220 0 187 220 0 187 220 0 187 220 0 187 220 0 187 220 0 187 220 0 187 220 0 187 220 0 187 220 0 187 220 0 187 220 0 189 221 0 189 221 0 189 221 0 189 221 0 189 221 0 189 221 0 189 221 0 189 221 1 188 221 1 188 221 1 188 221 1 188 221 1 188 221 1 188 221 1 188 221 1 188 221 1 188 221 2 189 222 2 189 222 2 189 222 3 190 223 3 190 223 3 190 223 3 190 223 11 191 226 11 191 226 12 191 224 16 190 225 17 190 224 20 190 223 21 190 223 22 189 223 23 192 223 24 191 223 27 192 222 29 192 223 32 193 222 34 191 222 37 192 222 37 192 222 
38 193 223 38 193 223 38 193 223 39 194 224 39 194 224 40 195 225 40 195 225 40 195 225 41 194 226 41 194 225 44 195 226 44 195 224 45 194 224 47 195 223 47 195 223 49 194 221 47 195 223 48 196 224 50 195 224 50 195 224 52 195 225 54 195 225 54 195 225 54 195 225 56 194 223 56 194 223 56 194 223 56 194 223 57 195 224 57 195 224 57 195 224 58 196 225 61 196 226 61 196 226 61 196 226 61 196 226 61 196 226 61 196 226 61 196 226 61 196 226 57 196 229 56 195 228 56 195 228 56 195 228 55 194 227 55 194 227 55 194 227 55 194 227 47 195 223 48 196 224 50 195 224 50 195 224 52 195 225 54 195 225 54 195 225 54 195 225 52 195 225 52 195 225 54 195 225 54 195 225 56 195 226 57 194 226 57 194 226 60 195 227 57 194 226 57 194 226 57 194 226 57 194 226 58 195 227 58 195 227 59 196 228 59 196 228 58 195 227 58 195 227 58 195 227 58 195 227 58 195 227 58 195 227 58 195 227 58 195 227 62 195 226 62 195 226 62 195 226 62 195 226 
0 165 197 0 165 197 0 165 197 0 165 197 0 165 197 0 165 197 0 165 197 0 165 197 0 164 199 0 164 199 0 164 199 0 164 199 0 164 199 0 164 199 0 164 199 0 164 199 1 165 202 1 165 202 1 165 202 1 165 202 1 165 202 1 165 202 1 165 202 1 165 202 1 165 202 1 165 202 1 165 202 1 165 202 1 165 202 1 165 202 1 165 202 1 165 202 1 168 204 1 168 204 1 168 204 1 168 204 1 168 204 1 168 204 1 168 204 1 168 204 1 168 204 1 168 204 1 168 204 1 168 204 1 168 204 1 168 204 1 168 204 1 168 204 3 170 206 2 169 205 2 169 205 2 169 205 1 168 204 1 168 204 1 168 204 0 167 203 4 169 197 3 173 206 11 165 199 39 141 166 58 88 98 60 43 36 63 36 19 56 38 16 41 23 11 40 26 17 40 27 21 36 27 22 35 26 21 41 28 22 49 35 26 59 41 29 63 48 41 83 70 64 100 83 75 76 50 33 120 86 61 164 130 105 118 95 77 109 96 87 117 108 99 133 124 117 145 138 132 146 141 137 141 140 138 142 142 142 142 143 145 139 143 144 141 143 138 142 143 138 141 142 137 141 140 136 142 141 137 148 144 141 154 149 146 158 153 150 186 174 174 180 166 165 190 172 168 192 173 167 168 149 143 125 110 105 51 40 38 17 9 7 19 15 14 12 8 7 3 1 2 12 10 11 23 23 25 12 13 17 8 9 13 26 27 31 19 23 34 76 77 82 70 68 69 180 176 173 224 221 216 204 205 200 184 190 190 189 199 200 139 135 134 60 51 46 68 51 41 90 64 47 111 80 60 113 81 60 110 79 58 113 85 64 131 91 65 156 103 63 147 121 94 88 145 156 33 166 201 14 179 211 6 185 215 0 186 224 1 185 219 1 185 219 1 185 219 1 185 219 1 185 219 1 185 219 1 185 219 1 185 219 0 187 220 0 187 220 0 187 220 0 187 220 0 187 220 0 187 220 0 187 220 0 187 220 0 187 220 0 187 220 0 187 220 0 187 220 0 187 220 0 187 220 0 187 220 0 187 220 0 189 221 0 189 221 0 189 221 0 189 221 0 189 221 0 189 221 0 189 221 0 189 221 1 188 221 1 188 221 1 188 221 1 188 221 1 188 221 1 188 221 1 188 221 1 188 221 1 188 221 1 188 221 2 189 222 2 189 222 2 189 222 3 190 223 3 190 223 3 190 223 13 189 226 13 189 226 15 189 224 16 188 224 20 188 224 21 188 222 23 187 222 25 188 223 26 191 223 26 191 223 28 191 222 32 191 223 34 191 222 36 191 222 38 191 222 40 191 222 
38 193 223 38 193 223 38 193 223 38 193 223 39 194 224 39 194 224 39 194 224 40 195 225 41 194 226 41 194 225 41 194 225 44 195 224 45 194 224 45 195 222 47 195 223 47 195 221 49 194 223 49 194 223 51 194 224 53 194 224 53 194 224 55 194 225 55 194 225 56 193 225 55 193 222 55 193 222 56 194 223 56 194 223 56 194 223 57 195 224 57 195 224 57 195 224 60 195 225 60 195 225 60 195 225 60 195 225 60 195 225 60 195 225 60 195 225 60 195 225 59 193 228 59 193 228 59 193 228 58 192 227 58 192 227 58 192 227 57 191 226 57 191 226 49 194 223 49 194 223 51 194 224 53 194 224 53 194 224 55 194 225 55 194 225 56 193 225 51 194 224 51 194 224 52 195 225 54 195 225 55 194 225 56 195 226 57 194 226 57 194 226 56 193 225 56 193 225 57 194 226 57 194 226 58 195 227 58 195 227 58 195 227 58 195 227 57 194 226 57 194 226 57 194 226 57 194 226 57 194 226 57 194 226 57 194 226 57 194 226 61 194 225 61 194 225 61 194 225 61 194 225 
0 166 195 0 166 195 0 166 195 0 166 195 0 166 195 0 166 195 0 166 195 0 166 195 0 164 199 0 164 199 0 164 199 0 164 199 0 164 199 0 164 199 0 164 199 0 164 199 1 165 202 1 165 202 1 165 202 1 165 202 1 165 202 1 165 202 1 165 202 1 165 202 1 165 202 1 165 202 1 165 202 1 165 202 1 165 202 1 165 202 1 165 202 1 165 202 1 168 204 1 168 204 1 168 204 1 168 204 1 168 204 1 168 204 1 168 204 1 168 204 1 168 204 1 168 204 1 168 204 1 168 204 1 168 204 1 168 204 1 168 204 1 168 204 2 169 205 2 169 205 2 169 205 1 168 204 1 168 204 1 168 204 0 167 203 0 167 203 6 176 199 0 175 206 0 162 199 30 160 192 62 118 133 66 63 58 72 51 30 55 41 14 41 23 11 41 27 18 43 30 24 40 31 26 39 30 25 44 31 25 51 37 28 60 42 30 54 39 34 82 69 63 106 89 81 77 51 36 121 87 62 163 131 106 119 98 81 112 102 93 114 105 98 127 120 114 137 132 128 137 133 130 132 132 130 131 133 132 129 133 134 128 132 135 136 138 133 138 140 135 141 142 137 141 142 137 142 141 137 146 142 139 152 148 145 157 152 149 169 154 159 178 162 163 184 166 164 181 162 158 174 155 151 177 162 159 106 96 95 57 48 51 17 12 9 8 4 1 3 0 0 1 0 0 19 19 19 19 19 21 18 19 21 35 36 40 102 105 114 111 110 116 99 95 94 176 168 165 192 187 181 217 216 211 176 182 180 160 170 171 131 125 127 71 60 58 79 59 50 88 61 44 109 78 57 112 84 62 105 78 57 100 78 57 132 92 66 155 100 61 146 116 90 87 139 150 35 163 198 16 179 212 8 186 216 0 187 224 1 185 219 1 185 219 1 185 219 1 185 219 1 185 219 1 185 219 1 185 219 1 185 219 0 187 220 0 187 220 0 187 220 0 187 220 0 187 220 0 187 220 0 187 220 0 187 220 0 187 220 0 187 220 0 187 220 0 187 220 0 187 220 0 187 220 0 187 220 0 187 220 0 189 221 0 189 221 0 189 221 0 189 221 0 189 221 0 189 221 0 189 221 0 189 221 1 188 221 1 188 221 1 188 221 1 188 221 1 188 221 1 188 221 1 188 221 1 188 221 0 189 221 0 189 221 0 189 221 1 190 222 1 190 222 1 190 222 2 191 223 2 191 223 14 188 225 16 188 226 18 188 224 19 187 224 21 188 224 23 187 222 24 187 222 26 186 222 27 190 223 29 189 223 31 190 222 33 190 223 36 191 222 39 189 222 41 190 222 
41 190 222 37 192 222 38 193 223 38 193 223 38 193 223 39 194 224 39 194 224 39 194 224 39 194 224 40 195 226 41 194 225 41 194 225 43 194 223 44 195 224 45 195 222 47 195 223 47 195 221 50 193 223 52 193 223 52 193 223 54 193 224 54 193 224 55 192 224 58 193 225 58 193 225 54 193 222 54 193 222 54 193 222 55 194 223 55 194 223 56 195 224 56 195 224 56 195 224 60 195 225 60 195 225 60 195 225 60 195 225 60 195 225 60 195 225 60 195 225 60 195 225 60 193 228 60 193 228 60 193 228 59 192 227 59 192 227 58 191 226 58 191 226 58 191 226 50 193 223 52 193 223 52 193 223 54 193 224 54 193 224 55 192 224 58 193 225 58 193 225 50 195 224 51 194 224 51 194 224 54 195 225 54 195 225 56 195 226 57 194 226 57 194 226 55 194 225 55 194 225 56 195 226 56 195 226 56 195 226 57 196 227 57 196 227 57 196 227 56 195 226 56 195 226 56 195 226 56 195 226 56 195 226 56 195 226 56 195 226 56 195 226 61 194 225 61 194 225 61 194 225 61 194 225 
4 162 199 4 162 199 4 162 199 4 162 199 4 162 199 4 162 199 4 162 199 4 162 199 1 164 199 1 164 199 1 164 199 1 164 199 1 164 199 1 164 199 1 164 199 1 164 199 1 164 199 1 164 199 1 164 199 1 164 199 1 164 199 1 164 199 1 164 199 1 164 199 1 164 199 1 164 199 1 164 199 1 164 199 1 164 199 1 164 199 1 164 199 1 164 199 1 165 200 1 165 200 1 165 200 1 165 200 1 165 200 1 165 200 1 165 200 1 165 200 0 167 202 0 167 202 0 168 203 0 168 203 0 169 204 0 169 204 0 169 204 0 169 204 3 170 206 3 170 206 3 170 206 3 170 206 3 170 206 3 170 206 3 170 206 3 170 206 10 170 206 6 158 205 0 168 212 2 186 220 33 162 191 68 103 123 82 64 60 75 60 29 55 40 33 50 31 27 47 26 25 47 32 29 44 37 29 45 41 30 61 47 36 82 55 46 55 50 47 65 61 52 109 100 85 87 65 51 99 67 56 160 133 126 105 94 90 96 98 93 105 108 99 110 113 106 95 100 93 119 124 118 143 147 146 138 144 144 144 150 150 138 143 146 141 151 153 135 143 145 143 147 148 135 135 135 145 144 142 160 156 153 147 146 141 161 161 153 171 163 160 172 164 161 180 170 168 186 175 173 154 143 141 135 121 120 125 111 110 72 56 56 51 55 56 56 60 61 34 38 39 6 10 11 6 10 11 12 16 17 17 21 22 27 31 32 62 64 63 52 52 52 99 95 96 185 179 183 200 195 201 212 216 219 170 181 183 173 189 189 131 139 141 57 50 44 78 52 37 108 72 56 110 77 60 101 72 54 116 86 62 107 76 45 117 81 55 143 92 65 155 117 96 104 134 134 46 170 194 0 186 222 0 194 225 0 183 204 1 184 218 1 184 218 1 184 218 1 184 218 1 184 218 1 184 218 1 184 218 1 184 218 1 185 219 1 185 219 1 185 219 1 185 219 1 185 219 1 185 219 1 185 219 1 185 219 0 187 220 0 187 220 0 187 220 0 187 220 0 187 220 0 187 220 0 187 220 0 187 220 0 187 220 0 187 220 0 187 220 0 187 220 0 187 220 0 187 220 0 187 220 0 187 220 0 188 220 0 188 220 0 188 220 0 189 221 0 189 221 0 189 221 0 190 222 0 190 222 0 188 223 0 188 223 1 188 221 2 189 222 4 189 220 5 188 220 6 189 220 6 189 220 15 192 226 15 192 225 18 192 226 19 192 224 23 192 225 25 192 224 28 193 225 28 193 223 31 191 227 31 191 225 32 192 226 33 192 224 34 191 224 35 192 223 37 192 222 
37 192 222 41 191 226 42 192 227 42 192 227 42 192 227 43 193 228 43 193 228 43 193 228 44 194 229 45 194 227 45 194 227 45 194 227 46 195 228 46 195 228 46 195 228 47 196 229 47 196 229 50 193 223 50 193 223 50 193 223 51 194 224 51 194 224 51 194 224 52 195 225 52 195 225 59 192 225 59 192 225 59 192 225 59 192 225 59 192 225 59 192 225 59 192 225 59 192 225 63 193 225 63 193 225 63 193 225 63 193 225 63 193 225 63 193 225 63 193 225 63 193 225 57 196 227 57 196 227 57 196 227 56 195 226 56 195 226 56 195 226 55 194 225 55 194 225 54 195 225 54 195 225 54 195 225 54 195 225 54 195 225 54 195 225 54 195 225 54 195 225 55 194 225 55 194 225 55 194 225 55 194 225 55 194 225 55 194 225 55 194 225 55 194 225 59 192 227 59 192 227 59 192 227 59 192 227 59 192 227 59 192 227 59 192 227 59 192 227 56 195 228 56 195 228 56 195 228 56 195 228 56 195 228 56 195 228 56 195 228 56 195 228 58 196 225 58 196 225 58 196 225 58 196 225 
4 162 199 4 162 199 4 162 199 4 162 199 4 162 199 4 162 199 4 162 199 4 162 199 1 164 199 1 164 199 1 164 199 1 164 199 1 164 199 1 164 199 1 164 199 1 164 199 1 164 199 1 164 199 1 164 199 1 164 199 1 164 199 1 164 199 1 164 199 1 164 199 1 164 199 1 164 199 1 164 199 1 164 199 1 164 199 1 164 199 1 164 199 1 164 199 1 165 200 1 165 200 1 165 200 1 165 200 1 165 200 1 165 200 1 165 200 1 165 200 0 167 202 0 167 202 0 168 203 0 168 203 0 168 203 0 169 204 0 169 204 0 169 204 2 169 205 2 169 205 2 169 205 2 169 205 2 169 205 2 169 205 2 169 205 2 169 205 8 166 201 6 163 206 0 167 212 0 173 213 23 162 191 56 129 146 71 90 88 72 66 50 71 57 46 63 45 35 58 38 31 56 41 34 52 50 38 51 51 39 58 52 40 68 54 45 52 48 45 72 69 62 125 117 104 95 76 62 104 76 65 169 144 139 105 97 94 88 97 94 99 101 96 103 105 100 96 98 95 111 116 112 131 135 134 127 131 132 134 138 139 150 154 155 126 134 136 130 138 140 143 147 148 148 150 149 149 149 147 145 144 140 143 142 138 163 162 157 172 164 161 174 166 163 182 174 171 185 175 173 155 144 142 138 127 125 131 117 116 83 69 68 27 28 30 27 28 30 21 22 24 16 17 19 14 15 17 12 13 15 20 21 23 36 37 39 35 37 36 52 52 52 99 95 96 181 175 179 197 195 200 210 214 217 173 183 185 167 183 183 124 132 134 65 56 49 83 57 42 106 70 54 110 77 62 102 73 57 111 83 61 109 78 49 117 81 55 140 90 63 153 115 94 104 133 131 48 170 193 0 185 222 0 194 227 0 182 206 1 184 218 1 184 218 1 184 218 1 184 218 1 184 218 1 184 218 1 184 218 1 184 218 1 185 219 1 185 219 1 185 219 1 185 219 1 185 219 1 185 219 1 185 219 1 185 219 0 187 220 0 187 220 0 187 220 0 187 220 0 187 220 0 187 220 0 187 220 0 187 220 0 187 220 0 187 220 0 187 220 0 187 220 0 187 220 0 187 220 0 187 220 0 187 220 0 188 220 0 188 220 0 188 220 0 189 221 0 189 221 0 189 221 0 190 222 0 190 222 0 188 223 0 188 223 2 189 222 2 189 222 4 189 220 6 189 221 6 189 220 8 189 220 15 192 226 15 192 225 18 192 226 21 191 224 23 192 225 25 192 224 28 193 225 29 192 223 31 191 225 31 191 225 33 191 226 33 192 224 35 192 223 37 192 223 37 192 222 
37 192 222 42 192 227 42 192 227 42 192 227 43 193 228 43 193 228 43 193 228 44 194 229 44 194 229 46 193 226 46 193 226 46 193 226 47 194 227 47 194 227 48 195 228 48 195 228 48 195 228 50 193 223 50 193 223 51 194 224 51 194 224 51 194 224 52 195 225 52 195 225 52 195 225 56 193 225 56 193 225 56 193 225 56 193 225 56 193 225 56 193 225 56 193 225 56 193 225 61 194 225 61 194 225 61 194 225 61 194 225 61 194 225 61 194 225 61 194 225 61 194 225 58 195 227 58 195 227 58 195 227 58 195 227 57 194 226 57 194 226 56 193 225 56 193 225 54 195 225 54 195 225 54 195 225 54 195 225 54 195 225 54 195 225 54 195 225 54 195 225 56 193 225 56 193 225 56 193 225 56 193 225 56 193 225 56 193 225 56 193 225 56 193 225 56 193 227 56 193 227 56 193 227 56 193 227 56 193 227 56 193 227 56 193 227 56 193 227 57 194 228 57 194 228 57 194 228 57 194 228 57 194 228 57 194 228 57 194 228 57 194 228 60 195 225 60 195 225 60 195 225 60 195 225 
4 162 199 4 162 199 4 162 199 4 162 199 4 162 199 4 162 199 4 162 199 4 162 199 3 163 199 3 163 199 3 163 199 3 163 199 3 163 199 3 163 199 3 163 199 3 163 199 3 163 199 3 163 199 3 163 199 3 163 199 3 163 199 3 163 199 3 163 199 3 163 199 3 163 199 3 163 199 3 163 199 3 163 199 3 163 199 3 163 199 3 163 199 3 163 199 1 165 200 1 165 200 1 165 200 1 165 200 1 165 200 1 165 200 1 165 200 1 165 200 0 166 202 0 166 202 0 166 202 0 167 203 0 167 203 0 167 203 0 168 204 0 168 204 2 169 205 2 169 205 2 169 205 2 169 205 2 169 205 2 169 205 2 169 205 2 169 205 6 165 197 4 170 208 3 165 211 2 158 206 10 163 195 30 162 174 53 127 130 66 84 86 84 73 55 78 60 46 70 48 35 61 45 32 51 47 35 48 52 38 58 58 48 70 65 59 67 63 62 85 85 77 136 130 118 95 79 66 103 80 72 171 153 149 102 102 100 90 106 105 96 102 100 97 101 100 97 101 100 105 106 108 117 118 120 109 109 111 106 106 108 145 143 146 122 127 130 130 135 138 134 140 140 149 153 154 151 153 152 134 136 133 142 142 140 160 160 158 166 161 158 164 159 156 170 165 162 179 171 169 166 156 155 160 150 149 152 140 140 107 95 95 66 67 69 29 30 32 7 8 10 10 11 13 11 12 14 7 8 10 12 13 15 20 21 23 44 44 44 90 88 89 125 121 122 183 181 184 202 201 206 212 216 219 181 191 193 160 174 175 119 123 124 80 71 64 94 68 53 106 75 57 110 81 65 105 79 64 110 82 61 114 83 55 113 81 56 138 88 61 150 112 89 105 131 128 51 170 192 0 185 220 0 192 226 0 181 208 1 184 218 1 184 218 1 184 218 1 184 218 1 184 218 1 184 218 1 184 218 1 184 218 1 185 219 1 185 219 1 185 219 1 185 219 1 185 219 1 185 219 1 185 219 1 185 219 0 187 220 0 187 220 0 187 220 0 187 220 0 187 220 0 187 220 0 187 220 0 187 220 0 187 220 0 187 220 0 187 220 0 187 220 0 187 220 0 187 220 0 187 220 0 187 220 0 188 220 0 188 220 0 188 220 0 189 221 0 189 221 0 189 221 1 190 222 1 190 222 1 188 223 2 189 224 2 189 222 4 188 222 6 189 221 6 189 221 8 189 220 8 189 220 15 192 226 17 191 225 19 192 226 21 191 224 23 192 225 27 192 224 29 192 225 29 192 223 32 192 226 33 191 226 33 192 224 34 191 224 35 192 223 37 192 222 
39 192 223 39 193 221 43 192 225 43 192 225 43 192 225 44 193 226 44 193 226 45 194 227 45 194 227 45 194 227 46 193 226 46 193 226 47 194 227 47 194 227 48 195 228 48 195 228 48 195 228 48 195 228 52 193 223 53 194 224 53 194 224 53 194 224 54 195 225 54 195 225 54 195 225 54 195 225 56 195 226 56 195 226 56 195 226 56 195 226 56 195 226 56 195 226 56 195 226 56 195 226 59 197 226 59 197 226 59 197 226 59 197 226 59 197 226 59 197 226 59 197 226 59 197 226 59 196 228 59 196 228 58 195 227 58 195 227 57 194 226 57 194 226 57 194 226 57 194 226 56 195 226 56 195 226 56 195 226 56 195 226 56 195 226 56 195 226 56 195 226 56 195 226 57 194 226 57 194 226 57 194 226 57 194 226 57 194 226 57 194 226 57 194 226 57 194 226 56 195 228 56 195 228 56 195 228 56 195 228 56 195 228 56 195 228 56 195 228 56 195 228 58 195 229 58 195 229 58 195 229 58 195 229 58 195 229 58 195 229 58 195 229 58 195 229 62 195 226 62 195 226 62 195 226 62 195 226 
3 161 198 3 161 198 3 161 198 3 161 198 3 161 198 3 161 198 3 161 198 3 161 198 2 162 198 2 162 198 2 162 198 2 162 198 2 162 198 2 162 198 2 162 198 2 162 198 2 162 198 2 162 198 2 162 198 2 162 198 2 162 198 2 162 198 2 162 198 2 162 198 2 162 198 2 162 198 2 162 198 2 162 198 2 162 198 2 162 198 2 162 198 2 162 198 1 164 199 1 164 199 1 164 199 1 164 199 1 164 199 1 164 199 1 164 199 1 164 199 0 165 201 0 165 201 0 166 202 0 166 202 0 167 203 0 167 203 0 167 203 0 167 203 2 169 205 2 169 205 2 169 205 2 169 205 2 169 205 2 169 205 2 169 205 2 169 205 5 164 196 2 172 207 4 165 209 8 154 205 0 167 201 0 181 192 28 156 165 66 114 136 79 80 64 87 75 63 90 68 57 81 61 50 66 56 44 63 61 49 75 72 65 90 82 80 83 82 80 93 94 88 139 137 125 106 96 86 120 103 96 171 161 159 91 101 102 84 110 111 98 109 113 94 103 108 100 108 111 102 106 109 109 110 112 89 87 90 67 63 64 105 101 102 130 131 135 137 141 142 123 129 129 134 143 142 141 150 149 133 137 138 148 150 149 154 154 154 164 163 159 157 153 150 160 156 153 172 167 164 177 169 167 185 177 175 172 162 161 129 119 118 96 96 98 46 46 48 16 16 18 17 17 19 16 16 18 20 20 22 31 31 33 36 36 38 89 87 88 147 145 146 158 156 157 190 190 192 205 206 210 209 214 217 182 190 193 147 157 159 116 116 118 96 85 79 105 82 66 109 80 62 111 85 70 109 87 73 109 82 63 118 88 64 110 82 60 132 85 59 148 107 85 107 129 126 54 169 190 0 182 219 0 190 226 0 181 210 1 184 218 1 184 218 1 184 218 1 184 218 1 184 218 1 184 218 1 184 218 1 184 218 1 185 219 1 185 219 1 185 219 1 185 219 1 185 219 1 185 219 1 185 219 1 185 219 0 187 220 0 187 220 0 187 220 0 187 220 0 187 220 0 187 220 0 187 220 0 187 220 0 187 220 0 187 220 0 187 220 0 187 220 0 187 220 0 187 220 0 187 220 0 187 220 0 188 220 0 188 220 0 188 220 0 189 221 0 189 221 0 189 221 1 190 222 1 190 222 2 189 224 2 189 224 4 188 222 6 189 223 6 189 221 8 188 221 9 190 221 10 189 221 17 191 226 17 191 225 19 192 226 22 191 224 24 191 225 27 192 224 29 192 225 31 191 223 33 192 224 33 192 224 35 192 225 35 192 223 37 192 222 39 192 223 
39 193 221 39 193 221 43 192 225 44 193 226 44 193 226 44 193 226 45 194 227 45 194 227 45 194 227 46 195 228 49 194 225 49 194 225 49 194 225 50 195 226 50 195 226 50 195 226 51 196 227 51 196 227 53 194 224 53 194 224 53 194 224 54 195 225 54 195 225 54 195 225 55 196 226 55 196 226 55 196 226 55 196 226 55 196 226 55 196 226 55 196 226 55 196 226 55 196 226 55 196 226 59 197 226 59 197 226 59 197 226 59 197 226 59 197 226 59 197 226 59 197 226 59 197 226 61 196 228 61 196 228 61 196 228 60 195 227 60 195 227 60 195 227 59 194 226 59 194 226 56 195 226 56 195 226 56 195 226 56 195 226 56 195 226 56 195 226 56 195 226 56 195 226 59 194 226 59 194 226 59 194 226 59 194 226 59 194 226 59 194 226 59 194 226 59 194 226 56 197 227 56 197 227 56 197 227 56 197 227 56 197 227 56 197 227 56 197 227 56 197 227 60 195 227 60 195 227 60 195 227 60 195 227 60 195 227 60 195 227 60 195 227 60 195 227 64 194 226 64 194 226 64 194 226 64 194 226 
3 161 198 3 161 198 3 161 198 3 161 198 3 161 198 3 161 198 3 161 198 3 161 198 3 161 198 3 161 198 3 161 198 3 161 198 3 161 198 3 161 198 3 161 198 3 161 198 3 161 198 3 161 198 3 161 198 3 161 198 3 161 198 3 161 198 3 161 198 3 161 198 3 161 198 3 161 198 3 161 198 3 161 198 3 161 198 3 161 198 3 161 198 3 161 198 3 163 199 3 163 199 3 163 199 3 163 199 3 163 199 3 163 199 3 163 199 3 163 199 0 165 201 0 165 201 0 165 201 0 166 202 0 166 202 0 166 202 0 167 203 0 167 203 1 168 204 1 168 204 1 168 204 1 168 204 1 168 204 1 168 204 1 168 204 1 168 204 3 166 197 0 169 202 6 165 207 13 161 209 0 170 205 0 182 198 9 170 188 57 146 180 67 96 92 82 94 92 97 89 86 103 85 81 101 86 79 101 90 84 104 93 91 109 93 94 94 94 94 100 102 97 144 145 137 143 139 128 159 150 145 173 173 173 76 97 100 68 106 109 93 111 121 88 105 113 99 112 120 102 111 116 108 112 115 84 84 86 44 40 39 59 54 51 118 116 119 138 139 141 123 132 131 125 137 135 131 143 143 131 139 141 147 151 154 146 145 150 161 161 159 155 155 153 165 164 162 169 168 166 175 171 170 185 179 179 169 163 163 140 131 132 96 96 98 73 73 75 59 59 61 47 47 49 29 29 31 34 34 36 59 59 61 72 72 74 124 118 120 175 171 172 176 176 176 191 192 194 202 207 210 202 210 212 173 181 184 129 137 140 112 108 109 104 91 83 109 86 70 109 83 66 104 85 70 108 89 75 102 79 63 115 84 64 107 82 60 127 81 55 143 103 78 107 126 120 58 169 188 3 181 217 0 188 225 1 180 212 1 184 218 1 184 218 1 184 218 1 184 218 1 184 218 1 184 218 1 184 218 1 184 218 1 185 219 1 185 219 1 185 219 1 185 219 1 185 219 1 185 219 1 185 219 1 185 219 0 187 220 0 187 220 0 187 220 0 187 220 0 187 220 0 187 220 0 187 220 0 187 220 0 187 220 0 187 220 0 187 220 0 187 220 0 187 220 0 187 220 0 187 220 0 187 220 0 187 220 0 187 220 0 187 220 1 188 221 1 188 221 1 188 221 2 189 222 2 189 222 4 188 224 4 188 224 6 189 223 6 189 223 9 189 222 10 189 222 10 189 221 10 189 221 18 190 226 18 191 225 21 191 226 22 191 224 26 190 225 28 191 224 31 191 225 32 191 223 35 192 225 35 192 223 35 192 223 37 192 222 39 192 223 
39 193 221 42 193 220 42 193 220 45 192 225 45 192 225 45 192 225 46 193 226 46 193 226 47 194 227 47 194 227 47 194 227 49 194 225 49 194 225 50 195 226 50 195 226 50 195 226 51 196 227 51 196 227 51 196 227 54 193 224 54 193 224 55 194 225 55 194 225 56 195 226 56 195 226 56 195 226 56 195 226 57 196 227 57 196 227 57 196 227 57 196 227 57 196 227 57 196 227 57 196 227 57 196 227 60 198 227 60 198 227 60 198 227 60 198 227 60 198 227 60 198 227 60 198 227 60 198 227 62 197 229 62 197 229 61 196 228 61 196 228 60 195 227 60 195 227 60 195 227 60 195 227 58 195 227 58 195 227 58 195 227 58 195 227 58 195 227 58 195 227 58 195 227 58 195 227 60 195 227 60 195 227 60 195 227 60 195 227 60 195 227 60 195 227 60 195 227 60 195 227 58 197 226 58 197 226 58 197 226 58 197 226 58 197 226 58 197 226 58 197 226 58 197 226 61 196 226 61 196 226 61 196 226 61 196 226 61 196 226 61 196 226 61 196 226 61 196 226 66 195 227 66 195 227 66 195 227 66 195 227 
2 160 197 2 160 197 2 160 197 2 160 197 2 160 197 2 160 197 2 160 197 2 160 197 2 160 197 2 160 197 2 160 197 2 160 197 2 160 197 2 160 197 2 160 197 2 160 197 2 160 197 2 160 197 2 160 197 2 160 197 2 160 197 2 160 197 2 160 197 2 160 197 2 160 197 2 160 197 2 160 197 2 160 197 2 160 197 2 160 197 2 160 197 2 160 197 2 162 198 2 162 198 2 162 198 2 162 198 2 162 198 2 162 198 2 162 198 2 162 198 0 163 200 0 164 201 0 164 201 0 164 201 1 165 202 1 165 202 1 165 202 1 165 202 1 168 204 1 168 204 1 168 204 1 168 204 1 168 204 1 168 204 1 168 204 1 168 204 2 169 201 0 166 200 4 166 205 8 169 211 0 174 207 0 173 199 3 171 198 37 170 205 53 137 147 61 121 131 71 98 105 84 88 91 100 95 91 116 107 102 123 108 105 121 101 102 112 113 115 116 121 117 145 150 143 167 168 160 182 181 177 162 172 174 72 103 108 68 117 124 80 110 121 79 106 117 90 113 121 101 118 125 111 121 123 96 100 99 55 55 53 37 34 29 84 78 80 120 120 122 129 138 137 126 140 140 124 140 140 127 138 140 136 141 147 138 138 146 139 141 140 147 149 148 168 168 168 166 166 166 163 161 162 171 167 168 160 156 157 145 141 142 104 102 105 94 92 95 79 77 80 58 56 59 44 42 45 59 57 60 91 89 92 112 110 113 140 131 134 174 168 170 184 184 184 193 199 199 202 210 212 199 207 209 169 174 178 127 132 136 110 101 104 103 88 81 108 87 70 110 89 70 99 83 68 106 89 79 96 74 61 109 77 62 105 83 62 122 78 53 140 98 74 109 124 117 62 169 187 6 180 217 0 186 226 0 178 214 1 184 218 1 184 218 1 184 218 1 184 218 1 184 218 1 184 218 1 184 218 1 184 218 1 185 219 1 185 219 1 185 219 1 185 219 1 185 219 1 185 219 1 185 219 1 185 219 0 187 220 0 187 220 0 187 220 0 187 220 0 187 220 0 187 220 0 187 220 0 187 220 0 187 220 0 187 220 0 187 220 0 187 220 0 187 220 0 187 220 0 187 220 0 187 220 2 186 220 2 186 220 2 186 220 3 187 221 3 187 221 3 187 221 4 188 222 4 188 222 5 189 225 6 188 225 6 189 223 9 189 224 10 189 222 10 189 222 12 189 222 12 189 222 18 190 226 20 190 225 22 190 226 23 190 224 26 190 225 30 190 224 32 190 225 32 191 223 35 192 223 35 192 223 37 192 222 
39 192 223 39 193 221 42 193 220 42 193 220 43 193 220 47 192 223 48 193 224 48 193 224 48 193 224 49 194 225 49 194 225 49 194 225 49 194 225 51 194 224 51 194 224 51 194 224 51 194 224 52 195 225 52 195 225 53 196 226 53 196 226 55 194 225 55 194 225 55 194 225 56 195 226 56 195 226 56 195 226 57 196 227 57 196 227 60 195 227 60 195 227 60 195 227 60 195 227 60 195 227 60 195 227 60 195 227 60 195 227 63 196 227 63 196 227 63 196 227 63 196 227 63 196 227 63 196 227 63 196 227 63 196 227 63 196 229 63 196 229 63 196 229 62 195 228 62 195 228 61 194 227 61 194 227 61 194 227 60 195 227 60 195 227 60 195 227 60 195 227 60 195 227 60 195 227 60 195 227 60 195 227 61 194 227 61 194 227 61 194 227 61 194 227 61 194 227 61 194 227 61 194 227 61 194 227 62 197 227 62 197 227 62 197 227 62 197 227 62 197 227 62 197 227 62 197 227 62 197 227 62 195 226 62 195 226 62 195 226 62 195 226 62 195 226 62 195 226 62 195 226 62 195 226 67 194 227 67 194 227 67 194 227 67 194 227 
2 160 197 2 160 197 2 160 197 2 160 197 2 160 197 2 160 197 2 160 197 2 160 197 3 159 197 3 159 197 3 159 197 3 159 197 3 159 197 3 159 197 3 159 197 3 159 197 3 159 197 3 159 197 3 159 197 3 159 197 3 159 197 3 159 197 3 159 197 3 159 197 3 159 197 3 159 197 3 159 197 3 159 197 3 159 197 3 159 197 3 159 197 3 159 197 3 161 198 3 161 198 3 161 198 3 161 198 3 161 198 3 161 198 3 161 198 3 161 198 0 163 200 0 163 200 0 164 201 0 164 201 0 164 201 1 165 202 1 165 202 1 165 202 0 167 203 0 167 203 0 167 203 0 167 203 0 167 203 0 167 203 0 167 203 0 167 203 3 173 206 4 167 202 3 167 204 0 174 206 0 172 205 3 166 201 9 167 204 8 177 208 20 172 195 32 151 171 47 120 135 59 96 102 77 93 90 99 102 95 113 106 100 116 101 98 115 119 122 131 137 135 143 150 143 173 178 171 180 184 183 141 156 161 68 107 114 68 125 134 71 110 125 76 112 126 83 113 123 100 123 129 111 126 129 112 121 118 90 92 87 41 42 36 53 44 47 85 85 85 118 128 127 121 140 138 123 143 142 125 140 143 121 128 136 131 131 141 121 125 124 130 134 133 155 157 156 152 154 153 152 152 152 161 159 160 144 142 143 133 131 132 95 93 96 90 88 91 72 70 73 57 55 58 59 57 60 79 77 80 113 111 114 144 142 145 159 148 152 169 163 165 192 194 193 195 204 203 194 204 205 188 196 198 160 165 169 134 137 142 117 107 108 107 90 83 111 90 73 118 99 82 99 87 73 108 95 86 100 78 67 107 78 64 101 83 63 117 75 50 136 94 69 110 123 114 65 168 185 7 179 215 0 184 225 1 177 216 1 184 218 1 184 218 1 184 218 1 184 218 1 184 218 1 184 218 1 184 218 1 184 218 1 185 219 1 185 219 1 185 219 1 185 219 1 185 219 1 185 219 1 185 219 1 185 219 0 187 220 0 187 220 0 187 220 0 187 220 0 187 220 0 187 220 0 187 220 0 187 220 0 187 220 0 187 220 0 187 220 0 187 220 0 187 220 0 187 220 0 187 220 0 187 220 2 186 220 2 186 220 2 186 220 3 187 221 3 187 221 3 187 221 4 188 222 4 188 222 6 188 225 6 188 225 9 189 224 9 189 224 10 189 222 12 189 223 12 189 222 12 189 222 20 190 226 20 190 225 22 190 226 25 189 224 27 190 225 30 190 224 32 190 225 33 190 223 37 192 223 38 193 223 38 193 223 39 193 221 
42 193 220 42 193 220 43 193 218 43 193 218 48 193 224 48 193 224 48 193 224 49 194 225 49 194 225 49 194 225 50 195 226 50 195 226 51 194 224 51 194 224 51 194 224 52 195 225 52 195 225 53 196 226 53 196 226 53 196 226 56 193 225 56 193 225 57 194 226 57 194 226 57 194 226 58 195 227 58 195 227 58 195 227 63 193 227 63 193 227 63 193 227 63 193 227 63 193 227 63 193 227 63 193 227 63 193 227 68 195 228 68 195 228 68 195 228 68 195 228 68 195 228 68 195 228 68 195 228 68 195 228 63 196 229 63 196 229 63 196 229 63 196 229 62 195 228 62 195 228 62 195 228 61 194 227 60 195 227 60 195 227 60 195 227 60 195 227 60 195 227 60 195 227 60 195 227 60 195 227 61 194 227 61 194 227 61 194 227 61 194 227 61 194 227 61 194 227 61 194 227 61 194 227 65 196 226 65 196 226 65 196 226 65 196 226 65 196 226 65 196 226 65 196 226 65 196 226 62 196 225 62 196 225 62 196 225 62 196 225 62 196 225 62 196 225 62 196 225 62 196 225 70 194 228 70 194 228 70 194 228 70 194 228 
2 160 197 2 160 197 2 160 197 2 160 197 2 160 197 2 160 197 2 160 197 2 160 197 3 159 197 3 159 197 3 159 197 3 159 197 3 159 197 3 159 197 3 159 197 3 159 197 3 159 197 3 159 197 3 159 197 3 159 197 3 159 197 3 159 197 3 159 197 3 159 197 3 159 197 3 159 197 3 159 197 3 159 197 3 159 197 3 159 197 3 159 197 3 159 197 3 161 198 3 161 198 3 161 198 3 161 198 3 161 198 3 161 198 3 161 198 3 161 198 0 163 200 0 163 200 0 163 200 0 164 201 0 164 201 0 164 201 1 165 202 1 165 202 0 167 203 0 167 203 0 167 203 0 167 203 0 167 203 0 167 203 0 167 203 0 167 203 2 175 209 10 168 205 0 169 202 0 174 200 0 171 202 23 162 205 17 165 205 0 176 202 0 178 207 14 176 201 49 158 178 65 130 136 72 107 103 83 99 88 95 97 86 101 94 84 100 104 107 131 140 137 142 152 144 178 185 178 180 186 186 124 143 149 59 102 109 56 116 126 70 116 132 79 121 135 79 116 125 97 126 132 108 128 129 121 133 129 114 121 114 52 55 46 40 29 33 58 56 57 98 108 107 111 131 129 125 146 147 130 145 150 113 120 130 127 127 139 125 131 129 125 129 128 140 144 143 139 141 140 147 149 148 156 156 156 126 124 125 106 104 105 90 85 89 100 95 99 94 89 93 79 74 78 70 65 69 67 62 66 92 87 91 134 129 133 178 166 170 169 163 165 197 199 198 192 201 200 177 189 189 168 178 179 145 150 154 135 136 141 128 116 118 113 96 89 116 97 80 128 111 93 107 95 81 116 103 94 106 86 77 113 83 72 100 83 65 116 74 50 136 92 67 110 122 112 66 168 183 9 179 215 0 184 225 1 177 216 1 184 218 1 184 218 1 184 218 1 184 218 1 184 218 1 184 218 1 184 218 1 184 218 1 185 219 1 185 219 1 185 219 1 185 219 1 185 219 1 185 219 1 185 219 1 185 219 0 187 220 0 187 220 0 187 220 0 187 220 0 187 220 0 187 220 0 187 220 0 187 220 0 187 220 0 187 220 0 187 220 0 187 220 0 187 220 0 187 220 0 187 220 0 187 220 2 186 220 2 186 220 2 186 220 3 187 221 3 187 221 3 187 221 4 188 222 4 188 222 6 188 225 6 188 225 9 189 224 10 188 224 11 190 223 12 189 223 12 189 222 14 188 222 20 190 226 21 189 225 23 190 226 25 189 224 27 190 225 30 190 224 32 190 225 33 190 223 38 193 223 38 193 223 39 192 223 
39 193 221 42 193 220 43 193 220 43 193 218 44 194 219 48 193 224 48 193 224 48 193 224 49 194 225 49 194 225 50 195 226 50 195 226 50 195 226 53 194 222 53 194 222 54 195 223 54 195 223 54 195 223 55 196 224 55 196 224 55 196 224 56 193 225 56 193 225 57 194 226 57 194 226 58 195 227 58 195 227 58 195 227 58 195 227 65 192 227 65 192 227 65 192 227 65 192 227 65 192 227 65 192 227 65 192 227 65 192 227 70 194 228 70 194 228 70 194 228 70 194 228 70 194 228 70 194 228 70 194 228 70 194 228 66 196 230 65 195 229 65 195 229 65 195 229 64 194 228 64 194 228 64 194 228 64 194 228 60 195 227 60 195 227 60 195 227 60 195 227 60 195 227 60 195 227 60 195 227 60 195 227 63 193 227 63 193 227 63 193 227 63 193 227 63 193 227 63 193 227 63 193 227 63 193 227 68 195 227 68 195 227 68 195 227 68 195 227 68 195 227 68 195 227 68 195 227 68 195 227 65 196 226 65 196 226 65 196 226 65 196 226 65 196 226 65 196 226 65 196 226 65 196 226 71 194 228 71 194 228 71 194 228 71 194 228 
1 158 193 1 158 193 1 158 193 1 158 193 1 158 193 1 158 193 1 158 193 1 158 193 0 158 193 0 158 193 0 158 193 0 158 193 0 158 193 0 158 193 0 158 193 0 158 193 0 156 191 0 156 191 0 156 191 0 156 191 0 156 191 0 156 191 0 156 191 0 156 191 0 158 193 0 158 193 0 158 193 1 159 194 1 159 194 1 159 194 2 160 195 2 160 195 0 160 196 0 160 196 0 160 196 1 161 197 1 161 197 2 162 198 2 162 198 2 162 198 3 161 198 2 162 198 3 163 199 1 164 199 0 164 199 1 165 200 0 166 200 0 166 200 0 164 201 0 164 201 1 165 202 1 165 202 1 165 202 2 166 203 2 166 203 2 166 203 0 168 203 0 169 204 0 169 204 0 169 204 0 170 205 0 170 205 0 170 205 1 171 206 3 172 213 2 169 203 5 167 192 11 163 184 24 155 175 44 135 153 66 109 116 81 91 92 97 102 105 139 143 146 161 165 166 154 162 164 172 187 190 73 102 106 67 110 116 69 119 128 69 116 126 69 113 124 77 117 129 80 114 126 96 120 130 136 147 153 127 128 132 69 65 64 62 38 51 50 33 41 31 27 28 106 112 110 120 135 132 106 124 126 118 132 141 113 125 137 111 126 133 103 118 125 108 121 127 128 137 142 140 145 148 133 131 134 119 110 113 110 98 102 88 84 85 78 72 74 53 44 47 55 44 48 77 71 73 93 91 92 119 123 122 148 157 154 164 167 174 177 182 188 180 190 192 174 185 187 175 185 186 175 180 183 152 153 155 122 120 123 130 109 106 112 95 88 112 98 87 108 99 84 123 116 100 109 101 90 110 99 93 104 93 89 94 73 70 103 91 67 115 101 72 114 125 117 70 167 184 0 187 216 0 182 218 17 178 222 1 184 218 1 184 218 1 184 218 1 184 218 1 184 218 1 184 218 1 184 218 1 184 218 1 184 218 1 184 218 1 184 218 1 184 218 1 184 218 1 184 218 1 184 218 1 184 218 1 185 219 1 185 219 1 185 219 1 185 219 1 185 219 1 185 219 1 185 219 1 185 219 2 186 220 2 186 220 2 186 220 2 186 220 2 186 220 2 186 220 2 186 220 2 186 220 1 188 221 1 188 221 2 189 222 2 189 222 2 189 222 3 190 223 3 190 223 3 190 223 8 188 223 10 188 224 10 189 222 12 189 223 15 189 223 16 191 222 17 190 222 18 191 223 22 191 224 22 191 224 24 191 225 28 191 224 30 190 222 32 191 223 34 191 222 36 191 222 37 192 222 38 193 223 38 193 223 
39 192 223 42 193 224 42 193 224 43 192 224 44 193 225 48 193 224 48 193 224 48 193 224 50 193 225 52 192 225 52 192 225 54 193 226 54 193 226 54 194 227 54 194 227 55 195 228 56 195 226 57 195 224 58 196 225 60 195 224 60 195 224 63 192 224 63 192 224 64 193 225 64 193 225 64 193 225 65 194 226 65 194 226 65 194 226 61 196 226 63 196 227 63 196 227 65 195 227 66 196 228 67 196 228 68 195 228 69 196 229 67 196 225 67 196 225 67 196 225 67 196 225 68 197 226 68 197 226 69 198 227 69 198 227 70 199 231 70 199 231 69 198 230 69 198 230 69 198 230 68 197 229 68 197 229 68 197 229 65 194 226 65 194 226 65 194 226 65 194 226 65 194 226 65 194 226 65 194 226 65 194 226 64 194 226 64 194 226 64 194 226 64 194 226 64 194 226 64 194 226 64 194 226 64 194 226 67 196 225 67 196 225 67 196 225 67 196 225 67 196 225 67 196 225 67 196 225 67 196 225 68 197 226 68 197 226 68 197 226 68 197 226 68 197 226 68 197 226 68 197 226 68 197 226 72 196 230 72 196 230 72 196 230 72 196 230 
0 157 192 0 157 192 0 157 192 0 157 192 0 157 192 0 157 192 0 157 192 0 157 192 0 157 192 0 157 192 0 157 192 0 157 192 0 157 192 0 157 192 0 157 192 0 157 192 0 156 191 0 156 191 0 156 191 0 156 191 0 156 191 0 156 191 0 156 191 0 156 191 0 157 192 1 158 193 1 158 193 1 158 193 2 159 194 2 159 194 2 159 194 2 159 194 0 160 196 0 160 196 0 160 196 0 160 196 1 161 197 1 161 197 1 161 197 2 162 198 3 161 198 3 161 198 2 162 198 1 164 199 1 164 199 0 164 199 1 165 200 0 166 200 0 164 201 0 164 201 0 164 201 1 165 202 1 165 202 2 166 203 2 166 203 2 166 203 0 168 203 0 168 203 0 169 204 0 169 204 0 169 204 0 170 205 0 170 205 0 170 205 5 172 217 7 170 211 10 170 204 12 171 203 19 168 200 32 156 182 46 138 153 57 124 130 86 114 117 124 145 148 147 158 162 148 155 161 155 168 174 69 97 101 61 104 110 59 112 116 64 113 120 66 113 123 76 120 131 80 118 129 92 120 131 125 142 149 124 132 134 83 83 83 44 22 34 24 9 16 11 7 8 45 51 49 77 89 87 121 135 136 124 137 145 115 125 137 104 117 123 103 114 120 108 117 122 118 123 127 115 114 119 97 91 95 78 66 70 69 54 59 27 18 21 22 11 15 11 0 3 18 6 10 39 28 32 55 49 51 87 87 87 128 130 129 155 160 166 170 177 183 181 191 193 177 188 190 176 184 186 174 178 181 159 157 160 138 133 137 114 93 88 109 90 83 121 105 92 119 107 91 124 115 100 107 97 85 114 104 95 120 109 105 102 73 65 113 86 67 121 106 85 104 136 133 55 170 189 0 185 216 0 182 218 10 180 216 1 184 218 1 184 218 1 184 218 1 184 218 1 184 218 1 184 218 1 184 218 1 184 218 1 184 218 1 184 218 1 184 218 1 184 218 1 184 218 1 184 218 1 184 218 1 184 218 1 185 219 1 185 219 1 185 219 1 185 219 1 185 219 1 185 219 1 185 219 1 185 219 2 186 220 2 186 220 2 186 220 2 186 220 2 186 220 2 186 220 2 186 220 2 186 220 1 188 221 1 188 221 1 188 221 2 189 222 2 189 222 2 189 222 3 190 223 3 190 223 8 188 223 9 189 224 10 189 222 12 189 223 13 190 223 15 190 221 16 191 222 17 190 222 22 191 224 22 191 224 24 191 225 28 191 224 30 190 222 32 191 223 34 191 222 36 191 222 37 192 222 38 193 223 38 193 223 39 192 223 42 193 224 
42 193 224 43 192 224 44 193 225 48 193 224 48 193 224 48 193 224 50 193 225 52 192 225 52 192 225 54 193 226 54 193 226 54 194 227 54 194 227 56 195 228 56 195 226 57 195 224 60 195 225 60 195 224 60 195 224 63 192 224 64 193 225 64 193 225 64 193 225 65 194 226 65 194 226 65 194 226 66 195 227 63 196 227 63 196 227 63 196 227 66 196 228 67 196 228 67 196 228 69 196 229 69 196 229 68 196 225 68 196 225 68 196 225 69 197 226 69 197 226 69 197 226 70 198 227 70 198 227 71 198 231 71 198 231 70 197 230 70 197 230 70 197 230 69 196 229 69 196 229 69 196 229 66 195 227 66 195 227 66 195 227 66 195 227 66 195 227 66 195 227 66 195 227 66 195 227 65 195 227 65 195 227 65 195 227 65 195 227 65 195 227 65 195 227 65 195 227 65 195 227 68 196 225 68 196 225 68 196 225 68 196 225 68 196 225 68 196 225 68 196 225 68 196 225 69 197 226 69 197 226 69 197 226 69 197 226 69 197 226 69 197 226 69 197 226 69 197 226 72 196 230 72 196 230 72 196 230 72 196 230 
0 157 192 0 157 192 0 157 192 0 157 192 0 157 192 0 157 192 0 157 192 0 157 192 0 157 192 0 157 192 0 157 192 0 157 192 0 157 192 0 157 192 0 157 192 0 157 192 0 156 191 0 156 191 0 156 191 0 156 191 0 156 191 0 156 191 0 156 191 0 156 191 0 157 192 0 157 192 0 157 192 1 158 193 1 158 193 1 158 193 2 159 194 2 159 194 0 158 195 0 158 195 0 158 195 1 159 196 1 159 196 1 159 196 2 160 197 2 160 197 2 160 197 2 160 197 3 161 198 2 162 198 0 163 198 1 164 199 0 164 199 0 164 199 0 164 201 0 164 201 0 164 201 0 164 201 1 165 202 1 165 202 2 166 203 2 166 203 0 167 203 0 167 203 0 167 203 0 168 204 0 168 204 1 169 205 1 169 205 1 169 205 3 170 215 6 169 212 9 170 212 9 175 217 9 178 221 11 175 212 18 166 192 23 159 173 76 135 139 106 151 157 128 153 160 142 152 161 137 146 155 73 93 100 61 102 104 53 107 107 59 109 116 62 112 121 74 122 132 80 123 132 87 121 130 113 138 143 123 138 141 101 111 110 62 49 59 30 20 28 32 30 31 25 29 28 24 33 30 62 72 73 71 80 87 106 113 123 94 101 107 93 98 104 91 90 96 83 78 85 66 55 63 48 33 40 37 17 26 34 13 20 23 11 15 18 3 8 17 0 4 23 2 9 29 10 16 32 17 22 60 51 54 106 100 102 125 134 139 149 158 163 170 181 183 176 186 188 172 180 182 169 168 173 159 153 157 149 138 144 128 108 101 113 95 85 115 99 84 123 110 94 137 125 109 126 116 104 122 115 107 121 114 108 110 78 63 124 84 72 124 115 108 86 153 159 32 174 198 1 178 219 0 182 218 0 182 206 1 184 218 1 184 218 1 184 218 1 184 218 1 184 218 1 184 218 1 184 218 1 184 218 1 184 218 1 184 218 1 184 218 1 184 218 1 184 218 1 184 218 1 184 218 1 184 218 1 185 219 1 185 219 1 185 219 1 185 219 1 185 219 1 185 219 1 185 219 1 185 219 2 186 220 2 186 220 2 186 220 2 186 220 2 186 220 2 186 220 2 186 220 2 186 220 1 188 221 1 188 221 1 188 221 1 188 221 2 189 222 2 189 222 2 189 222 3 190 223 8 188 223 8 188 223 9 189 222 11 190 223 12 189 222 13 191 221 16 191 222 16 191 222 22 191 224 22 191 224 24 191 225 28 191 224 30 190 222 32 191 223 34 191 222 36 191 222 37 192 222 38 193 223 38 193 223 39 192 223 42 193 224 42 193 224 43 192 224 
44 193 225 48 193 224 48 193 224 48 193 224 50 193 225 52 192 225 52 192 225 54 193 226 54 193 226 54 194 227 55 194 227 56 195 228 57 194 226 57 195 224 60 195 225 61 195 224 61 195 224 64 193 225 64 193 225 64 193 225 65 194 226 65 194 226 65 194 226 66 195 227 66 195 227 63 196 227 63 196 227 65 195 227 66 196 228 67 196 228 69 196 229 69 196 229 71 195 229 68 196 225 68 196 225 69 197 226 69 197 226 69 197 226 70 198 227 70 198 227 70 198 227 71 198 231 71 198 231 70 197 230 70 197 230 70 197 230 69 196 229 69 196 229 69 196 229 66 195 227 66 195 227 66 195 227 66 195 227 66 195 227 66 195 227 66 195 227 66 195 227 66 195 227 66 195 227 66 195 227 66 195 227 66 195 227 66 195 227 66 195 227 66 195 227 68 196 225 68 196 225 68 196 225 68 196 225 68 196 225 68 196 225 68 196 225 68 196 225 69 197 226 69 197 226 69 197 226 69 197 226 69 197 226 69 197 226 69 197 226 69 197 226 72 197 229 72 197 229 72 197 229 72 197 229 
0 157 192 0 157 192 0 157 192 0 157 192 0 157 192 0 157 192 0 157 192 0 157 192 1 155 191 1 155 191 1 155 191 1 155 191 1 155 191 1 155 191 1 155 191 1 155 191 1 155 191 1 155 191 1 155 191 1 155 191 1 155 191 1 155 191 1 155 191 1 155 191 1 155 191 1 155 191 1 155 191 2 156 192 2 156 192 2 156 192 3 157 193 3 157 193 0 157 194 0 157 194 0 157 194 0 158 195 0 158 195 1 159 196 1 159 196 1 159 196 2 158 196 2 158 196 2 160 197 2 160 197 1 161 197 0 163 198 0 163 198 0 163 198 0 162 200 0 162 200 1 163 201 1 163 201 1 163 201 2 164 202 2 164 202 2 164 202 0 166 202 0 167 203 0 167 203 0 167 203 0 168 204 0 168 204 0 168 204 1 169 205 0 168 203 0 167 203 5 169 206 5 172 216 0 176 225 0 177 220 0 174 205 2 171 192 76 156 163 95 158 167 115 149 161 137 149 161 121 127 139 79 96 103 65 103 104 55 107 103 60 111 115 60 110 117 69 119 128 77 124 134 85 125 133 104 137 142 119 143 145 112 132 131 94 89 96 52 47 53 42 42 42 31 33 30 25 27 24 30 34 35 8 11 16 15 15 23 11 10 15 27 22 28 45 34 42 60 40 51 69 46 56 83 55 67 97 67 79 105 75 87 72 51 58 56 33 41 59 32 41 61 31 41 52 22 32 43 17 26 57 36 43 96 79 85 116 125 130 139 150 154 166 177 179 178 188 190 178 183 186 171 169 174 162 153 158 156 141 148 122 105 95 120 104 91 130 114 99 140 124 109 139 127 113 125 118 108 123 120 113 126 127 122 114 88 73 126 92 90 117 130 138 65 171 187 10 177 209 4 175 219 7 181 218 0 185 201 1 184 218 1 184 218 1 184 218 1 184 218 1 184 218 1 184 218 1 184 218 1 184 218 1 184 218 1 184 218 1 184 218 1 184 218 1 184 218 1 184 218 1 184 218 1 184 218 1 185 219 1 185 219 1 185 219 1 185 219 1 185 219 1 185 219 1 185 219 1 185 219 2 186 220 2 186 220 2 186 220 2 186 220 2 186 220 2 186 220 2 186 220 2 186 220 0 187 220 0 187 220 1 188 221 1 188 221 1 188 221 2 189 222 2 189 222 2 189 222 5 188 222 6 189 223 8 188 221 9 189 222 11 190 222 13 191 221 13 191 221 16 191 222 22 191 224 22 191 224 24 191 225 28 191 224 30 190 222 32 191 223 34 191 222 36 191 222 37 192 222 38 193 223 38 193 223 39 192 223 42 193 224 42 193 224 43 192 224 
44 193 225 48 193 224 48 193 224 48 193 224 50 193 225 52 192 225 52 192 225 54 193 226 54 193 226 55 194 227 55 194 227 57 194 228 57 194 226 59 194 224 61 194 225 61 195 224 61 195 224 64 193 225 64 193 225 65 194 226 65 194 226 65 194 226 66 195 227 66 195 227 66 195 227 65 195 227 66 196 228 66 196 228 67 196 228 69 196 229 69 196 229 71 195 229 72 196 230 71 196 226 71 196 226 71 196 226 71 196 226 72 197 227 72 197 227 73 198 228 73 198 228 73 197 231 73 197 231 72 196 230 72 196 230 72 196 230 71 195 229 71 195 229 71 195 229 66 195 227 66 195 227 66 195 227 66 195 227 66 195 227 66 195 227 66 195 227 66 195 227 66 195 227 66 195 227 66 195 227 66 195 227 66 195 227 66 195 227 66 195 227 66 195 227 71 196 226 71 196 226 71 196 226 71 196 226 71 196 226 71 196 226 71 196 226 71 196 226 72 197 227 72 197 227 72 197 227 72 197 227 72 197 227 72 197 227 72 197 227 72 197 227 74 197 230 74 197 230 74 197 230 74 197 230 
0 156 191 0 156 191 0 156 191 0 156 191 0 156 191 0 156 191 0 156 191 0 156 191 0 154 190 0 154 190 0 154 190 0 154 190 0 154 190 0 154 190 0 154 190 0 154 190 0 154 190 0 154 190 0 154 190 0 154 190 0 154 190 0 154 190 0 154 190 0 154 190 0 154 190 0 154 190 0 154 190 1 155 191 1 155 191 1 155 191 2 156 192 2 156 192 0 155 193 0 155 193 0 155 193 0 156 194 0 156 194 1 157 195 1 157 195 1 157 195 3 157 195 1 157 195 2 158 196 1 159 196 0 160 196 1 161 197 0 162 197 0 162 197 2 161 200 2 161 200 2 161 200 3 162 201 3 162 201 3 162 201 4 163 202 4 163 202 0 166 202 0 166 202 0 166 202 0 167 203 0 167 203 1 168 204 1 168 204 1 168 204 0 171 192 0 171 192 3 171 198 4 171 207 0 170 214 0 169 213 3 168 200 10 166 189 81 164 172 90 154 164 103 141 152 124 140 153 108 117 126 84 102 106 73 104 106 61 106 103 64 113 118 60 110 117 64 114 123 73 121 131 84 128 137 100 137 145 112 143 146 112 140 141 135 138 145 109 113 116 63 63 63 22 21 19 10 9 5 25 21 22 42 37 41 21 18 25 21 12 15 50 35 40 81 58 68 102 68 82 113 75 90 125 84 100 129 88 104 125 86 104 115 88 97 93 61 72 102 66 78 107 69 82 105 64 78 99 63 75 101 68 79 129 99 109 155 160 166 167 174 180 181 191 193 189 197 200 189 193 196 184 182 187 175 166 171 164 151 158 132 122 112 124 112 100 119 105 94 128 114 103 131 122 113 128 128 120 115 121 117 107 117 116 105 106 98 109 112 121 91 148 167 40 180 205 0 180 215 6 174 221 11 180 219 0 183 201 1 184 218 1 184 218 1 184 218 1 184 218 1 184 218 1 184 218 1 184 218 1 184 218 1 184 218 1 184 218 1 184 218 1 184 218 1 184 218 1 184 218 1 184 218 1 184 218 1 185 219 1 185 219 1 185 219 1 185 219 1 185 219 1 185 219 1 185 219 1 185 219 2 186 220 2 186 220 2 186 220 2 186 220 2 186 220 2 186 220 2 186 220 2 186 220 0 187 220 0 187 220 0 187 220 0 187 220 1 188 221 1 188 221 2 189 222 2 189 222 4 188 222 5 188 222 6 189 221 9 189 222 10 189 221 11 190 220 13 191 221 13 191 221 22 191 224 22 191 224 24 191 225 28 191 224 30 190 222 32 191 223 34 191 222 36 191 222 37 192 222 38 193 223 38 193 223 39 192 223 42 193 224 
42 193 224 43 192 224 44 193 225 48 193 224 48 193 224 48 193 224 50 193 225 52 192 225 52 192 225 54 193 226 54 193 226 56 193 227 56 193 227 57 194 228 59 194 226 60 193 224 61 194 225 63 194 224 63 194 224 65 194 226 65 194 226 65 194 226 66 195 227 66 195 227 66 195 227 67 196 228 67 196 228 66 196 228 67 196 228 67 196 228 69 196 229 69 196 229 72 196 230 73 196 230 73 196 230 71 196 226 71 196 226 72 197 227 72 197 227 72 197 227 73 198 228 73 198 228 73 198 228 73 197 231 73 197 231 72 196 230 72 196 230 72 196 230 71 195 229 71 195 229 71 195 229 67 196 228 67 196 228 67 196 228 67 196 228 67 196 228 67 196 228 67 196 228 67 196 228 68 195 228 68 195 228 68 195 228 68 195 228 68 195 228 68 195 228 68 195 228 68 195 228 71 196 226 71 196 226 71 196 226 71 196 226 71 196 226 71 196 226 71 196 226 71 196 226 72 197 227 72 197 227 72 197 227 72 197 227 72 197 227 72 197 227 72 197 227 72 197 227 76 197 228 76 197 228 76 197 228 76 197 228 
0 156 191 0 156 191 0 156 191 0 156 191 0 156 191 0 156 191 0 156 191 0 156 191 0 152 189 0 152 189 0 152 189 0 152 189 0 152 189 0 152 189 0 152 189 0 152 189 1 153 190 1 153 190 1 153 190 1 153 190 1 153 190 1 153 190 1 153 190 1 153 190 0 152 189 0 152 189 0 152 189 1 153 190 1 153 190 2 154 191 2 154 191 2 154 191 0 154 192 0 154 192 1 155 193 1 155 193 1 155 193 2 156 194 2 156 194 2 156 194 2 156 194 2 156 194 1 157 195 1 157 195 1 159 196 0 160 196 0 160 196 0 160 196 1 160 199 1 160 199 2 161 200 2 161 200 3 162 201 3 162 201 3 162 201 3 162 201 1 165 202 1 165 202 1 165 202 1 165 202 2 166 203 2 166 203 2 166 203 3 167 204 0 173 193 2 174 194 6 175 198 4 173 204 2 170 209 6 165 204 19 162 194 32 161 183 92 156 166 90 142 153 94 131 139 107 127 134 98 113 118 87 105 109 78 104 105 72 103 105 69 114 119 64 111 117 63 111 121 69 117 129 84 128 139 96 136 144 104 139 145 107 138 141 112 123 127 129 137 140 118 120 119 117 113 110 89 81 79 39 29 28 53 42 46 25 16 21 43 27 30 80 57 63 119 83 93 137 90 106 150 97 117 165 112 132 170 121 142 166 119 139 153 117 129 122 84 97 139 95 110 154 106 122 160 112 128 167 119 135 158 114 129 173 131 145 198 195 204 201 201 209 199 202 207 192 197 201 190 194 197 190 189 194 181 176 180 167 161 165 166 163 154 155 148 140 127 118 109 116 107 100 108 105 100 115 121 119 104 119 122 93 117 121 89 127 138 79 142 160 53 167 193 18 183 215 0 180 219 5 176 220 8 180 218 0 180 210 1 184 218 1 184 218 1 184 218 1 184 218 1 184 218 1 184 218 1 184 218 1 184 218 1 184 218 1 184 218 1 184 218 1 184 218 1 184 218 1 184 218 1 184 218 1 184 218 1 185 219 1 185 219 1 185 219 1 185 219 1 185 219 1 185 219 1 185 219 1 185 219 2 186 220 2 186 220 2 186 220 2 186 220 2 186 220 2 186 220 2 186 220 2 186 220 0 186 219 0 186 219 0 187 220 0 187 220 0 187 220 1 188 221 1 188 221 1 188 221 3 187 221 4 188 222 5 188 220 6 189 221 9 190 221 11 190 220 11 190 220 12 191 221 22 191 224 22 191 224 24 191 225 28 191 224 30 190 222 32 191 223 34 191 222 36 191 222 37 192 222 38 193 223 38 193 223 
39 192 223 42 193 224 42 193 224 43 192 224 44 193 225 48 193 224 48 193 224 48 193 224 50 193 225 52 192 225 52 192 225 54 193 226 54 193 226 56 193 227 56 193 227 59 193 228 60 193 226 60 193 224 63 193 225 63 194 224 64 193 224 65 194 226 65 194 226 66 195 227 66 195 227 66 195 227 67 196 228 67 196 228 67 196 228 67 196 228 68 197 229 69 196 229 69 196 229 72 196 230 73 196 230 73 196 230 73 196 230 73 196 227 73 196 227 73 196 227 73 196 227 74 197 228 74 197 228 74 197 228 75 198 229 74 197 231 74 197 231 73 196 230 73 196 230 73 196 230 72 195 229 72 195 229 72 195 229 67 196 228 67 196 228 67 196 228 67 196 228 67 196 228 67 196 228 67 196 228 67 196 228 70 194 228 70 194 228 70 194 228 70 194 228 70 194 228 70 194 228 70 194 228 70 194 228 72 195 226 72 195 226 72 195 226 72 195 226 72 195 226 72 195 226 72 195 226 72 195 226 74 197 228 74 197 228 74 197 228 74 197 228 74 197 228 74 197 228 74 197 228 74 197 228 77 198 227 77 198 227 77 198 227 77 198 227 
0 155 190 0 155 190 0 155 190 0 155 190 0 155 190 0 155 190 0 155 190 0 155 190 0 151 188 0 151 188 0 151 188 0 151 188 0 151 188 0 151 188 0 151 188 0 151 188 0 152 189 0 152 189 0 152 189 0 152 189 0 152 189 0 152 189 0 152 189 0 152 189 0 151 188 0 151 188 0 152 189 0 152 189 1 153 190 1 153 190 1 153 190 1 153 190 0 153 191 0 154 192 0 154 192 0 154 192 1 155 193 1 155 193 1 155 193 1 155 193 3 155 194 2 156 194 2 156 194 0 156 194 1 157 195 0 158 195 0 160 196 0 160 196 2 160 199 2 160 199 2 160 199 3 161 200 3 161 200 4 162 201 4 162 201 4 162 201 0 164 201 0 164 201 1 165 202 1 165 202 1 165 202 2 166 203 2 166 203 2 166 203 2 165 200 6 169 200 5 173 200 1 174 206 0 171 206 7 165 200 31 162 190 49 160 180 111 145 157 100 133 142 97 126 130 94 120 121 99 120 121 93 113 114 88 107 111 88 107 113 71 110 117 72 112 120 68 112 123 71 115 128 80 124 137 90 130 140 96 130 139 100 133 138 127 146 150 119 133 134 111 115 114 138 133 130 119 108 106 42 28 27 43 29 29 22 10 12 54 32 34 100 69 75 139 96 106 152 95 112 160 97 118 179 117 140 195 137 161 197 143 166 177 136 150 144 100 115 164 116 132 178 123 142 188 131 150 197 142 161 180 127 145 183 132 149 204 192 204 210 202 213 205 202 209 191 194 199 187 192 195 190 194 197 181 182 184 165 165 167 163 168 162 191 192 186 190 187 182 169 164 161 124 125 127 115 129 132 103 128 135 99 133 142 68 147 177 44 172 197 13 184 212 1 179 217 5 178 220 5 181 220 3 179 220 5 176 220 1 184 218 1 184 218 1 184 218 1 184 218 1 184 218 1 184 218 1 184 218 1 184 218 1 184 218 1 184 218 1 184 218 1 184 218 1 184 218 1 184 218 1 184 218 1 184 218 1 185 219 1 185 219 1 185 219 1 185 219 1 185 219 1 185 219 1 185 219 1 185 219 2 186 220 2 186 220 2 186 220 2 186 220 2 186 220 2 186 220 2 186 220 2 186 220 0 186 219 0 186 219 0 186 219 0 187 220 0 187 220 0 187 220 1 188 221 1 188 221 1 188 221 3 187 221 4 189 220 6 189 221 7 190 221 9 190 219 11 190 220 11 190 220 22 191 224 22 191 224 24 191 225 28 191 224 30 190 222 32 191 223 34 191 222 36 191 222 37 192 222 38 193 223 
38 193 223 39 192 223 42 193 224 42 193 224 43 192 224 44 193 225 48 193 224 48 193 224 48 193 224 50 193 225 52 192 225 52 192 225 54 193 226 54 193 226 58 192 227 58 192 227 59 193 228 60 193 226 62 192 224 63 193 225 64 193 224 64 193 224 65 194 226 66 195 227 66 195 227 66 195 227 67 196 228 67 196 228 67 196 228 68 197 229 68 197 229 69 196 229 69 196 229 72 196 230 73 196 230 73 196 230 76 196 231 76 196 231 73 196 227 73 196 227 73 196 227 74 197 228 74 197 228 74 197 228 75 198 229 75 198 229 74 197 231 74 197 231 73 196 230 73 196 230 73 196 230 72 195 229 72 195 229 72 195 229 68 197 229 68 197 229 68 197 229 68 197 229 68 197 229 68 197 229 68 197 229 68 197 229 71 195 229 71 195 229 71 195 229 71 195 229 71 195 229 71 195 229 71 195 229 71 195 229 73 196 227 73 196 227 73 196 227 73 196 227 73 196 227 73 196 227 73 196 227 73 196 227 74 197 228 74 197 228 74 197 228 74 197 228 74 197 228 74 197 228 74 197 228 74 197 228 78 197 227 78 197 227 78 197 227 78 197 227 
0 155 190 0 155 190 0 155 190 0 155 190 0 155 190 0 155 190 0 155 190 0 155 190 1 151 188 1 151 188 1 151 188 1 151 188 1 151 188 1 151 188 1 151 188 1 151 188 2 152 189 2 152 189 2 152 189 2 152 189 2 152 189 2 152 189 2 152 189 2 152 189 1 151 188 1 151 188 1 151 188 2 152 189 2 152 189 3 153 190 3 153 190 3 153 190 0 153 191 0 153 191 0 153 191 0 154 192 0 154 192 1 155 193 1 155 193 1 155 193 2 154 193 2 154 193 2 156 194 2 156 194 1 157 195 0 158 195 0 158 195 0 159 195 2 160 199 2 160 199 2 160 199 3 161 200 3 161 200 3 161 200 4 162 201 4 162 201 0 164 201 0 164 201 0 164 201 1 165 202 1 165 202 2 166 203 2 166 203 2 166 203 6 153 204 7 160 204 2 169 205 0 172 208 0 171 208 2 166 201 29 163 190 52 161 181 126 140 153 111 130 137 104 128 130 89 118 114 105 131 128 100 121 122 97 115 119 101 114 122 71 105 114 76 114 123 75 115 127 72 114 128 78 120 134 85 123 134 90 124 133 96 129 136 108 129 132 123 139 139 133 137 136 129 124 121 92 78 77 30 12 12 48 32 33 47 32 35 35 11 11 94 59 65 149 99 111 166 103 122 172 104 127 193 125 150 212 150 175 215 159 184 194 152 166 162 115 131 184 131 149 193 134 154 200 138 159 212 150 171 187 128 148 183 126 145 191 173 187 205 191 204 208 203 210 196 197 202 192 197 200 196 201 204 185 191 191 166 170 171 163 172 167 192 197 193 205 205 203 221 219 220 210 213 218 195 212 220 124 154 164 62 102 114 54 160 200 22 191 220 0 194 222 0 175 215 11 177 219 6 184 220 0 178 219 13 174 228 1 184 218 1 184 218 1 184 218 1 184 218 1 184 218 1 184 218 1 184 218 1 184 218 1 184 218 1 184 218 1 184 218 1 184 218 1 184 218 1 184 218 1 184 218 1 184 218 1 185 219 1 185 219 1 185 219 1 185 219 1 185 219 1 185 219 1 185 219 1 185 219 2 186 220 2 186 220 2 186 220 2 186 220 2 186 220 2 186 220 2 186 220 2 186 220 0 186 219 0 186 219 0 186 219 0 186 219 0 187 220 0 187 220 1 188 221 1 188 221 1 188 221 1 188 221 4 189 220 5 190 221 6 189 220 9 190 219 10 191 220 11 190 220 22 191 224 22 191 224 24 191 225 28 191 224 30 190 222 32 191 223 34 191 222 36 191 222 37 192 222 38 193 223 
38 193 223 39 192 223 42 193 224 42 193 224 43 192 224 44 193 225 48 193 224 48 193 224 48 193 224 50 193 225 52 192 225 52 192 225 54 193 226 54 193 226 58 192 227 58 192 227 60 193 228 60 193 226 62 192 224 64 193 225 64 193 224 64 193 224 66 195 227 66 195 227 66 195 227 67 196 228 67 196 228 67 196 228 68 197 229 68 197 229 69 196 229 69 196 229 69 196 229 72 196 230 73 196 230 74 197 231 76 196 231 76 196 231 75 196 227 75 196 227 76 197 228 76 197 228 76 197 228 77 198 229 77 198 229 77 198 229 76 196 231 76 196 231 75 195 230 75 195 230 75 195 230 74 194 229 74 194 229 74 194 229 68 197 229 68 197 229 68 197 229 68 197 229 68 197 229 68 197 229 68 197 229 68 197 229 71 195 229 71 195 229 71 195 229 71 195 229 71 195 229 71 195 229 71 195 229 71 195 229 75 196 227 75 196 227 75 196 227 75 196 227 75 196 227 75 196 227 75 196 227 75 196 227 76 197 228 76 197 228 76 197 228 76 197 228 76 197 228 76 197 228 76 197 228 76 197 228 78 197 227 78 197 227 78 197 227 78 197 227 
0 153 187 0 153 187 0 153 187 0 152 186 0 152 186 0 152 186 0 151 185 0 151 185 1 151 186 1 151 186 1 151 186 1 151 186 1 151 186 1 151 186 1 151 186 1 151 186 0 150 185 0 150 185 0 150 185 0 150 185 0 150 185 0 150 185 0 150 185 0 150 185 0 150 185 0 150 185 1 151 186 1 151 186 1 151 186 2 152 187 2 152 187 2 152 187 0 152 186 0 152 186 0 153 187 0 153 187 1 154 188 1 154 188 1 154 188 1 154 188 1 154 188 1 154 188 1 154 188 1 154 188 1 154 188 1 154 188 1 154 188 1 154 188 2 156 192 2 156 192 0 157 192 0 157 192 0 158 193 0 159 193 0 160 194 0 160 194 3 159 197 3 159 197 2 160 197 2 162 198 2 162 198 1 164 199 1 164 199 0 164 199 0 166 196 1 166 198 8 167 206 5 172 216 0 170 212 6 163 196 39 162 180 73 166 174 116 141 145 113 138 142 109 133 137 103 127 131 101 122 127 100 119 125 99 118 124 99 118 124 90 115 120 87 114 121 85 116 121 78 115 121 75 116 122 69 117 121 67 118 122 64 117 121 95 111 124 121 136 143 141 153 153 126 133 126 80 83 74 37 34 27 17 9 7 14 4 5 13 1 5 94 63 69 177 120 129 180 104 117 193 110 126 189 118 136 198 145 163 222 183 202 207 152 175 188 119 147 203 127 155 186 118 143 195 147 163 210 168 180 209 155 171 192 120 142 178 137 153 218 197 206 209 207 210 192 201 200 203 207 208 202 202 204 193 191 194 177 178 180 167 175 177 196 197 202 208 203 210 220 212 223 213 211 222 213 222 229 169 193 197 36 70 71 34 98 126 48 167 191 7 189 213 0 175 211 0 183 230 12 180 225 0 173 203 5 192 207 1 179 215 1 179 215 1 179 215 1 179 215 1 179 215 1 179 215 1 179 215 1 179 215 0 182 216 0 182 216 0 182 216 0 182 216 0 182 216 0 182 216 0 182 216 0 182 216 1 184 218 1 184 218 1 184 218 1 184 218 1 184 218 1 184 218 1 184 218 1 184 218 1 185 219 1 185 219 1 185 219 1 185 219 1 185 219 1 185 219 1 185 219 1 185 219 0 187 220 0 187 220 0 187 220 0 187 220 0 187 220 0 187 220 0 187 220 0 187 220 0 187 220 0 187 220 0 187 220 1 188 221 1 188 221 1 188 221 2 189 222 2 189 222 10 191 222 11 190 222 13 190 223 16 191 222 18 191 221 22 193 223 23 192 221 25 193 222 33 190 223 34 191 222 34 191 222 
37 192 222 39 193 221 40 194 222 42 193 220 43 194 221 47 192 223 47 192 223 49 192 224 49 192 224 52 192 225 54 193 226 55 194 227 55 194 227 55 194 225 56 193 225 57 194 226 59 194 226 59 194 226 61 194 227 61 194 227 63 193 227 66 195 227 66 195 227 66 195 227 66 195 227 67 196 228 67 196 228 68 197 229 68 197 229 71 196 226 71 196 226 71 196 226 72 197 227 72 197 227 72 197 227 73 198 228 73 198 228 76 195 227 76 195 227 76 195 227 77 196 228 77 196 228 78 197 229 78 197 229 78 197 229 77 196 226 77 196 226 75 196 225 75 196 227 73 196 229 71 196 228 71 195 229 71 195 229 70 195 225 70 195 225 70 195 225 70 195 225 70 195 225 70 195 225 70 195 225 70 195 225 69 196 229 69 196 229 69 196 229 70 197 230 70 197 230 70 197 230 71 198 231 71 198 231 72 195 226 72 195 226 72 195 226 73 196 227 73 196 227 73 196 227 74 197 228 74 197 228 74 198 226 74 198 226 74 198 226 74 198 226 74 198 226 74 198 226 74 198 226 74 198 226 78 197 227 78 197 227 78 197 227 78 197 227 
0 153 187 0 153 187 0 152 186 0 152 186 0 152 186 0 151 185 0 151 185 0 151 185 1 151 186 1 151 186 1 151 186 1 151 186 1 151 186 1 151 186 1 151 186 1 151 186 0 150 185 0 150 185 0 150 185 0 150 185 0 150 185 0 150 185 0 150 185 0 150 185 0 150 185 0 150 185 0 150 185 1 151 186 1 151 186 1 151 186 2 152 187 2 152 187 0 152 186 0 152 186 0 152 186 0 153 187 0 153 187 1 154 188 1 154 188 1 154 188 1 154 188 1 154 188 1 154 188 1 154 188 1 154 188 1 154 188 1 154 188 1 154 188 1 155 191 1 155 191 2 156 192 0 157 192 0 158 193 0 158 193 0 159 193 0 159 193 3 159 197 3 159 197 2 160 197 2 160 197 2 162 198 0 163 198 1 164 199 1 164 199 0 166 196 1 164 197 8 167 206 4 171 213 0 168 211 8 163 194 42 162 179 77 166 174 117 142 146 114 139 143 110 134 138 104 128 132 102 123 128 101 120 126 100 119 125 100 119 125 95 118 124 93 118 123 88 115 122 81 114 121 77 114 120 74 115 121 71 116 121 69 116 122 98 117 131 114 133 140 128 146 148 129 141 137 107 117 109 80 85 81 59 59 59 49 47 50 32 23 26 72 47 53 173 123 134 177 106 120 186 108 124 178 106 126 211 154 173 206 159 179 196 149 169 183 123 148 193 125 150 178 119 141 190 143 159 216 176 187 215 164 179 195 131 148 174 138 152 212 192 201 204 204 206 195 201 201 205 209 210 208 206 209 199 199 201 186 187 189 176 181 184 200 201 205 206 201 208 218 210 221 216 215 223 216 225 232 185 206 209 83 113 115 21 73 95 27 123 145 20 168 194 7 184 218 7 186 229 7 182 225 1 180 213 0 182 205 1 179 215 1 179 215 1 179 215 1 179 215 1 179 215 1 179 215 1 179 215 1 179 215 0 182 216 0 182 216 0 182 216 0 182 216 0 182 216 0 182 216 0 182 216 0 182 216 1 184 218 1 184 218 1 184 218 1 184 218 1 184 218 1 184 218 1 184 218 1 184 218 1 185 219 1 185 219 1 185 219 1 185 219 1 185 219 1 185 219 1 185 219 1 185 219 0 187 220 0 187 220 0 187 220 0 187 220 0 187 220 0 187 220 0 187 220 0 187 220 0 187 220 0 187 220 0 187 220 1 188 221 1 188 221 1 188 221 2 189 222 2 189 222 9 189 222 10 191 222 12 191 223 16 191 222 18 191 221 21 192 222 23 192 221 25 193 222 32 191 223 34 191 224 
34 191 222 37 192 222 39 192 223 39 193 221 42 193 222 42 193 220 47 192 223 47 192 223 48 193 224 49 192 224 52 192 225 53 193 226 55 194 227 55 194 227 55 194 225 56 193 225 57 194 226 59 194 226 59 194 226 61 194 227 61 194 227 63 193 227 66 195 227 66 195 227 66 195 227 66 195 227 67 196 228 67 196 228 68 197 229 68 197 229 71 196 226 71 196 226 71 196 226 72 197 227 72 197 227 72 197 227 73 198 228 73 198 228 76 195 227 76 195 227 76 195 227 77 196 228 77 196 228 78 197 229 78 197 229 78 197 229 77 196 226 77 196 226 75 196 225 75 196 227 73 196 229 71 196 228 71 195 229 71 195 229 70 195 225 70 195 225 70 195 225 70 195 225 70 195 225 70 195 225 70 195 225 70 195 225 69 196 229 69 196 229 69 196 229 70 197 230 70 197 230 70 197 230 71 198 231 71 198 231 72 195 226 72 195 226 72 195 226 73 196 227 73 196 227 73 196 227 74 197 228 74 197 228 74 198 226 74 198 226 74 198 226 74 198 226 74 198 226 74 198 226 74 198 226 74 198 226 78 197 227 78 197 227 78 197 227 78 197 227 
2 152 187 1 151 186 1 151 186 1 151 186 0 150 185 0 150 185 0 150 185 0 150 185 1 149 185 1 149 185 1 149 185 1 149 185 1 149 185 1 149 185 1 149 185 1 149 185 0 148 184 0 148 184 0 148 184 0 148 184 0 148 184 0 148 184 0 148 184 0 148 184 0 148 184 0 148 184 1 149 185 1 149 185 1 149 185 2 150 186 2 150 186 2 150 186 0 150 185 0 150 185 1 151 186 1 151 186 1 151 186 2 152 187 2 152 187 2 152 187 2 152 187 2 152 187 2 152 187 2 152 187 2 152 187 2 152 187 2 152 187 2 152 187 2 154 191 2 154 191 1 155 191 0 156 191 0 157 192 0 157 192 0 158 193 0 159 193 4 158 196 2 158 196 2 158 196 2 160 197 1 161 197 2 162 198 0 163 198 0 163 198 0 164 195 1 164 197 6 166 202 3 169 211 0 167 208 11 162 193 49 160 179 85 164 171 119 144 148 116 141 145 112 136 140 106 130 134 104 125 130 103 122 128 102 121 127 102 121 127 106 123 131 102 121 128 94 117 123 88 113 120 81 111 119 78 111 118 76 113 121 76 115 122 85 113 125 105 132 141 127 152 156 133 154 155 121 140 138 106 120 120 98 108 110 96 105 110 78 76 79 70 53 59 134 97 105 179 121 135 205 134 152 185 113 133 199 134 156 223 164 186 198 157 173 187 136 155 177 118 140 166 109 128 173 125 139 213 169 182 222 170 183 215 154 170 173 141 154 206 189 197 201 201 203 197 203 203 210 211 213 213 211 214 208 208 210 195 199 200 185 190 193 205 206 210 204 202 207 216 211 218 220 219 227 217 226 231 202 221 225 144 170 171 60 98 109 30 89 105 24 120 145 31 166 198 16 180 217 4 183 223 4 188 226 0 182 219 1 179 215 1 179 215 1 179 215 1 179 215 1 179 215 1 179 215 1 179 215 1 179 215 0 182 216 0 182 216 0 182 216 0 182 216 0 182 216 0 182 216 0 182 216 0 182 216 1 184 218 1 184 218 1 184 218 1 184 218 1 184 218 1 184 218 1 184 218 1 184 218 1 185 219 1 185 219 1 185 219 1 185 219 1 185 219 1 185 219 1 185 219 1 185 219 0 187 220 0 187 220 0 187 220 0 187 220 0 187 220 0 187 220 0 187 220 0 187 220 0 187 220 0 187 220 0 187 220 1 188 221 1 188 221 1 188 221 2 189 222 2 189 222 7 190 222 9 189 222 11 190 222 13 190 223 16 191 222 21 192 222 22 191 222 23 192 223 32 191 223 
32 191 223 34 191 224 35 192 223 37 192 222 39 192 223 40 194 222 40 194 222 45 193 223 45 193 223 48 193 224 49 192 224 50 193 225 53 193 226 54 194 227 55 194 227 55 194 225 56 193 225 57 194 226 59 194 226 59 194 226 61 194 227 61 194 227 63 193 227 66 195 227 66 195 227 66 195 227 66 195 227 67 196 228 67 196 228 68 197 229 68 197 229 71 196 226 71 196 226 71 196 226 72 197 227 72 197 227 72 197 227 73 198 228 73 198 228 76 195 227 76 195 227 76 195 227 77 196 228 77 196 228 78 197 229 78 197 229 78 197 229 77 196 226 77 196 226 75 196 225 75 196 227 73 196 229 71 196 228 71 195 229 71 195 229 70 195 225 70 195 225 70 195 225 70 195 225 70 195 225 70 195 225 70 195 225 70 195 225 69 196 229 69 196 229 69 196 229 70 197 230 70 197 230 70 197 230 71 198 231 71 198 231 72 195 226 72 195 226 72 195 226 73 196 227 73 196 227 73 196 227 74 197 228 74 197 228 74 198 226 74 198 226 74 198 226 74 198 226 74 198 226 74 198 226 74 198 226 74 198 226 78 197 227 78 197 227 78 197 227 78 197 227 
1 151 186 1 151 186 1 151 186 0 150 185 0 150 185 0 150 185 0 149 184 0 149 184 0 148 184 0 148 184 0 148 184 0 148 184 0 148 184 0 148 184 0 148 184 0 148 184 0 147 183 0 147 183 0 147 183 0 147 183 0 147 183 0 147 183 0 147 183 0 147 183 0 147 183 0 147 183 0 148 184 0 148 184 0 148 184 1 149 185 1 149 185 1 149 185 0 149 184 0 149 184 0 150 185 0 150 185 1 151 186 1 151 186 1 151 186 1 151 186 1 151 186 1 151 186 1 151 186 1 151 186 1 151 186 1 151 186 1 151 186 1 151 186 1 153 190 1 153 190 1 153 190 1 155 191 0 156 191 0 156 191 0 157 192 0 157 192 3 157 193 3 157 193 2 159 194 2 159 194 1 159 194 1 161 195 1 161 195 1 161 195 0 163 195 3 162 194 6 164 201 4 167 208 0 165 203 15 158 188 57 159 174 95 162 168 122 147 151 118 143 147 114 138 142 109 133 137 107 128 133 106 125 131 105 124 130 105 124 130 114 127 135 110 125 132 102 119 127 95 114 121 88 111 119 84 111 120 83 112 120 84 112 123 77 111 121 96 129 138 116 146 154 123 152 158 118 143 148 109 133 137 109 128 134 111 130 136 102 110 112 100 95 101 86 65 74 152 110 124 201 144 163 208 143 165 177 109 132 243 175 198 216 169 187 206 153 173 184 125 145 181 120 138 178 117 135 206 148 163 213 152 168 220 158 173 179 153 164 203 190 197 200 201 203 201 207 207 214 214 216 217 212 216 214 214 216 200 206 206 193 197 198 209 210 212 206 204 209 216 214 219 223 224 229 215 222 228 211 226 229 191 210 214 137 158 161 68 95 106 29 75 98 32 122 149 29 168 197 13 186 220 4 186 226 3 181 227 1 179 215 1 179 215 1 179 215 1 179 215 1 179 215 1 179 215 1 179 215 1 179 215 0 182 216 0 182 216 0 182 216 0 182 216 0 182 216 0 182 216 0 182 216 0 182 216 1 184 218 1 184 218 1 184 218 1 184 218 1 184 218 1 184 218 1 184 218 1 184 218 1 185 219 1 185 219 1 185 219 1 185 219 1 185 219 1 185 219 1 185 219 1 185 219 0 187 220 0 187 220 0 187 220 0 187 220 0 187 220 0 187 220 0 187 220 0 187 220 0 187 220 0 187 220 0 187 220 1 188 221 1 188 221 1 188 221 2 189 222 2 189 222 6 189 223 6 189 221 9 189 222 11 190 222 15 189 223 18 191 223 20 191 221 22 191 222 30 190 224 
32 190 225 32 191 223 34 191 224 35 192 223 38 193 223 39 192 223 40 194 222 45 193 223 45 193 223 46 194 224 48 193 224 50 193 225 51 194 226 54 194 227 54 194 227 55 194 225 56 193 225 57 194 226 59 194 226 59 194 226 61 194 227 61 194 227 63 193 227 66 195 227 66 195 227 66 195 227 66 195 227 67 196 228 67 196 228 68 197 229 68 197 229 71 196 226 71 196 226 71 196 226 72 197 227 72 197 227 72 197 227 73 198 228 73 198 228 76 195 227 76 195 227 76 195 227 77 196 228 77 196 228 78 197 229 78 197 229 78 197 229 77 196 226 77 196 226 75 196 225 75 196 227 73 196 229 71 196 228 71 195 229 71 195 229 71 196 226 71 196 226 71 196 226 71 196 226 71 196 226 71 196 226 71 196 226 71 196 226 69 196 229 69 196 229 69 196 229 70 197 230 70 197 230 70 197 230 71 198 231 71 198 231 72 195 226 72 195 226 72 195 226 73 196 227 73 196 227 73 196 227 74 197 228 74 197 228 74 198 226 74 198 226 74 198 226 74 198 226 74 198 226 74 198 226 74 198 226 74 198 226 78 197 227 78 197 227 78 197 227 78 197 227 
2 150 186 2 150 186 1 149 185 1 149 185 0 148 184 0 148 184 0 148 184 0 148 184 0 146 183 0 146 183 0 146 183 0 146 183 0 146 183 0 146 183 0 146 183 0 146 183 0 145 182 0 145 182 0 145 182 0 145 182 0 145 182 0 145 182 0 145 182 0 145 182 0 145 182 0 145 182 0 146 183 0 146 183 0 146 183 1 147 184 1 147 184 1 147 184 0 147 183 0 148 184 0 148 184 0 148 184 1 149 185 1 149 185 1 149 185 1 149 185 2 150 186 2 150 186 2 150 186 2 150 186 2 150 186 2 150 186 2 150 186 2 150 186 2 152 189 2 152 189 0 152 189 1 153 190 0 154 190 0 155 190 0 156 191 0 156 191 3 156 190 3 156 190 3 157 191 1 158 191 1 158 191 1 160 192 1 160 192 0 160 192 0 161 192 2 159 192 5 162 197 1 165 202 0 163 198 19 157 185 65 157 172 108 161 167 124 149 153 121 146 150 117 141 145 112 136 140 110 131 136 108 127 133 108 127 133 108 127 133 118 129 135 113 126 134 107 122 129 100 117 125 95 113 123 92 112 121 90 112 123 90 112 123 85 119 128 86 120 129 93 126 135 104 134 144 113 141 152 114 141 150 109 134 141 102 125 131 106 120 123 127 134 140 94 88 98 114 94 106 159 122 139 218 165 185 197 132 154 238 166 188 218 156 177 215 153 174 201 136 156 213 141 163 201 126 147 199 126 145 194 127 144 204 143 158 189 172 180 204 198 202 201 205 206 208 212 213 217 215 218 217 212 216 216 216 218 203 209 209 200 202 201 212 212 214 210 210 212 218 217 222 224 225 230 214 219 223 211 220 225 210 224 227 180 190 192 128 135 145 58 75 91 25 77 98 31 136 158 27 177 204 6 178 216 0 172 219 1 179 215 1 179 215 1 179 215 1 179 215 1 179 215 1 179 215 1 179 215 1 179 215 0 182 216 0 182 216 0 182 216 0 182 216 0 182 216 0 182 216 0 182 216 0 182 216 1 184 218 1 184 218 1 184 218 1 184 218 1 184 218 1 184 218 1 184 218 1 184 218 1 185 219 1 185 219 1 185 219 1 185 219 1 185 219 1 185 219 1 185 219 1 185 219 0 187 220 0 187 220 0 187 220 0 187 220 0 187 220 0 187 220 0 187 220 0 187 220 0 187 220 0 187 220 0 187 220 1 188 221 1 188 221 1 188 221 2 189 222 2 189 222 4 188 222 4 188 222 6 189 223 10 189 222 13 190 223 16 190 224 18 191 223 20 190 223 30 190 226 
30 190 224 31 191 225 33 192 224 34 191 222 35 192 223 38 193 223 38 193 223 44 193 223 44 193 223 46 194 224 46 194 224 49 194 225 51 194 226 52 195 227 52 195 227 55 194 225 56 193 225 57 194 226 59 194 226 59 194 226 61 194 227 61 194 227 63 193 227 66 195 227 66 195 227 66 195 227 66 195 227 67 196 228 67 196 228 68 197 229 68 197 229 71 196 226 71 196 226 71 196 226 72 197 227 72 197 227 72 197 227 73 198 228 73 198 228 76 195 227 76 195 227 76 195 227 77 196 228 77 196 228 78 197 229 78 197 229 78 197 229 77 196 226 77 196 226 75 196 225 75 196 227 73 196 229 71 196 228 71 195 229 71 195 229 71 196 226 71 196 226 71 196 226 71 196 226 71 196 226 71 196 226 71 196 226 71 196 226 69 196 229 69 196 229 69 196 229 70 197 230 70 197 230 70 197 230 71 198 231 71 198 231 72 195 226 72 195 226 72 195 226 73 196 227 73 196 227 73 196 227 74 197 228 74 197 228 74 198 226 74 198 226 74 198 226 74 198 226 74 198 226 74 198 226 74 198 226 74 198 226 78 197 227 78 197 227 78 197 227 78 197 227 
1 149 185 1 149 185 1 149 185 0 148 184 0 148 184 0 148 184 0 147 183 0 147 183 1 145 182 1 145 182 1 145 182 1 145 182 1 145 182 1 145 182 1 145 182 1 145 182 0 144 181 0 144 181 0 144 181 0 144 181 0 144 181 0 144 181 0 144 181 0 144 181 0 144 181 0 144 181 1 145 182 1 145 182 2 146 183 2 146 183 2 146 183 2 146 183 0 146 182 0 147 183 0 147 183 0 147 183 0 148 184 0 148 184 0 148 184 1 149 185 1 149 185 1 149 185 1 149 185 1 149 185 1 149 185 1 149 185 1 149 185 1 149 185 2 150 188 1 151 188 1 151 188 0 152 189 0 152 189 0 153 189 0 155 190 0 155 190 2 155 189 2 155 189 3 156 190 2 156 190 0 157 190 1 158 191 0 159 191 0 159 191 1 160 192 3 157 191 5 159 195 0 163 198 2 160 195 25 155 181 73 155 169 119 160 164 127 152 156 124 149 153 120 144 148 115 139 143 112 133 138 111 130 136 110 129 135 110 129 135 113 126 132 113 126 132 110 125 132 108 123 130 102 119 127 98 116 126 96 114 124 94 112 122 84 115 118 87 116 122 92 120 131 100 126 139 106 132 145 111 135 147 112 135 143 111 134 140 114 133 137 105 123 127 113 123 132 107 107 119 124 107 123 174 137 154 206 152 168 216 152 169 199 129 153 202 134 155 188 123 143 203 130 150 204 122 144 192 115 135 191 129 142 201 154 162 199 188 194 205 203 206 202 208 208 213 217 218 221 216 220 217 211 215 218 218 220 203 212 211 207 207 207 213 213 213 216 216 218 220 221 223 222 226 229 216 219 224 211 216 220 213 218 222 192 195 204 178 181 190 106 116 125 26 59 68 13 80 96 27 137 162 19 169 202 3 176 216 1 179 215 1 179 215 1 179 215 1 179 215 1 179 215 1 179 215 1 179 215 1 179 215 0 182 216 0 182 216 0 182 216 0 182 216 0 182 216 0 182 216 0 182 216 0 182 216 1 184 218 1 184 218 1 184 218 1 184 218 1 184 218 1 184 218 1 184 218 1 184 218 1 185 219 1 185 219 1 185 219 1 185 219 1 185 219 1 185 219 1 185 219 1 185 219 0 187 220 0 187 220 0 187 220 0 187 220 0 187 220 0 187 220 0 187 220 0 187 220 0 187 220 0 187 220 0 187 220 1 188 221 1 188 221 1 188 221 2 189 222 2 189 222 1 188 223 3 187 223 5 188 222 8 188 223 11 190 223 15 189 223 17 190 224 17 190 222 
27 190 225 28 191 226 30 190 224 31 191 225 33 192 224 35 192 223 35 192 223 38 193 224 43 194 223 44 193 223 45 194 224 46 194 224 47 195 225 50 195 226 52 195 227 52 195 227 55 194 225 56 193 225 57 194 226 59 194 226 59 194 226 61 194 227 61 194 227 63 193 227 66 195 227 66 195 227 66 195 227 66 195 227 67 196 228 67 196 228 68 197 229 68 197 229 71 196 226 71 196 226 71 196 226 72 197 227 72 197 227 72 197 227 73 198 228 73 198 228 76 195 227 76 195 227 76 195 227 77 196 228 77 196 228 78 197 229 78 197 229 78 197 229 77 196 226 77 196 226 75 196 225 75 196 227 73 196 229 71 196 228 71 195 229 71 195 229 71 196 226 71 196 226 71 196 226 71 196 226 71 196 226 71 196 226 71 196 226 71 196 226 69 196 229 69 196 229 69 196 229 70 197 230 70 197 230 70 197 230 71 198 231 71 198 231 72 195 226 72 195 226 72 195 226 73 196 227 73 196 227 73 196 227 74 197 228 74 197 228 74 198 226 74 198 226 74 198 226 74 198 226 74 198 226 74 198 226 74 198 226 74 198 226 78 197 227 78 197 227 78 197 227 78 197 227 
2 148 185 2 148 185 1 147 184 1 147 184 1 147 184 0 146 183 0 146 183 0 146 183 1 145 182 1 145 182 1 145 182 1 145 182 1 145 182 1 145 182 1 145 182 1 145 182 0 144 181 0 144 181 0 144 181 0 144 181 0 144 181 0 144 181 0 144 181 0 144 181 0 144 181 0 144 181 0 144 181 0 144 181 1 145 182 1 145 182 2 146 183 2 146 183 0 145 182 0 145 182 0 145 182 0 146 183 0 146 183 0 146 183 1 147 184 1 147 184 1 147 184 1 147 184 1 147 184 1 147 184 1 147 184 1 147 184 1 147 184 1 147 184 1 149 187 1 149 187 1 151 188 1 151 188 0 151 188 0 153 189 0 153 189 0 153 189 4 154 187 4 154 187 2 155 187 2 155 187 2 157 188 0 157 188 0 157 188 0 159 189 1 158 191 4 157 191 4 158 192 1 161 197 2 159 192 28 154 179 80 154 167 128 159 164 129 154 158 126 151 155 122 146 150 117 141 145 115 136 141 113 132 138 112 131 137 112 131 137 108 123 126 110 125 130 110 128 132 111 128 135 109 126 133 104 121 129 99 117 127 95 113 123 85 109 109 94 118 122 104 124 135 105 124 139 103 122 137 106 125 139 116 134 144 126 145 151 123 144 149 92 117 122 111 136 143 115 133 143 120 122 134 140 120 132 175 133 145 194 138 151 201 132 153 203 142 160 182 125 140 180 116 133 198 125 144 193 127 141 201 158 165 200 179 178 204 198 202 204 205 207 202 208 208 218 219 221 223 218 222 219 213 217 221 222 224 207 217 216 213 212 210 214 214 214 219 221 220 219 223 224 221 225 226 222 226 229 217 218 223 210 211 216 200 201 219 195 205 214 151 171 172 71 95 95 16 50 60 16 87 109 22 150 177 8 182 209 1 179 215 1 179 215 1 179 215 1 179 215 1 179 215 1 179 215 1 179 215 1 179 215 0 182 216 0 182 216 0 182 216 0 182 216 0 182 216 0 182 216 0 182 216 0 182 216 1 184 218 1 184 218 1 184 218 1 184 218 1 184 218 1 184 218 1 184 218 1 184 218 1 185 219 1 185 219 1 185 219 1 185 219 1 185 219 1 185 219 1 185 219 1 185 219 0 187 220 0 187 220 0 187 220 0 187 220 0 187 220 0 187 220 0 187 220 0 187 220 0 187 220 0 187 220 0 187 220 1 188 221 1 188 221 1 188 221 2 189 222 2 189 222 0 187 222 1 188 223 4 188 224 8 188 223 10 189 222 12 189 223 15 189 223 16 189 223 
27 189 227 27 190 225 28 191 226 31 191 225 33 191 226 33 192 224 35 192 223 35 192 223 43 194 223 43 194 223 45 194 224 45 194 224 47 195 225 50 195 226 51 196 227 51 196 227 55 194 225 56 193 225 57 194 226 59 194 226 59 194 226 61 194 227 61 194 227 63 193 227 66 195 227 66 195 227 66 195 227 66 195 227 67 196 228 67 196 228 68 197 229 68 197 229 71 196 226 71 196 226 71 196 226 72 197 227 72 197 227 72 197 227 73 198 228 73 198 228 76 195 227 76 195 227 76 195 227 77 196 228 77 196 228 78 197 229 78 197 229 78 197 229 77 196 226 77 196 226 75 196 225 75 196 227 73 196 229 71 196 228 71 195 229 71 195 229 72 197 227 72 197 227 72 197 227 72 197 227 72 197 227 72 197 227 72 197 227 72 197 227 69 196 229 69 196 229 69 196 229 70 197 230 70 197 230 70 197 230 71 198 231 71 198 231 72 195 226 72 195 226 72 195 226 73 196 227 73 196 227 73 196 227 74 197 228 74 197 228 74 198 226 74 198 226 74 198 226 74 198 226 74 198 226 74 198 226 74 198 226 74 198 226 78 197 227 78 197 227 78 197 227 78 197 227 
2 148 185 2 148 185 1 147 184 1 147 184 0 146 183 0 146 183 0 146 183 0 146 183 0 144 181 0 144 181 0 144 181 0 144 181 0 144 181 0 144 181 0 144 181 0 144 181 0 143 180 0 143 180 0 143 180 0 143 180 0 143 180 0 143 180 0 143 180 0 143 180 0 143 180 0 143 180 0 144 181 0 144 181 1 145 182 1 145 182 1 145 182 1 145 182 0 144 181 0 145 182 0 145 182 0 145 182 0 146 183 0 146 183 0 146 183 0 146 183 1 147 184 1 147 184 1 147 184 1 147 184 1 147 184 1 147 184 1 147 184 1 147 184 1 149 187 1 149 187 1 149 187 1 151 188 0 151 188 0 151 188 0 153 189 0 153 189 3 153 186 3 153 186 2 155 187 2 155 187 1 156 187 0 157 188 0 157 188 0 157 188 3 157 191 3 156 188 3 157 191 0 160 194 3 158 189 31 153 177 84 154 166 130 158 162 130 155 159 127 152 156 123 147 151 118 142 146 116 137 142 114 133 139 114 133 139 113 132 138 103 121 123 106 124 126 111 129 133 113 132 136 112 131 137 107 126 133 100 119 126 96 114 124 100 119 117 99 117 121 98 115 125 101 117 133 107 123 139 114 130 145 118 135 143 120 138 142 131 155 159 137 165 169 126 156 164 130 159 167 143 156 165 171 161 170 163 127 137 190 140 149 224 161 180 229 176 192 203 157 168 186 132 145 211 149 164 204 151 161 209 180 182 187 184 175 205 200 204 203 204 206 201 207 207 219 220 222 225 219 223 223 214 219 225 226 228 212 222 221 218 217 215 215 215 213 221 223 222 219 223 222 220 224 225 228 232 235 222 223 227 208 207 213 207 207 233 186 204 214 179 210 205 134 155 150 47 61 70 10 55 76 13 127 151 0 172 192 1 179 215 1 179 215 1 179 215 1 179 215 1 179 215 1 179 215 1 179 215 1 179 215 0 182 216 0 182 216 0 182 216 0 182 216 0 182 216 0 182 216 0 182 216 0 182 216 1 184 218 1 184 218 1 184 218 1 184 218 1 184 218 1 184 218 1 184 218 1 184 218 1 185 219 1 185 219 1 185 219 1 185 219 1 185 219 1 185 219 1 185 219 1 185 219 0 187 220 0 187 220 0 187 220 0 187 220 0 187 220 0 187 220 0 187 220 0 187 220 0 187 220 0 187 220 0 187 220 1 188 221 1 188 221 1 188 221 2 189 222 2 189 222 0 186 224 0 187 222 3 187 223 5 188 222 10 188 224 12 189 223 15 189 223 15 189 223 
26 190 227 27 189 227 28 191 226 31 191 227 31 191 225 33 192 224 35 192 225 35 192 223 43 194 223 43 194 223 44 195 224 45 194 224 47 195 225 48 196 226 51 196 227 51 196 227 55 194 225 56 193 225 57 194 226 59 194 226 59 194 226 61 194 227 61 194 227 63 193 227 66 195 227 66 195 227 66 195 227 66 195 227 67 196 228 67 196 228 68 197 229 68 197 229 71 196 226 71 196 226 71 196 226 72 197 227 72 197 227 72 197 227 73 198 228 73 198 228 76 195 227 76 195 227 76 195 227 77 196 228 77 196 228 78 197 229 78 197 229 78 197 229 77 196 226 77 196 226 75 196 225 75 196 227 73 196 229 71 196 228 71 195 229 71 195 229 72 197 227 72 197 227 72 197 227 72 197 227 72 197 227 72 197 227 72 197 227 72 197 227 69 196 229 69 196 229 69 196 229 70 197 230 70 197 230 70 197 230 71 198 231 71 198 231 72 195 226 72 195 226 72 195 226 73 196 227 73 196 227 73 196 227 74 197 228 74 197 228 74 198 226 74 198 226 74 198 226 74 198 226 74 198 226 74 198 226 74 198 226 74 198 226 78 197 227 78 197 227 78 197 227 78 197 227 
3 147 181 3 147 181 2 146 180 2 146 180 2 146 180 1 145 179 1 145 179 1 145 179 1 144 178 1 144 178 1 144 178 1 144 178 1 144 178 1 144 178 1 144 178 1 144 178 0 142 176 0 142 176 0 142 176 0 142 176 0 142 176 0 142 176 0 142 176 0 142 176 1 141 176 1 141 176 1 141 176 1 141 176 1 141 176 1 141 176 1 141 176 1 141 176 1 144 178 1 144 178 1 144 178 1 144 178 1 144 178 1 144 178 1 144 178 1 144 178 5 143 179 4 144 179 4 144 179 3 146 180 2 146 180 2 146 180 1 148 181 1 148 181 0 148 180 0 148 180 0 148 180 0 149 181 0 149 181 1 150 182 1 150 182 1 150 182 0 150 187 0 150 187 1 151 188 1 151 188 1 151 188 2 152 189 2 152 189 2 152 189 3 157 181 0 147 180 3 152 192 3 157 195 5 149 176 44 150 164 106 153 161 145 144 150 131 146 149 130 145 148 128 143 146 126 141 144 123 138 141 121 136 139 119 134 137 118 133 136 116 131 136 115 130 135 114 129 134 113 128 133 112 127 132 111 126 131 110 125 130 109 124 129 107 128 133 108 127 133 110 128 132 116 129 135 124 133 138 133 138 142 139 142 147 145 146 150 141 162 157 148 167 163 161 176 173 176 182 182 187 187 189 193 187 191 196 185 191 198 183 190 191 159 170 195 165 175 189 166 174 178 161 167 176 165 169 185 181 182 193 195 194 196 200 199 202 202 202 205 205 205 211 211 211 217 217 217 221 221 221 223 223 223 223 223 223 222 222 222 220 220 220 221 221 221 223 223 223 223 224 226 221 225 228 219 223 226 216 221 225 214 219 223 202 215 224 176 194 198 188 206 206 185 194 199 111 114 129 34 54 78 17 77 103 41 135 160 16 174 203 4 177 211 0 181 222 0 178 221 6 174 211 10 173 206 2 177 206 0 185 214 0 178 214 0 178 214 1 179 215 1 179 215 1 179 215 2 180 216 2 180 216 2 180 216 0 182 216 0 183 217 0 183 217 0 183 217 1 184 218 1 184 218 1 184 218 2 185 219 1 184 218 1 184 218 1 184 218 1 184 218 1 184 218 1 184 218 1 184 218 1 184 218 1 185 219 1 185 219 1 185 219 1 185 219 1 185 219 1 185 219 1 185 219 1 185 219 0 186 219 0 186 219 0 186 219 0 187 220 0 187 220 0 187 220 1 188 221 1 188 221 4 188 224 4 188 224 5 189 223 7 190 224 10 190 223 10 190 223 12 191 223 
12 191 223 20 189 222 20 189 222 22 189 223 26 189 222 29 189 221 32 191 223 33 190 221 36 191 222 43 194 223 43 194 223 43 194 223 44 193 223 46 194 224 46 194 224 49 194 225 49 194 225 53 192 223 54 191 223 55 192 224 58 193 225 58 193 225 60 193 226 61 194 227 63 193 227 63 193 225 64 194 226 65 194 226 66 195 227 68 195 228 71 195 229 71 195 229 72 196 230 77 196 226 77 196 226 78 197 227 78 197 227 78 197 227 79 198 228 79 198 228 79 198 228 81 196 225 81 196 225 81 196 225 81 196 225 81 196 225 81 196 225 81 196 225 81 196 225 79 197 223 79 197 225 77 197 224 76 197 226 76 197 226 73 196 227 73 196 227 72 197 229 71 196 226 71 196 226 71 196 226 71 196 226 71 196 226 71 196 226 71 196 226 71 196 226 76 195 225 76 195 225 76 195 225 77 196 226 77 196 226 77 196 226 78 197 227 78 197 227 77 196 228 77 196 228 78 197 229 78 197 229 78 197 229 79 198 230 79 198 230 79 198 230 77 198 227 77 198 227 77 198 227 77 198 227 77 198 227 77 198 227 77 198 227 77 198 227 78 197 227 78 197 227 78 197 227 78 197 227 
2 146 180 2 146 180 2 146 180 2 146 180 1 145 179 1 145 179 1 145 179 0 144 178 0 143 177 0 143 177 0 143 177 0 143 177 0 143 177 0 143 177 0 143 177 0 143 177 0 142 176 0 142 176 0 142 176 0 142 176 0 142 176 0 142 176 0 142 176 0 142 176 1 141 176 1 141 176 1 141 176 1 141 176 1 141 176 1 141 176 1 141 176 1 141 176 0 143 177 0 143 177 0 143 177 0 143 177 0 143 177 0 143 177 0 143 177 0 143 177 4 142 178 4 142 178 4 144 179 2 145 179 3 146 180 2 146 180 2 146 180 0 147 180 0 147 179 0 148 180 0 148 180 0 148 180 0 149 181 0 149 181 0 149 181 1 150 182 0 150 187 0 150 187 0 150 187 1 151 188 1 151 188 1 151 188 2 152 189 2 152 189 3 154 181 0 148 181 4 153 193 4 154 191 9 147 175 51 151 166 110 153 160 142 143 147 134 149 152 133 148 151 131 146 149 129 144 147 127 142 145 124 139 142 123 138 141 122 137 140 118 133 138 118 133 138 117 132 137 116 131 136 114 129 134 113 128 133 112 127 132 112 127 132 108 127 133 110 128 132 114 129 134 121 132 136 129 138 143 139 144 148 147 151 154 153 154 158 154 169 166 162 174 172 172 182 181 184 190 190 194 194 196 200 195 199 202 193 198 202 193 198 208 185 193 210 189 196 208 191 197 200 188 192 196 187 190 196 192 193 198 198 198 200 202 201 204 204 204 207 207 207 212 212 212 218 218 218 221 221 221 223 223 223 223 223 223 223 223 223 220 220 220 221 221 221 223 223 223 223 224 226 220 224 227 219 223 226 215 220 224 213 218 222 205 213 226 198 213 220 159 179 178 201 215 216 129 138 147 68 89 106 13 61 83 17 92 113 12 160 186 12 179 211 0 182 220 0 179 219 9 178 217 9 176 208 3 181 209 0 182 210 0 178 214 0 178 214 1 179 215 1 179 215 1 179 215 2 180 216 2 180 216 2 180 216 0 182 216 0 183 217 0 183 217 0 183 217 1 184 218 1 184 218 1 184 218 2 185 219 1 184 218 1 184 218 1 184 218 1 184 218 1 184 218 1 184 218 1 184 218 1 184 218 1 185 219 1 185 219 1 185 219 1 185 219 1 185 219 1 185 219 1 185 219 1 185 219 0 186 219 0 186 219 0 186 219 0 187 220 0 187 220 0 187 220 1 188 221 1 188 221 4 188 224 4 188 224 5 189 223 7 190 224 10 190 223 10 190 223 12 191 223 
12 191 223 20 189 222 20 189 222 22 189 223 26 189 222 30 190 222 32 191 223 34 191 222 36 191 222 43 194 223 43 194 223 44 193 223 45 194 224 46 194 224 48 193 224 49 194 225 49 194 225 53 192 223 54 191 223 55 192 224 58 193 225 59 194 226 60 193 226 61 194 227 63 193 227 64 194 226 64 194 226 66 195 227 66 195 227 68 195 228 71 195 229 71 195 229 72 196 230 77 196 226 77 196 226 78 197 227 78 197 227 78 197 227 79 198 228 79 198 228 79 198 228 81 196 225 81 196 225 81 196 225 81 196 225 81 196 225 81 196 225 81 196 225 81 196 225 79 197 223 79 197 225 78 198 225 77 196 226 76 197 226 74 197 228 73 196 227 73 196 229 71 196 226 71 196 226 71 196 226 71 196 226 71 196 226 71 196 226 71 196 226 71 196 226 76 195 225 76 195 225 77 196 226 77 196 226 77 196 226 78 197 227 78 197 227 78 197 227 77 196 228 77 196 228 78 197 229 78 197 229 78 197 229 79 198 230 79 198 230 79 198 230 77 198 227 77 198 227 77 198 227 77 198 227 77 198 227 77 198 227 77 198 227 77 198 227 79 197 227 79 197 227 79 197 227 79 197 227 
2 146 180 2 146 180 1 145 179 1 145 179 1 145 179 0 144 178 0 144 178 0 144 178 2 142 177 2 142 177 2 142 177 2 142 177 2 142 177 2 142 177 2 142 177 2 142 177 0 140 175 0 140 175 0 140 175 0 140 175 0 140 175 0 140 175 0 140 175 0 140 175 1 139 175 1 139 175 1 139 175 1 139 175 1 139 175 1 139 175 1 139 175 1 139 175 2 142 177 2 142 177 2 142 177 2 142 177 2 142 177 2 142 177 2 142 177 2 142 177 3 141 177 3 141 177 4 142 178 3 143 178 2 145 179 2 145 179 1 145 179 1 145 179 0 145 178 0 146 179 0 146 179 0 146 179 0 147 180 0 147 180 0 147 180 0 147 180 0 148 184 0 148 184 0 148 184 0 148 184 1 149 185 1 149 185 2 150 186 2 150 186 0 150 179 1 150 183 5 153 191 5 149 184 17 145 172 63 152 166 115 154 161 138 142 145 137 151 152 136 150 151 135 149 150 133 147 148 131 145 146 129 143 144 127 141 142 127 141 142 121 134 140 121 134 140 120 133 139 119 132 138 118 131 137 116 129 135 115 128 134 115 128 134 115 130 135 118 131 137 124 135 139 131 140 145 141 149 152 153 157 160 163 164 168 168 169 173 170 176 176 175 181 181 184 188 189 194 195 197 200 201 203 204 204 206 205 203 206 204 202 205 199 188 192 198 189 192 199 190 193 197 191 193 194 190 191 190 188 189 195 193 194 201 199 200 209 209 209 211 211 211 215 215 215 218 218 218 221 221 221 223 223 223 223 223 223 223 223 223 218 218 218 220 220 220 222 222 222 222 223 225 219 223 226 218 222 225 214 219 223 212 217 221 204 206 221 212 222 231 143 163 164 194 214 212 157 172 175 98 116 126 21 53 66 10 53 70 4 133 155 26 177 206 3 181 217 0 182 220 8 184 221 7 178 208 3 184 211 0 179 206 0 178 214 0 178 214 1 179 215 1 179 215 1 179 215 2 180 216 2 180 216 2 180 216 0 182 216 0 183 217 0 183 217 0 183 217 1 184 218 1 184 218 1 184 218 2 185 219 1 184 218 1 184 218 1 184 218 1 184 218 1 184 218 1 184 218 1 184 218 1 184 218 1 185 219 1 185 219 1 185 219 1 185 219 1 185 219 1 185 219 1 185 219 1 185 219 0 186 219 0 186 219 0 186 219 0 187 220 0 187 220 0 187 220 1 188 221 1 188 221 4 188 224 4 188 224 5 189 223 7 190 224 10 190 223 10 190 223 12 191 223 
12 191 223 20 189 222 21 190 223 23 190 224 27 190 223 30 190 222 32 191 223 34 191 222 36 191 222 43 194 223 44 193 223 45 194 224 46 194 224 46 194 224 49 194 225 50 193 225 50 193 225 53 192 223 55 192 224 55 192 224 58 193 225 59 194 226 61 194 227 61 194 227 64 194 228 64 194 226 64 194 226 66 195 227 67 196 228 68 195 228 71 195 229 72 196 230 72 196 230 77 196 226 77 196 226 78 197 227 78 197 227 78 197 227 79 198 228 79 198 228 79 198 228 82 197 226 82 197 226 82 197 226 82 197 226 82 197 226 82 197 226 82 197 226 82 197 226 81 196 223 79 197 225 79 197 225 78 197 227 76 197 226 76 197 228 74 197 228 73 196 229 71 196 226 71 196 226 71 196 226 71 196 226 71 196 226 71 196 226 71 196 226 71 196 226 76 195 225 77 196 226 77 196 226 77 196 226 78 197 227 78 197 227 78 197 227 78 197 227 77 196 228 77 196 228 78 197 229 78 197 229 78 197 229 79 198 230 79 198 230 79 198 230 79 198 228 79 198 228 79 198 228 79 198 228 79 198 228 79 198 228 79 198 228 79 198 228 80 198 228 80 198 228 80 198 228 80 198 228 
2 145 179 2 145 179 1 144 178 1 144 178 1 144 178 0 143 177 0 143 177 0 143 177 1 141 176 1 141 176 1 141 176 1 141 176 1 141 176 1 141 176 1 141 176 1 141 176 0 139 174 0 139 174 0 139 174 0 139 174 0 139 174 0 139 174 0 139 174 0 139 174 0 138 174 0 138 174 0 138 174 0 138 174 0 138 174 0 138 174 0 138 174 0 138 174 1 141 176 1 141 176 1 141 176 1 141 176 1 141 176 1 141 176 1 141 176 1 141 176 3 140 176 3 140 176 2 140 176 3 141 177 2 142 177 1 144 178 1 144 178 0 144 178 0 143 177 0 143 177 1 144 178 1 144 178 1 144 178 2 145 179 2 145 179 2 145 179 0 145 182 0 145 182 0 146 183 0 146 183 1 147 184 1 147 184 1 147 184 1 147 184 0 145 177 3 152 185 5 153 189 7 146 179 29 143 169 76 152 166 119 152 157 136 142 140 137 148 150 137 148 150 136 147 149 134 145 147 133 144 146 131 142 144 130 141 143 130 141 143 123 134 138 123 134 138 122 133 137 121 132 136 120 131 135 119 130 134 118 129 133 117 128 132 124 135 141 127 136 141 132 141 146 141 149 152 153 158 161 165 169 172 176 177 179 182 183 185 179 177 180 183 181 184 188 188 190 195 195 197 199 200 202 202 203 205 203 204 206 201 205 206 195 197 196 190 192 191 190 190 190 192 192 192 192 190 191 191 189 190 201 197 198 213 209 210 213 213 213 214 214 214 216 216 216 218 218 218 220 220 220 221 221 221 222 222 222 222 222 222 217 217 217 219 219 219 220 220 220 221 222 224 218 222 225 216 220 223 213 218 222 211 216 220 200 199 215 204 213 222 156 176 177 158 183 179 177 199 197 109 128 132 41 58 66 25 41 54 0 98 116 33 165 190 14 181 215 2 186 222 6 186 221 0 177 207 2 186 214 0 180 207 0 178 214 0 178 214 1 179 215 1 179 215 1 179 215 2 180 216 2 180 216 2 180 216 0 182 216 0 183 217 0 183 217 0 183 217 1 184 218 1 184 218 1 184 218 2 185 219 1 184 218 1 184 218 1 184 218 1 184 218 1 184 218 1 184 218 1 184 218 1 184 218 1 185 219 1 185 219 1 185 219 1 185 219 1 185 219 1 185 219 1 185 219 1 185 219 0 186 219 0 186 219 0 186 219 0 187 220 0 187 220 0 187 220 1 188 221 1 188 221 4 188 224 4 188 224 5 189 223 7 190 224 10 190 223 10 190 223 12 191 223 
12 191 223 21 190 223 21 190 223 23 190 224 27 190 223 30 190 222 33 192 224 34 191 222 37 192 223 45 194 224 45 194 224 46 194 224 46 194 224 49 194 225 50 193 225 51 194 226 51 194 226 54 193 224 55 192 224 56 193 225 59 194 226 59 194 226 61 194 227 62 195 228 64 194 228 64 194 226 65 195 227 66 195 227 67 196 228 69 196 229 72 196 230 72 196 230 73 197 231 77 196 226 77 196 226 78 197 227 78 197 227 78 197 227 79 198 228 79 198 228 79 198 228 82 197 226 82 197 226 82 197 226 82 197 226 82 197 226 82 197 226 82 197 226 82 197 226 82 197 224 82 197 226 79 197 225 79 197 227 78 197 227 76 197 228 76 197 228 76 196 230 72 197 227 72 197 227 72 197 227 72 197 227 72 197 227 72 197 227 72 197 227 72 197 227 77 196 226 77 196 226 77 196 226 78 197 227 78 197 227 78 197 227 79 198 228 79 198 228 77 196 228 77 196 228 78 197 229 78 197 229 78 197 229 79 198 230 79 198 230 79 198 230 79 198 228 79 198 228 79 198 228 79 198 228 79 198 228 79 198 228 79 198 228 79 198 228 82 197 226 82 197 226 82 197 226 82 197 226 
3 143 178 3 143 178 2 142 177 2 142 177 2 142 177 1 141 176 1 141 176 1 141 176 1 139 175 1 139 175 1 139 175 1 139 175 1 139 175 1 139 175 1 139 175 1 139 175 0 138 174 0 138 174 0 138 174 0 138 174 0 138 174 0 138 174 0 138 174 0 138 174 1 138 174 1 138 174 1 138 174 1 138 174 1 138 174 1 138 174 1 138 174 1 138 174 1 139 175 1 139 175 1 139 175 1 139 175 1 139 175 1 139 175 1 139 175 1 139 175 3 137 174 2 139 175 2 139 175 1 139 175 1 141 176 1 141 176 0 142 176 0 143 177 1 141 176 1 141 176 1 141 176 1 141 176 2 142 177 2 142 177 3 143 178 3 143 178 1 143 179 1 143 179 1 143 179 2 144 180 2 144 180 2 144 180 3 145 181 3 145 181 0 141 175 3 152 185 4 151 184 11 142 172 43 143 167 90 152 165 122 150 153 134 143 138 136 144 146 135 143 145 135 143 145 134 142 144 133 141 143 132 140 142 131 139 141 131 139 141 126 134 137 125 133 136 124 132 135 123 131 134 122 130 133 121 129 132 120 128 131 119 127 130 128 133 139 131 136 142 137 140 145 145 148 153 155 159 162 168 169 171 177 178 180 182 184 183 180 174 178 182 177 181 186 181 185 190 188 191 194 194 196 196 197 199 195 199 200 196 200 201 200 206 204 197 201 200 196 200 199 200 202 201 198 198 198 196 194 195 204 200 201 215 211 212 216 216 216 216 216 216 216 216 216 216 216 216 216 216 216 218 218 218 219 219 219 219 219 219 216 216 216 217 217 217 219 219 219 219 220 222 217 221 224 215 219 222 211 216 220 210 215 219 201 205 217 194 203 212 177 190 196 131 153 151 181 206 203 130 151 152 56 67 73 36 38 50 0 66 81 30 136 158 21 174 205 7 187 222 1 184 218 0 175 207 1 185 213 0 182 211 0 178 214 0 178 214 1 179 215 1 179 215 1 179 215 2 180 216 2 180 216 2 180 216 0 182 216 0 183 217 0 183 217 0 183 217 1 184 218 1 184 218 1 184 218 2 185 219 1 184 218 1 184 218 1 184 218 1 184 218 1 184 218 1 184 218 1 184 218 1 184 218 1 185 219 1 185 219 1 185 219 1 185 219 1 185 219 1 185 219 1 185 219 1 185 219 0 186 219 0 186 219 0 186 219 0 187 220 0 187 220 0 187 220 1 188 221 1 188 221 4 188 224 4 188 224 5 189 223 7 190 224 10 190 223 10 190 223 12 191 223 
12 191 223 21 190 223 22 191 224 23 190 224 28 191 224 31 191 223 33 192 224 35 192 223 37 192 223 46 194 224 46 194 224 47 195 225 49 194 225 50 193 225 51 194 226 53 193 226 53 193 226 54 193 224 56 193 225 56 193 225 59 194 226 60 195 227 62 195 228 62 195 228 65 195 229 65 195 227 65 195 227 67 196 228 68 197 229 69 196 229 72 196 230 73 197 231 73 197 231 77 196 226 77 196 226 78 197 227 78 197 227 78 197 227 79 198 228 79 198 228 79 198 228 83 198 227 83 198 227 83 198 227 83 198 227 83 198 227 83 198 227 83 198 227 83 198 227 83 197 224 83 196 226 82 197 226 80 198 228 79 197 227 78 197 229 77 196 228 76 196 230 72 197 227 72 197 227 72 197 227 72 197 227 72 197 227 72 197 227 72 197 227 72 197 227 77 196 226 77 196 226 78 197 227 78 197 227 79 198 228 79 198 228 79 198 228 79 198 228 77 196 228 77 196 228 78 197 229 78 197 229 78 197 229 79 198 230 79 198 230 79 198 230 81 199 229 81 199 229 81 199 229 81 199 229 81 199 229 81 199 229 81 199 229 81 199 229 83 198 225 83 198 225 83 198 225 83 198 225 
2 142 177 2 142 177 2 142 177 1 141 176 1 141 176 0 140 175 0 140 175 0 140 175 0 138 174 0 138 174 0 138 174 0 138 174 0 138 174 0 138 174 0 138 174 0 138 174 0 137 173 0 137 173 0 137 173 0 137 173 0 137 173 0 137 173 0 137 173 0 137 173 2 136 173 2 136 173 2 136 173 2 136 173 2 136 173 2 136 173 2 136 173 2 136 173 0 138 174 0 138 174 0 138 174 0 138 174 0 138 174 0 138 174 0 138 174 0 138 174 2 136 173 2 136 173 1 138 174 1 138 174 0 138 174 0 140 175 0 140 175 0 140 175 0 138 174 0 138 174 1 139 175 1 139 175 2 140 176 2 140 176 2 140 176 2 140 176 2 142 178 2 142 178 2 142 178 2 142 178 3 143 179 3 143 179 3 143 179 4 144 180 0 139 176 1 149 185 0 148 178 16 140 168 59 145 168 101 149 163 125 146 147 134 145 137 136 141 144 136 141 144 136 141 144 135 140 143 135 140 143 134 139 142 134 139 142 134 139 142 131 136 140 131 136 140 130 135 139 129 134 138 128 133 137 126 131 135 126 131 135 125 130 134 131 130 136 133 132 138 136 137 142 143 144 148 151 152 154 161 162 164 169 171 170 174 176 175 178 173 177 180 175 179 184 179 183 186 184 187 190 188 191 193 193 195 195 195 197 195 196 198 195 197 196 198 200 199 204 204 204 207 207 207 206 204 205 204 202 203 208 204 205 212 208 209 217 217 217 215 215 215 214 214 214 212 212 212 212 212 212 212 212 212 214 214 214 215 215 215 214 214 214 216 216 216 218 218 218 218 219 221 215 219 222 213 217 220 210 215 219 208 213 217 204 219 226 199 208 215 185 192 200 132 145 151 175 199 201 163 187 191 73 86 94 34 36 48 8 44 56 17 98 117 21 159 188 10 184 218 0 181 215 0 177 209 1 180 212 0 183 214 0 178 214 0 178 214 1 179 215 1 179 215 1 179 215 2 180 216 2 180 216 2 180 216 0 182 216 0 183 217 0 183 217 0 183 217 1 184 218 1 184 218 1 184 218 2 185 219 1 184 218 1 184 218 1 184 218 1 184 218 1 184 218 1 184 218 1 184 218 1 184 218 1 185 219 1 185 219 1 185 219 1 185 219 1 185 219 1 185 219 1 185 219 1 185 219 0 186 219 0 186 219 0 186 219 0 187 220 0 187 220 0 187 220 1 188 221 1 188 221 4 188 224 4 188 224 5 189 223 7 190 224 10 190 223 10 190 223 12 191 223 
12 191 223 22 191 224 22 191 224 24 191 225 28 191 224 31 191 223 33 192 224 35 192 223 38 193 224 47 195 225 47 195 225 49 194 225 50 193 225 51 194 226 53 193 226 53 193 226 55 194 227 55 194 225 56 193 225 57 194 226 60 195 227 60 195 227 62 195 228 63 196 229 65 195 229 65 195 227 66 196 228 67 196 228 68 197 229 70 197 230 73 197 231 73 197 231 74 198 232 77 196 226 77 196 226 78 197 227 78 197 227 78 197 227 79 198 228 79 198 228 79 198 228 83 198 227 83 198 227 83 198 227 83 198 227 83 198 227 83 198 227 83 198 227 83 198 227 84 198 225 84 197 227 83 196 226 82 197 228 80 198 228 79 196 229 78 197 229 78 197 231 73 198 228 73 198 228 73 198 228 73 198 228 73 198 228 73 198 228 73 198 228 73 198 228 78 197 227 78 197 227 78 197 227 79 198 228 79 198 228 79 198 228 80 199 229 80 199 229 77 196 228 77 196 228 78 197 229 78 197 229 78 197 229 79 198 230 79 198 230 79 198 230 83 198 229 83 198 229 83 198 229 83 198 229 83 198 229 83 198 229 83 198 229 83 198 229 84 198 225 84 198 225 84 198 225 84 198 225 
2 140 176 2 140 176 2 140 176 2 140 176 1 139 175 1 139 175 0 138 174 0 138 174 0 137 173 0 137 173 0 137 173 0 137 173 0 137 173 0 137 173 0 137 173 0 137 173 0 136 172 0 136 172 0 136 172 0 136 172 0 136 172 0 136 172 0 136 172 0 136 172 1 135 172 1 135 172 1 135 172 1 135 172 1 135 172 1 135 172 1 135 172 1 135 172 0 137 173 0 137 173 0 137 173 0 137 173 0 137 173 0 137 173 0 137 173 0 137 173 2 134 172 1 135 172 2 136 173 0 137 173 0 137 173 0 138 174 0 139 174 0 139 174 0 137 173 0 137 173 1 138 174 1 138 174 1 138 174 2 139 175 2 139 175 2 139 175 1 139 175 2 140 176 2 140 176 2 140 176 3 141 177 3 141 177 3 141 177 4 142 178 0 138 178 0 147 183 0 145 173 20 140 165 71 147 170 108 146 159 124 142 142 135 148 138 139 143 144 139 143 144 139 143 144 139 143 144 139 143 144 139 143 144 139 143 144 139 143 144 139 143 146 139 143 146 138 142 145 137 141 144 136 140 143 134 138 141 134 138 141 133 137 140 138 135 142 139 136 143 141 139 144 146 144 147 151 151 153 158 158 158 165 165 165 169 169 167 181 179 182 183 181 184 185 183 186 188 186 189 194 189 193 198 193 197 201 196 200 202 197 201 205 199 201 211 207 208 217 213 214 217 213 214 216 212 213 216 212 213 216 214 215 216 214 215 216 216 216 214 214 214 211 211 211 208 208 208 207 207 207 207 207 207 209 209 209 210 210 210 213 213 213 215 215 215 217 217 217 217 218 220 214 218 221 212 216 219 209 214 218 207 212 216 202 228 227 210 221 227 193 193 205 141 145 157 173 191 201 179 206 215 108 128 139 43 53 65 28 36 47 0 58 76 15 139 167 10 177 213 0 178 213 6 183 217 1 175 209 4 181 215 0 178 214 0 178 214 1 179 215 1 179 215 1 179 215 2 180 216 2 180 216 2 180 216 0 182 216 0 183 217 0 183 217 0 183 217 1 184 218 1 184 218 1 184 218 2 185 219 1 184 218 1 184 218 1 184 218 1 184 218 1 184 218 1 184 218 1 184 218 1 184 218 1 185 219 1 185 219 1 185 219 1 185 219 1 185 219 1 185 219 1 185 219 1 185 219 0 186 219 0 186 219 0 186 219 0 187 220 0 187 220 0 187 220 1 188 221 1 188 221 4 188 224 4 188 224 5 189 223 7 190 224 10 190 223 10 190 223 12 191 223 
12 191 223 22 191 224 22 191 224 24 191 225 28 191 224 32 192 224 34 193 225 36 193 224 38 193 224 49 194 225 49 194 225 49 194 225 51 194 226 53 193 226 53 193 226 55 194 227 55 194 227 55 194 225 57 194 226 57 194 226 60 195 227 61 196 228 62 195 228 63 196 229 65 195 229 66 196 228 66 196 228 68 197 229 68 197 229 70 197 230 73 197 231 74 198 232 74 198 232 77 196 226 77 196 226 78 197 227 78 197 227 78 197 227 79 198 228 79 198 228 79 198 228 83 198 227 83 198 227 83 198 227 83 198 227 83 198 227 83 198 227 83 198 227 83 198 227 86 197 225 86 197 227 84 197 227 83 196 228 82 197 228 80 197 230 79 196 229 78 197 231 73 198 228 73 198 228 73 198 228 73 198 228 73 198 228 73 198 228 73 198 228 73 198 228 78 197 227 78 197 227 79 198 228 79 198 228 79 198 228 80 199 229 80 199 229 80 199 229 77 196 228 77 196 228 78 197 229 78 197 229 78 197 229 79 198 230 79 198 230 79 198 230 83 198 229 83 198 229 83 198 229 83 198 229 83 198 229 83 198 229 83 198 229 83 198 229 84 198 224 84 198 224 84 198 224 84 198 224 
2 140 176 2 140 176 2 140 176 1 139 175 1 139 175 0 138 174 0 138 174 0 138 174 0 137 173 0 137 173 0 137 173 0 137 173 0 137 173 0 137 173 0 137 173 0 137 173 0 136 172 0 136 172 0 136 172 0 136 172 0 136 172 0 136 172 0 136 172 0 136 172 1 135 172 1 135 172 1 135 172 1 135 172 1 135 172 1 135 172 1 135 172 1 135 172 0 137 173 0 137 173 0 137 173 0 137 173 0 137 173 0 137 173 0 137 173 0 137 173 2 134 172 2 134 172 1 135 172 1 135 172 0 137 173 0 137 173 0 137 173 0 139 174 2 136 173 2 136 173 2 136 173 3 137 174 3 137 174 3 137 174 4 138 175 4 138 175 1 139 175 1 139 175 1 139 175 2 140 176 2 140 176 3 141 177 3 141 177 3 141 177 0 137 180 0 146 182 0 142 171 24 140 165 78 149 169 112 144 157 124 140 139 135 151 140 142 146 147 142 146 147 142 146 147 142 146 147 142 146 147 142 146 147 143 147 148 143 147 148 145 149 152 145 149 152 144 148 151 143 147 150 142 146 149 140 144 147 140 144 147 139 143 146 149 144 151 149 144 150 150 145 151 151 149 152 156 154 155 161 161 161 166 166 164 170 170 168 186 186 188 187 187 189 189 189 191 193 191 194 198 193 197 203 197 201 208 199 204 210 201 206 223 212 216 229 218 222 227 218 221 218 209 212 210 204 206 212 208 209 212 210 211 210 208 209 215 215 215 213 213 213 209 209 209 205 205 205 204 204 204 204 204 204 206 206 206 207 207 207 213 213 213 214 214 214 216 216 216 216 217 219 214 218 221 212 216 219 208 213 217 207 212 216 194 229 223 214 228 231 204 198 212 143 138 158 177 190 206 175 203 215 143 169 182 58 75 91 41 35 45 0 32 51 8 123 152 9 172 207 0 177 213 15 189 224 2 172 207 6 178 214 0 178 214 0 178 214 1 179 215 1 179 215 1 179 215 2 180 216 2 180 216 2 180 216 0 182 216 0 183 217 0 183 217 0 183 217 1 184 218 1 184 218 1 184 218 2 185 219 1 184 218 1 184 218 1 184 218 1 184 218 1 184 218 1 184 218 1 184 218 1 184 218 1 185 219 1 185 219 1 185 219 1 185 219 1 185 219 1 185 219 1 185 219 1 185 219 0 186 219 0 186 219 0 186 219 0 187 220 0 187 220 0 187 220 1 188 221 1 188 221 4 188 224 4 188 224 5 189 223 7 190 224 10 190 223 10 190 223 12 191 223 
12 191 223 22 191 224 23 192 225 24 191 225 29 192 225 32 192 224 34 193 225 36 193 224 38 193 224 49 194 225 49 194 225 51 194 226 51 194 226 53 193 226 55 194 227 55 194 227 55 194 227 55 194 225 57 194 226 57 194 226 60 195 227 61 196 228 63 196 229 63 196 229 66 196 230 66 196 228 66 196 228 68 197 229 69 198 230 70 197 230 73 197 231 74 198 232 74 198 232 77 196 226 77 196 226 78 197 227 78 197 227 78 197 227 79 198 228 79 198 228 79 198 228 83 198 227 83 198 227 83 198 227 83 198 227 83 198 227 83 198 227 83 198 227 83 198 227 86 197 225 86 197 227 84 197 227 84 197 229 82 197 228 80 197 230 79 196 229 79 196 231 73 198 228 73 198 228 73 198 228 73 198 228 73 198 228 73 198 228 73 198 228 73 198 228 78 197 227 78 197 227 79 198 228 79 198 228 80 199 229 80 199 229 80 199 229 80 199 229 77 196 228 77 196 228 78 197 229 78 197 229 78 197 229 79 198 230 79 198 230 79 198 230 83 198 229 83 198 229 83 198 229 83 198 229 83 198 229 83 198 229 83 198 229 83 198 229 86 197 224 86 197 224 86 197 224 86 197 224 
0 139 172 0 139 172 0 139 172 0 138 171 0 137 171 0 136 170 1 135 170 1 135 170 3 136 169 3 136 169 3 136 169 2 135 168 2 135 168 1 134 167 1 134 167 1 134 167 1 134 167 1 134 167 1 134 167 1 134 167 1 134 167 1 134 167 1 134 167 1 134 167 1 134 167 1 134 167 1 134 167 1 134 167 1 134 167 1 134 167 1 134 167 1 134 167 1 134 169 1 134 169 1 134 169 1 134 169 1 134 169 1 134 169 1 134 169 1 134 169 0 134 169 0 134 169 0 134 169 0 134 169 0 134 169 0 134 169 0 134 169 0 134 169 1 135 170 1 135 170 1 135 170 1 135 170 1 135 170 1 135 170 1 135 170 1 135 170 0 137 171 0 137 171 0 137 171 0 137 171 0 137 171 0 137 171 0 137 171 0 137 171 9 135 175 1 137 175 0 135 171 16 127 155 84 153 169 112 147 151 124 144 143 126 146 144 138 149 153 140 151 155 143 153 155 144 149 152 141 145 148 141 142 144 144 144 146 147 145 146 145 146 151 151 152 157 153 152 158 148 145 152 145 142 149 151 146 153 155 150 157 157 150 158 153 149 150 159 155 156 157 153 154 155 151 152 162 158 159 168 164 165 176 172 173 189 185 186 190 184 186 200 194 196 208 202 204 208 202 204 210 204 206 215 209 211 218 212 214 217 211 213 216 212 213 218 214 215 220 216 217 221 217 218 219 215 216 216 212 213 213 209 210 210 206 207 206 207 212 205 206 211 203 204 209 202 203 208 203 204 209 205 206 211 208 209 214 210 211 216 200 203 208 202 205 210 207 210 215 211 214 219 214 217 222 215 218 223 215 218 223 215 218 223 210 213 218 207 214 220 194 205 209 174 189 194 173 191 195 182 197 204 144 157 165 82 92 102 51 43 54 24 44 51 8 76 85 41 160 180 5 163 198 0 169 211 0 182 221 0 177 208 2 178 215 2 178 215 2 178 215 2 178 215 2 178 215 2 178 215 2 178 215 2 178 215 0 181 215 0 181 215 0 182 216 0 182 216 0 183 217 0 183 217 0 183 217 0 183 217 1 184 218 1 184 218 1 184 218 1 184 218 1 184 218 1 184 218 1 184 218 1 184 218 0 184 218 0 184 218 0 184 218 0 184 218 1 185 219 1 185 219 2 186 220 2 186 220 0 186 219 0 186 219 0 186 219 0 187 220 0 187 220 0 187 220 1 188 221 1 188 221 0 189 221 2 189 222 4 189 220 9 189 222 12 189 222 16 189 221 20 189 222 
20 189 222 28 188 222 28 188 222 29 189 221 30 189 221 32 189 220 33 190 221 36 191 221 36 191 221 43 193 226 44 193 225 46 193 226 48 193 224 50 193 225 54 193 224 56 193 225 56 194 223 60 193 224 61 194 225 63 193 225 64 194 226 66 195 227 67 196 228 68 195 228 69 196 229 71 196 226 71 196 226 72 197 227 74 197 228 76 197 228 77 198 229 79 198 230 79 198 230 78 198 225 79 197 225 80 198 226 82 197 226 82 197 226 84 197 227 84 197 227 86 197 227 87 196 225 87 196 225 87 196 225 87 196 225 87 196 225 87 196 225 87 196 225 87 196 225 88 198 225 88 198 225 87 198 226 86 197 225 84 197 227 83 198 229 82 197 228 82 197 228 78 196 226 78 196 226 78 196 226 78 196 226 78 196 226 78 196 226 78 196 226 78 196 226 78 199 228 78 199 228 79 198 228 79 198 228 80 198 228 82 197 228 82 197 228 82 197 228 83 198 227 83 198 227 83 198 227 83 198 227 83 198 227 83 198 227 83 198 227 83 198 227 85 199 226 85 199 226 85 199 226 85 199 226 85 199 226 85 199 226 85 199 226 85 199 226 91 199 228 91 199 228 91 199 228 92 200 229 
0 139 172 0 139 172 0 138 171 0 138 171 0 137 171 1 135 170 1 135 170 1 135 170 3 136 169 2 135 168 2 135 168 2 135 168 1 134 167 1 134 167 1 134 167 1 134 167 0 133 166 0 133 166 0 133 166 0 133 166 0 133 166 0 133 166 0 133 166 0 133 166 0 133 166 0 133 166 0 133 166 0 133 166 0 133 166 0 133 166 0 133 166 0 133 166 0 133 168 0 133 168 0 133 168 0 133 168 0 133 168 0 133 168 0 133 168 0 133 168 0 133 168 0 133 168 0 133 168 0 133 168 0 133 168 0 133 168 0 133 168 0 133 168 1 134 169 1 134 169 1 134 169 1 134 169 1 134 169 1 134 169 1 134 169 1 134 169 1 135 170 1 135 170 1 135 170 1 135 170 1 135 170 1 135 170 1 135 170 1 135 170 8 134 172 0 136 174 0 134 170 16 127 154 83 152 168 111 146 152 123 143 144 125 145 144 131 145 148 136 147 151 140 150 152 141 149 152 141 146 149 144 145 147 147 147 149 151 151 153 148 149 153 153 154 158 154 155 159 149 148 153 147 145 150 152 150 155 158 153 159 159 154 160 161 159 160 167 165 166 165 163 164 164 162 163 170 168 169 176 174 175 183 181 182 195 193 194 198 192 194 207 201 203 214 208 210 213 207 209 212 206 208 215 209 211 217 211 213 216 210 212 213 211 212 215 213 214 217 215 216 218 216 217 217 215 216 215 213 214 212 210 211 210 208 209 207 208 213 207 208 213 206 207 212 205 206 211 204 205 210 202 203 208 201 202 207 200 201 206 197 200 205 200 203 208 205 208 213 209 212 217 213 216 221 215 218 223 215 218 223 215 218 223 206 209 214 203 210 216 201 212 216 192 207 212 187 205 209 184 199 206 152 165 173 108 118 128 55 60 66 23 42 49 3 57 69 27 133 155 12 171 203 0 183 221 3 187 225 0 169 204 2 178 215 2 178 215 2 178 215 2 178 215 2 178 215 2 178 215 2 178 215 2 178 215 0 181 215 0 181 215 0 182 216 0 182 216 0 183 217 0 183 217 0 183 217 0 183 217 1 184 218 1 184 218 1 184 218 1 184 218 1 184 218 1 184 218 1 184 218 1 184 218 0 184 218 0 184 218 0 184 218 0 184 218 1 185 219 1 185 219 2 186 220 2 186 220 0 186 219 0 186 219 0 186 219 0 187 220 0 187 220 0 187 220 1 188 221 1 188 221 0 189 221 2 189 222 6 189 221 9 189 222 14 188 222 16 189 221 
20 189 222 21 188 222 28 188 222 28 188 222 30 189 221 31 190 222 33 190 221 35 190 221 36 191 221 36 191 221 44 193 226 44 193 225 46 193 226 49 194 225 52 192 225 54 193 224 56 193 225 56 194 223 60 193 224 61 194 225 63 193 225 64 194 226 66 195 227 67 196 228 68 195 228 69 196 229 71 196 226 71 196 226 72 197 227 74 197 228 76 197 228 77 198 229 79 198 230 79 198 230 78 198 225 79 197 225 80 198 226 82 197 226 83 198 227 84 197 227 84 197 227 86 197 227 87 196 225 87 196 225 87 196 225 87 196 225 87 196 225 87 196 225 87 196 225 87 196 225 89 199 226 88 198 225 87 198 226 87 198 226 84 197 227 83 198 229 83 198 229 82 197 228 78 196 226 78 196 226 78 196 226 78 196 226 78 196 226 78 196 226 78 196 226 78 196 226 78 199 228 78 199 228 79 198 228 79 198 228 80 198 228 82 197 228 82 197 228 82 197 228 83 198 227 83 198 227 83 198 227 83 198 227 83 198 227 83 198 227 83 198 227 83 198 227 86 200 227 86 200 227 86 200 227 86 200 227 86 200 227 86 200 227 86 200 227 86 200 227 91 199 228 91 199 228 91 199 228 92 200 229 
0 138 171 0 138 171 0 138 171 0 137 171 0 136 170 1 135 170 2 135 170 1 134 169 4 134 168 4 134 168 3 133 167 3 133 167 3 133 167 2 132 166 2 132 166 2 132 166 2 132 166 2 132 166 2 132 166 2 132 166 2 132 166 2 132 166 2 132 166 2 132 166 1 131 165 1 131 165 1 131 165 1 131 165 1 131 165 1 131 165 1 131 165 1 131 165 1 131 167 1 131 167 1 131 167 1 131 167 1 131 167 1 131 167 1 131 167 1 131 167 1 131 167 1 131 167 1 131 167 1 131 167 1 131 167 1 131 167 1 131 167 1 131 167 2 132 168 2 132 168 2 132 168 2 132 168 2 132 168 2 132 168 2 132 168 2 132 168 1 134 169 1 134 169 1 134 169 1 134 169 1 134 169 1 134 169 1 134 169 1 134 169 9 133 169 1 135 172 0 131 166 14 125 152 82 151 167 110 145 151 121 142 143 123 144 145 123 138 143 128 142 145 135 146 150 138 148 150 140 148 150 145 149 152 152 153 155 156 157 159 150 154 155 155 159 160 155 159 160 150 151 153 149 149 151 154 154 156 160 158 161 161 159 162 168 166 167 174 172 173 173 171 172 172 170 171 178 176 177 183 181 182 189 187 188 200 198 199 206 202 203 214 210 211 220 216 217 217 213 214 215 211 212 217 213 214 217 213 214 215 211 212 211 209 210 213 211 212 214 212 213 215 213 214 216 214 215 215 213 214 213 211 212 212 210 211 205 208 213 206 209 214 206 209 214 205 208 213 202 205 210 197 200 205 192 195 200 188 191 196 193 196 201 197 200 205 202 205 210 207 210 215 212 215 220 214 217 222 215 218 223 215 218 223 213 216 221 201 208 214 199 210 214 200 215 220 192 210 214 174 189 196 138 151 159 100 110 120 49 70 71 25 40 47 13 42 60 15 103 127 16 175 204 0 190 222 3 190 225 8 167 206 2 178 215 2 178 215 2 178 215 2 178 215 2 178 215 2 178 215 2 178 215 2 178 215 0 181 215 0 181 215 0 182 216 0 182 216 0 183 217 0 183 217 0 183 217 0 183 217 1 184 218 1 184 218 1 184 218 1 184 218 1 184 218 1 184 218 1 184 218 1 184 218 0 184 218 0 184 218 0 184 218 0 184 218 1 185 219 1 185 219 2 186 220 2 186 220 0 186 219 0 186 219 0 186 219 0 187 220 0 187 220 0 187 220 1 188 221 1 188 221 2 189 222 4 188 222 6 189 221 10 189 222 14 188 222 18 188 221 
20 189 222 22 189 223 29 189 223 30 188 223 31 190 222 32 189 222 33 190 221 36 191 222 38 191 222 38 191 222 44 193 226 46 193 226 48 192 226 50 193 225 53 193 226 54 193 224 56 193 225 58 193 223 60 193 224 61 194 225 63 193 225 64 194 226 66 195 227 67 196 228 68 195 228 69 196 229 71 196 226 71 196 226 72 197 227 74 197 228 76 197 228 77 198 229 79 198 230 79 198 230 79 199 226 80 198 226 80 198 226 82 197 226 83 198 227 84 197 227 85 198 228 87 198 228 88 197 226 88 197 226 88 197 226 88 197 226 88 197 226 88 197 226 88 197 226 88 197 226 89 199 226 89 199 226 87 198 226 87 198 226 85 198 228 83 198 229 83 198 229 83 198 229 78 196 226 78 196 226 78 196 226 78 196 226 78 196 226 78 196 226 78 196 226 78 196 226 78 199 228 78 199 228 79 198 228 79 198 228 80 198 228 82 197 228 82 197 228 82 197 228 83 198 227 83 198 227 83 198 227 83 198 227 83 198 227 83 198 227 83 198 227 83 198 227 86 200 227 86 200 227 86 200 227 86 200 227 86 200 227 86 200 227 86 200 227 86 200 227 91 199 228 91 199 228 91 199 228 92 200 229 
0 138 171 0 138 171 0 137 171 0 136 170 1 135 170 1 134 169 1 134 169 1 134 169 3 133 167 3 133 167 3 133 167 2 132 166 2 132 166 1 131 165 1 131 165 1 131 165 1 131 165 1 131 165 1 131 165 1 131 165 1 131 165 1 131 165 1 131 165 1 131 165 0 130 164 0 130 164 0 130 164 0 130 164 0 130 164 0 130 164 0 130 164 0 130 164 0 130 164 0 130 164 0 130 164 0 130 164 0 130 164 0 130 164 0 130 164 0 130 164 1 129 164 1 129 164 1 129 164 1 129 164 1 129 164 1 129 164 1 129 164 1 129 164 1 129 164 1 129 164 1 129 164 1 129 164 1 129 164 1 129 164 1 129 164 1 129 164 0 130 164 0 130 164 0 130 164 0 130 164 0 130 164 0 130 164 0 130 164 0 130 164 8 131 165 0 133 168 0 131 163 13 124 151 78 150 165 106 143 151 117 141 143 119 143 145 115 133 137 120 138 142 129 144 147 136 147 151 139 149 151 145 153 155 153 158 161 159 163 166 152 161 158 158 164 162 157 163 161 150 154 153 150 152 151 155 157 156 162 162 162 164 164 164 167 167 169 174 174 176 173 173 175 172 172 174 178 178 180 181 181 183 186 186 188 197 197 199 209 205 206 217 213 214 222 218 219 220 216 217 218 214 215 220 216 217 221 217 218 219 215 216 208 208 210 209 209 211 210 210 212 210 210 212 211 211 213 211 211 213 210 210 212 210 210 212 203 206 211 203 206 211 202 205 210 201 204 209 198 201 206 194 197 202 190 193 198 188 191 196 192 195 200 195 198 203 201 204 209 206 209 214 211 214 219 213 216 221 215 218 223 215 218 223 221 224 229 202 209 215 195 206 210 197 212 217 193 211 215 174 189 196 126 139 147 77 87 97 31 66 62 29 39 48 35 43 64 14 81 107 19 171 195 0 184 210 0 187 220 22 174 215 2 178 215 2 178 215 2 178 215 2 178 215 2 178 215 2 178 215 2 178 215 2 178 215 0 181 215 0 181 215 0 182 216 0 182 216 0 183 217 0 183 217 0 183 217 0 183 217 1 184 218 1 184 218 1 184 218 1 184 218 1 184 218 1 184 218 1 184 218 1 184 218 0 184 218 0 184 218 0 184 218 0 184 218 1 185 219 1 185 219 2 186 220 2 186 220 0 186 219 0 186 219 0 186 219 0 187 220 0 187 220 0 187 220 1 188 221 1 188 221 2 189 222 4 188 222 8 188 221 12 189 223 16 189 223 20 189 222 22 189 223 
24 188 223 31 189 224 31 189 224 33 190 223 33 190 223 36 191 222 38 191 223 39 192 223 39 192 223 46 193 227 46 193 226 49 193 227 50 193 225 54 193 226 56 193 225 59 194 226 60 193 224 60 193 224 61 194 225 63 193 225 64 194 226 66 195 227 67 196 228 68 195 228 69 196 229 71 196 226 71 196 226 72 197 227 74 197 228 76 197 228 77 198 229 79 198 230 79 198 230 79 199 226 80 198 226 81 199 227 83 198 227 83 198 227 85 198 228 85 198 228 87 198 228 88 197 226 88 197 226 88 197 226 88 197 226 88 197 226 88 197 226 88 197 226 88 197 226 89 199 226 89 199 226 88 199 227 87 198 226 85 198 228 84 199 230 83 198 229 83 198 229 79 197 227 79 197 227 79 197 227 79 197 227 79 197 227 79 197 227 79 197 227 79 197 227 78 199 228 78 199 228 79 198 228 79 198 228 80 198 228 82 197 228 82 197 228 82 197 228 83 198 227 83 198 227 83 198 227 83 198 227 83 198 227 83 198 227 83 198 227 83 198 227 86 200 227 86 200 227 86 200 227 86 200 227 86 200 227 86 200 227 86 200 227 86 200 227 91 199 228 91 199 228 91 199 228 92 200 229 
0 137 171 0 136 170 0 136 170 1 135 170 1 134 169 1 134 169 3 133 169 2 132 168 3 131 166 3 131 166 3 131 166 2 130 165 2 130 165 1 129 164 1 129 164 1 129 164 1 129 164 1 129 164 1 129 164 1 129 164 1 129 164 1 129 164 1 129 164 1 129 164 0 128 163 0 128 163 0 128 163 0 128 163 0 128 163 0 128 163 0 128 163 0 128 163 0 129 161 0 129 161 0 129 161 0 129 161 0 129 161 0 129 161 0 129 161 0 129 161 1 128 161 1 128 161 1 128 161 1 128 161 1 128 161 1 128 161 1 128 161 1 128 161 0 127 160 0 127 160 0 127 160 0 127 160 0 127 160 0 127 160 0 127 160 0 127 160 0 128 160 0 128 160 0 128 160 0 128 160 0 128 160 0 128 160 0 128 160 0 128 160 9 128 162 0 130 164 0 128 161 12 122 149 76 148 163 103 141 150 114 139 143 116 141 145 112 131 137 118 137 143 125 143 147 132 147 150 138 149 153 144 154 156 151 159 162 159 164 167 153 163 162 157 167 166 155 164 163 147 156 155 147 153 153 154 158 159 161 165 166 166 167 169 167 166 171 175 174 179 175 174 179 174 173 178 179 178 183 181 180 185 184 183 188 194 193 198 203 201 202 212 210 211 218 216 217 217 215 216 216 214 215 219 217 218 221 219 220 219 217 218 206 205 210 206 205 210 205 204 209 204 203 208 204 203 208 204 203 208 205 204 209 205 204 209 197 202 206 196 201 205 194 199 203 192 197 201 191 196 200 192 197 201 193 198 202 194 199 203 194 197 202 197 200 205 202 205 210 208 211 216 212 215 220 214 217 222 214 217 222 214 217 222 215 218 223 206 213 219 202 213 217 198 213 218 197 215 219 188 203 210 140 153 161 84 94 104 22 61 56 29 38 45 44 45 65 14 68 92 23 162 185 0 177 203 0 184 215 19 175 215 2 178 215 2 178 215 2 178 215 2 178 215 2 178 215 2 178 215 2 178 215 2 178 215 0 181 215 0 181 215 0 182 216 0 182 216 0 183 217 0 183 217 0 183 217 0 183 217 1 184 218 1 184 218 1 184 218 1 184 218 1 184 218 1 184 218 1 184 218 1 184 218 0 184 218 0 184 218 0 184 218 0 184 218 1 185 219 1 185 219 2 186 220 2 186 220 0 186 219 0 186 219 0 186 219 0 187 220 0 187 220 0 187 220 1 188 221 1 188 221 5 189 223 6 189 223 9 189 222 12 189 223 16 189 223 20 189 222 24 188 223 
26 189 224 33 190 225 33 190 225 34 191 224 36 190 224 38 191 223 39 192 224 41 192 223 42 193 224 46 193 227 48 192 226 50 193 227 53 193 226 56 193 227 58 193 225 60 193 226 60 193 224 60 193 224 61 194 225 63 193 225 64 194 226 66 195 227 67 196 228 68 195 228 69 196 229 71 196 226 71 196 226 72 197 227 74 197 228 76 197 228 77 198 229 79 198 230 79 198 230 80 200 227 81 199 227 81 199 227 83 198 227 84 199 228 85 198 228 86 199 229 88 199 229 89 198 227 89 198 227 89 198 227 89 198 227 89 198 227 89 198 227 89 198 227 89 198 227 90 200 227 90 200 227 88 199 227 88 199 227 86 199 229 84 199 230 84 199 230 84 199 230 79 197 227 79 197 227 79 197 227 79 197 227 79 197 227 79 197 227 79 197 227 79 197 227 78 199 228 78 199 228 79 198 228 79 198 228 80 198 228 82 197 228 82 197 228 82 197 228 83 198 227 83 198 227 83 198 227 83 198 227 83 198 227 83 198 227 83 198 227 83 198 227 87 201 228 87 201 228 87 201 228 87 201 228 87 201 228 87 201 228 87 201 228 87 201 228 91 199 228 91 199 228 91 199 228 92 200 229 
0 136 170 0 136 170 1 135 170 1 134 169 1 134 169 2 132 168 2 132 168 3 131 168 2 130 165 2 130 165 2 130 165 1 129 164 1 129 164 1 129 164 0 128 163 0 128 163 0 128 163 0 128 163 0 128 163 0 128 163 0 128 163 0 128 163 0 128 163 0 128 163 0 126 161 0 126 161 0 126 161 0 126 161 0 126 161 0 126 161 0 126 161 0 126 161 0 127 159 0 127 159 0 127 159 0 127 159 0 127 159 0 127 159 0 127 159 0 127 159 2 125 159 2 125 159 2 125 159 2 125 159 2 125 159 2 125 159 2 125 159 2 125 159 2 125 159 2 125 159 2 125 159 2 125 159 2 125 159 2 125 159 2 125 159 2 125 159 0 125 158 0 125 158 0 125 158 0 125 158 0 125 158 0 125 158 0 125 158 0 125 158 8 125 158 0 128 160 0 125 157 10 120 147 74 145 163 101 139 148 110 138 142 111 140 144 112 136 140 119 140 145 125 144 150 130 148 152 134 149 152 141 152 156 148 158 160 153 163 165 153 164 166 156 167 169 154 164 166 145 155 157 143 151 154 152 157 161 161 166 170 164 169 173 170 171 175 178 179 183 179 180 184 178 179 183 183 184 188 184 185 189 186 187 191 195 196 200 198 198 198 207 207 207 213 213 213 212 212 212 211 211 211 214 214 214 216 216 216 215 215 215 204 205 209 202 203 207 199 200 204 197 198 202 195 196 200 195 196 200 195 196 200 196 197 201 191 196 200 189 194 198 187 192 196 187 192 196 188 193 197 191 196 200 195 200 204 198 203 207 200 203 208 203 206 211 207 210 215 211 214 219 213 216 221 214 217 222 214 217 222 214 217 222 205 208 213 210 217 223 212 223 227 201 216 221 194 212 216 189 204 211 150 163 171 96 106 116 35 65 63 28 37 42 38 41 56 10 56 79 27 147 172 4 175 203 0 180 213 4 172 208 2 178 215 2 178 215 2 178 215 2 178 215 2 178 215 2 178 215 2 178 215 2 178 215 0 181 215 0 181 215 0 182 216 0 182 216 0 183 217 0 183 217 0 183 217 0 183 217 1 184 218 1 184 218 1 184 218 1 184 218 1 184 218 1 184 218 1 184 218 1 184 218 0 184 218 0 184 218 0 184 218 0 184 218 1 185 219 1 185 219 2 186 220 2 186 220 0 186 219 0 186 219 0 186 219 0 187 220 0 187 220 0 187 220 1 188 221 1 188 221 6 189 223 8 188 223 10 189 222 14 188 223 19 189 224 22 189 223 
25 189 224 26 189 224 34 191 226 34 191 226 36 190 224 38 191 225 39 192 224 42 192 225 42 193 224 44 193 225 49 193 228 50 193 227 53 193 228 54 193 226 56 193 227 59 194 226 60 193 226 63 193 225 60 193 224 61 194 225 63 193 225 64 194 226 66 195 227 67 196 228 68 195 228 69 196 229 71 196 226 71 196 226 72 197 227 74 197 228 76 197 228 77 198 229 79 198 230 79 198 230 80 200 227 81 199 227 81 199 227 84 199 228 84 199 228 86 199 229 86 199 229 88 199 229 89 198 227 89 198 227 89 198 227 89 198 227 89 198 227 89 198 227 89 198 227 89 198 227 90 200 227 90 200 227 89 200 228 88 199 227 86 199 229 85 200 231 84 199 230 84 199 230 80 198 228 80 198 228 80 198 228 80 198 228 80 198 228 80 198 228 80 198 228 80 198 228 78 199 228 78 199 228 79 198 228 79 198 228 80 198 228 82 197 228 82 197 228 82 197 228 83 198 227 83 198 227 83 198 227 83 198 227 83 198 227 83 198 227 83 198 227 83 198 227 87 201 228 87 201 228 87 201 228 87 201 228 87 201 228 87 201 228 87 201 228 87 201 228 91 199 228 91 199 228 91 199 228 92 200 229 
1 135 170 1 135 170 0 134 169 1 134 169 3 133 169 2 132 168 3 131 168 3 131 168 2 129 164 2 129 164 2 129 164 2 129 164 1 128 163 1 128 163 1 128 163 0 127 162 0 127 162 0 127 162 0 127 162 0 127 162 0 127 162 0 127 162 0 127 162 0 127 162 0 125 160 0 125 160 0 125 160 0 125 160 0 125 160 0 125 160 0 125 160 0 125 160 0 125 157 0 125 157 0 125 157 0 125 157 0 125 157 0 125 157 0 125 157 0 125 157 3 123 157 3 123 157 3 123 157 3 123 157 3 123 157 3 123 157 3 123 157 3 123 157 2 122 156 2 122 156 2 122 156 2 122 156 2 122 156 2 122 156 2 122 156 2 122 156 0 123 155 0 123 155 0 123 155 0 123 155 0 123 155 0 123 155 0 123 155 0 123 155 9 124 155 0 126 158 0 124 156 8 118 143 73 144 162 99 139 149 108 137 143 109 140 145 115 140 145 120 143 149 127 148 153 130 149 155 133 148 153 136 150 153 143 154 158 147 158 160 151 164 170 153 166 172 151 162 168 141 152 158 140 149 156 148 155 163 158 165 173 162 169 177 172 173 178 181 182 187 182 183 188 182 183 188 186 187 192 186 187 192 187 188 193 195 196 201 197 197 197 205 205 205 210 210 210 207 207 207 205 205 205 207 207 207 207 207 207 205 205 205 202 203 208 200 201 206 195 196 201 191 192 197 188 189 194 187 188 193 187 188 193 187 188 193 183 191 194 183 191 194 184 192 195 185 193 196 187 195 198 189 197 200 191 199 202 192 200 203 207 210 215 209 212 217 212 215 220 215 218 223 216 219 224 215 218 223 214 217 222 213 216 221 207 210 215 209 216 222 210 221 225 199 214 219 190 208 212 185 200 207 146 159 167 95 105 115 50 70 71 29 40 44 28 42 51 4 51 69 26 125 154 19 168 201 2 179 212 0 177 208 2 178 215 2 178 215 2 178 215 2 178 215 2 178 215 2 178 215 2 178 215 2 178 215 0 181 215 0 181 215 0 182 216 0 182 216 0 183 217 0 183 217 0 183 217 0 183 217 1 184 218 1 184 218 1 184 218 1 184 218 1 184 218 1 184 218 1 184 218 1 184 218 0 184 218 0 184 218 0 184 218 0 184 218 1 185 219 1 185 219 2 186 220 2 186 220 0 186 219 0 186 219 0 186 219 0 187 220 0 187 220 0 187 220 1 188 221 1 188 221 6 189 223 9 189 224 12 189 223 15 189 224 20 188 224 22 189 223 26 189 224 
29 189 225 36 190 226 37 191 227 37 191 225 39 192 226 42 192 225 42 192 225 44 193 225 44 193 225 50 192 228 50 193 227 53 193 228 55 194 227 58 192 227 60 193 226 63 193 227 63 193 225 60 193 224 61 194 225 63 193 225 64 194 226 66 195 227 67 196 228 68 195 228 69 196 229 71 196 226 71 196 226 72 197 227 74 197 228 76 197 228 77 198 229 79 198 230 79 198 230 80 200 227 82 200 228 82 200 228 84 199 228 85 200 229 86 199 229 86 199 229 88 199 229 90 199 228 90 199 228 90 199 228 90 199 228 90 199 228 90 199 228 90 199 228 90 199 228 91 201 228 90 200 227 89 200 228 89 200 228 86 199 229 85 200 231 85 200 231 84 199 230 80 198 228 80 198 228 80 198 228 80 198 228 80 198 228 80 198 228 80 198 228 80 198 228 78 199 228 78 199 228 79 198 228 79 198 228 80 198 228 82 197 228 82 197 228 82 197 228 83 198 227 83 198 227 83 198 227 83 198 227 83 198 227 83 198 227 83 198 227 83 198 227 88 202 229 88 202 229 88 202 229 88 202 229 88 202 229 88 202 229 88 202 229 88 202 229 91 199 228 91 199 228 91 199 228 92 200 229 
1 135 170 0 134 169 1 134 169 1 134 169 2 132 168 3 131 168 3 131 168 2 130 167 2 129 164 2 129 164 2 129 164 1 128 163 1 128 163 0 127 162 0 127 162 0 127 162 0 127 162 0 127 162 0 127 162 0 127 162 0 127 162 0 127 162 0 127 162 0 127 162 0 125 160 0 125 160 0 125 160 0 125 160 0 125 160 0 125 160 0 125 160 0 125 160 0 125 157 0 125 157 0 125 157 0 125 157 0 125 157 0 125 157 0 125 157 0 125 157 3 123 157 3 123 157 3 123 157 3 123 157 3 123 157 3 123 157 3 123 157 3 123 157 1 121 155 1 121 155 1 121 155 1 121 155 1 121 155 1 121 155 1 121 155 1 121 155 0 121 154 0 121 154 0 121 154 0 121 154 0 121 154 0 121 154 0 121 154 0 121 154 8 123 152 0 125 157 0 124 154 8 118 143 72 143 161 98 138 148 107 136 144 108 138 146 118 143 148 122 147 152 127 151 155 130 149 155 130 148 152 133 148 151 137 151 154 143 154 158 149 163 172 152 165 174 147 160 169 140 150 160 137 147 157 146 154 165 157 163 175 161 167 179 169 172 177 178 181 186 179 182 187 179 182 187 183 186 191 182 185 190 183 186 191 190 193 198 198 198 198 206 206 206 209 209 209 205 205 205 201 201 201 201 201 201 200 200 200 197 197 197 200 203 208 196 199 204 191 194 199 185 188 193 181 184 189 179 182 187 179 182 187 180 183 188 180 188 191 182 190 193 185 193 196 188 196 199 189 197 200 188 196 199 187 195 198 185 193 196 212 215 220 213 216 221 216 219 224 217 220 225 217 220 225 216 219 224 214 217 222 212 215 220 216 219 224 205 212 218 199 210 214 196 211 216 197 215 219 191 206 213 149 162 170 96 106 116 59 68 73 32 43 45 25 49 53 3 50 66 20 107 137 23 155 193 4 177 211 0 186 214 2 178 215 2 178 215 2 178 215 2 178 215 2 178 215 2 178 215 2 178 215 2 178 215 0 181 215 0 181 215 0 182 216 0 182 216 0 183 217 0 183 217 0 183 217 0 183 217 1 184 218 1 184 218 1 184 218 1 184 218 1 184 218 1 184 218 1 184 218 1 184 218 0 184 218 0 184 218 0 184 218 0 184 218 1 185 219 1 185 219 2 186 220 2 186 220 0 186 219 0 186 219 0 186 219 0 187 220 0 187 220 0 187 220 1 188 221 1 188 221 8 188 223 9 189 224 12 189 223 16 188 224 20 188 224 24 188 223 26 189 224 
29 189 225 37 191 227 37 191 227 39 192 226 39 192 226 42 192 225 44 193 226 44 193 225 45 194 226 50 192 228 50 193 227 53 193 228 56 193 227 59 193 228 60 193 226 63 193 227 64 193 225 60 193 224 61 194 225 63 193 225 64 194 226 66 195 227 67 196 228 68 195 228 69 196 229 71 196 226 71 196 226 72 197 227 74 197 228 76 197 228 77 198 229 79 198 230 79 198 230 81 201 228 82 200 228 82 200 228 84 199 228 85 200 229 86 199 229 86 199 229 89 200 230 90 199 228 90 199 228 90 199 228 90 199 228 90 199 228 90 199 228 90 199 228 90 199 228 91 201 228 91 201 228 89 200 228 89 200 228 87 200 230 85 200 231 85 200 231 85 200 231 80 198 228 80 198 228 80 198 228 80 198 228 80 198 228 80 198 228 80 198 228 80 198 228 78 199 228 78 199 228 79 198 228 79 198 228 80 198 228 82 197 228 82 197 228 82 197 228 83 198 227 83 198 227 83 198 227 83 198 227 83 198 227 83 198 227 83 198 227 83 198 227 88 202 229 88 202 229 88 202 229 88 202 229 88 202 229 88 202 229 88 202 229 88 202 229 91 199 228 91 199 228 91 199 228 92 200 229 
1 135 170 1 134 169 1 134 169 2 132 166 1 131 163 2 131 163 2 129 161 2 129 161 2 126 162 2 126 162 2 126 162 1 125 161 1 125 161 1 125 161 0 124 160 0 124 160 1 123 160 1 123 160 1 123 160 1 123 160 1 123 160 1 123 160 1 123 160 1 123 160 1 123 160 1 123 160 1 123 160 0 122 159 0 122 159 0 121 158 0 121 158 0 121 158 2 123 154 2 123 154 2 123 154 2 123 154 2 123 154 2 123 154 2 123 154 2 123 154 3 122 154 3 122 154 2 121 153 2 121 153 2 121 153 1 120 152 1 120 152 1 120 152 1 121 155 1 121 155 0 120 154 0 120 154 0 120 154 0 119 153 0 119 153 0 119 153 1 118 153 0 117 152 0 117 152 0 117 152 0 116 151 0 116 151 0 116 151 0 115 150 0 118 148 0 112 147 3 116 158 9 106 141 73 141 164 104 147 154 113 143 143 121 145 145 128 145 153 127 144 152 126 143 151 125 142 150 127 144 152 130 147 155 134 151 159 137 154 162 149 162 168 155 166 172 149 160 166 134 143 150 124 133 140 133 140 148 146 153 161 155 159 168 163 173 174 161 171 172 164 172 174 170 178 180 181 186 189 185 189 192 179 183 186 173 177 180 206 207 212 203 204 209 198 199 204 194 195 200 194 195 200 196 197 202 199 200 205 202 203 208 211 211 219 205 205 213 197 197 205 190 190 198 185 185 193 183 183 191 184 184 192 186 186 194 185 188 195 186 189 196 187 190 195 190 193 198 194 198 201 200 204 207 205 209 210 209 213 214 211 217 217 212 218 218 213 219 219 213 219 219 214 220 220 214 220 220 214 220 220 214 220 220 206 215 214 209 218 217 204 214 215 203 217 220 198 213 218 192 209 216 163 182 189 97 117 126 84 65 95 37 48 52 22 39 29 32 41 48 20 74 102 29 168 201 4 184 221 9 180 224 1 177 214 1 177 214 1 177 214 1 177 214 1 177 214 1 177 214 1 177 214 1 177 214 0 178 214 0 178 214 1 179 215 1 179 215 1 179 215 2 180 216 2 180 216 2 180 216 0 182 216 0 182 216 0 182 216 0 182 216 0 182 216 0 182 216 0 182 216 0 182 216 1 184 218 1 184 218 1 184 218 1 184 218 2 185 219 2 185 219 3 186 220 3 186 220 0 187 220 0 187 220 0 187 220 1 188 221 1 188 221 1 188 221 2 189 222 2 189 222 5 190 218 7 191 219 11 190 220 16 191 220 21 190 219 26 191 221 30 191 220 
32 191 221 39 192 226 39 192 226 41 191 224 42 192 225 44 193 225 45 194 224 46 194 224 47 195 225 53 194 224 53 194 224 54 195 223 56 195 224 58 196 224 58 196 224 61 197 223 61 197 223 65 195 227 65 195 227 66 195 227 66 195 227 68 195 228 70 194 228 71 195 229 71 195 229 75 196 225 75 196 225 76 195 225 77 196 226 78 196 226 80 195 226 81 196 227 81 196 227 82 197 226 82 197 226 83 198 227 84 197 227 86 197 227 87 198 228 88 197 228 88 197 228 90 199 228 90 199 228 90 199 228 90 199 228 90 199 228 90 199 228 90 199 228 90 199 228 91 200 229 91 200 229 90 199 228 90 199 228 89 198 227 89 198 227 89 198 227 89 198 227 82 195 227 81 196 227 78 197 227 75 199 227 75 199 227 78 197 227 81 196 227 82 195 227 83 198 225 83 198 225 83 198 225 83 198 225 83 198 225 83 198 225 83 198 225 83 198 225 83 198 227 84 199 228 84 199 228 85 198 228 88 199 229 88 199 229 89 198 229 90 199 230 91 199 228 91 199 228 91 199 228 91 199 228 91 199 228 91 199 228 91 199 228 91 199 228 95 200 230 95 200 230 95 200 230 95 200 230 
1 134 169 1 134 169 0 133 168 2 132 166 2 131 163 1 130 162 2 129 161 1 128 160 2 126 162 2 126 162 1 125 161 1 125 161 1 125 161 0 124 160 0 124 160 0 124 160 1 123 160 1 123 160 1 123 160 1 123 160 1 123 160 1 123 160 1 123 160 1 123 160 1 123 160 0 122 159 0 122 159 0 122 159 0 121 158 0 121 158 0 121 158 0 121 158 1 122 153 1 122 153 1 122 153 1 122 153 1 122 153 1 122 153 1 122 153 1 122 153 3 120 153 3 120 153 3 120 153 3 120 153 2 119 152 2 119 152 1 118 151 1 118 151 0 121 152 0 121 152 0 121 152 0 120 151 0 120 151 0 120 151 0 119 150 0 119 150 2 116 150 2 116 150 2 116 150 1 115 149 1 115 149 0 114 148 0 114 148 0 114 148 1 116 145 0 111 147 2 115 157 8 105 140 69 137 160 102 146 155 114 144 146 121 145 145 125 142 149 126 143 150 126 143 150 125 142 149 124 141 148 127 144 151 131 148 155 135 152 159 143 156 162 154 165 171 155 166 172 147 156 163 138 147 154 141 148 156 146 153 161 151 155 164 159 169 170 164 174 175 167 177 178 171 179 181 177 182 185 183 188 191 185 189 192 183 187 190 196 197 202 196 197 202 197 198 203 199 200 205 200 201 206 201 202 207 201 202 207 202 203 208 202 202 210 200 200 208 197 197 205 194 194 202 191 191 199 190 190 198 190 190 198 191 191 199 192 195 202 190 193 200 189 192 197 190 193 198 194 198 201 197 201 204 197 201 202 197 201 202 205 211 211 208 214 214 212 218 218 216 222 222 217 223 223 216 222 222 215 221 221 213 219 219 209 215 215 209 218 217 205 215 216 206 217 219 200 213 219 192 209 216 163 182 189 98 117 124 74 68 94 31 46 49 23 39 29 30 34 43 28 74 100 33 162 194 0 169 205 0 177 217 1 177 214 1 177 214 1 177 214 1 177 214 1 177 214 1 177 214 1 177 214 1 177 214 0 178 214 0 178 214 1 179 215 1 179 215 1 179 215 2 180 216 2 180 216 2 180 216 0 182 216 0 182 216 0 182 216 0 182 216 0 182 216 0 182 216 0 182 216 0 182 216 1 184 218 1 184 218 1 184 218 1 184 218 2 185 219 2 185 219 3 186 220 3 186 220 0 187 220 0 187 220 0 187 220 1 188 221 1 188 221 1 188 221 2 189 222 2 189 222 6 191 219 7 191 219 11 190 220 17 190 220 22 191 220 27 190 221 31 190 220 
33 190 221 39 192 226 39 192 226 41 191 224 42 192 225 44 193 225 45 194 224 46 194 224 47 195 225 53 194 224 53 194 224 55 194 223 56 195 224 58 196 224 60 195 224 61 197 223 61 197 223 65 195 227 65 195 227 66 195 227 66 195 227 68 195 228 70 194 228 71 195 229 71 195 229 75 196 225 75 196 225 77 196 226 77 196 226 78 196 226 81 196 227 81 196 227 81 196 227 82 197 226 83 198 227 83 198 227 84 197 227 87 198 228 87 198 228 88 197 228 89 198 229 90 199 228 90 199 228 90 199 228 90 199 228 90 199 228 90 199 228 90 199 228 90 199 228 91 200 229 91 200 229 90 199 228 90 199 228 89 198 227 89 198 227 89 198 227 89 198 227 82 195 227 81 196 227 78 197 227 75 199 227 75 199 227 78 197 227 81 196 227 82 195 227 83 198 225 83 198 225 83 198 225 83 198 225 83 198 225 83 198 225 83 198 225 83 198 225 83 198 227 84 199 228 84 199 228 85 198 228 88 199 229 88 199 229 89 198 229 90 199 230 91 199 228 91 199 228 91 199 228 91 199 228 91 199 228 91 199 228 91 199 228 91 199 228 95 200 230 95 200 230 95 200 230 95 200 230 
1 134 169 0 133 168 2 132 168 1 131 165 1 130 162 1 128 161 1 128 160 3 128 160 2 126 160 1 125 159 1 125 159 1 125 159 0 124 158 0 124 158 0 124 158 0 124 158 2 122 157 2 122 157 2 122 157 2 122 157 2 122 157 2 122 157 2 122 157 2 122 157 2 122 157 2 122 157 1 121 156 1 121 156 1 121 156 0 120 155 0 120 155 0 120 155 1 120 152 1 120 152 1 120 152 1 120 152 1 120 152 1 120 152 1 120 152 1 120 152 2 119 152 2 119 152 2 119 152 2 119 152 1 118 151 1 118 151 0 117 150 0 117 150 0 119 151 0 119 151 0 119 151 0 118 150 0 118 150 0 118 150 0 117 149 0 117 149 2 115 149 2 115 149 2 115 149 1 114 148 1 114 148 0 113 147 0 113 147 0 113 147 3 114 142 0 111 146 1 114 154 6 104 139 58 130 152 99 146 154 114 144 146 121 145 147 125 140 147 128 143 150 130 145 152 128 143 150 125 140 147 126 141 148 131 146 153 136 151 158 139 152 158 150 161 167 155 166 172 152 161 168 148 157 164 149 156 164 153 160 168 156 160 169 158 169 171 163 174 176 165 175 177 166 174 177 174 182 185 188 193 197 193 198 202 191 194 199 200 201 206 199 200 205 198 199 204 198 199 204 198 199 204 199 200 205 200 201 206 201 202 207 195 195 203 196 196 204 197 197 205 197 197 205 198 198 206 198 198 206 197 197 205 197 197 205 198 201 208 196 199 206 194 197 202 195 198 203 199 203 206 200 204 207 197 201 202 193 197 198 198 202 203 202 206 207 209 213 214 215 219 220 218 222 223 217 221 222 215 219 220 213 217 218 211 215 214 213 219 219 208 216 218 209 219 221 204 215 219 195 210 215 163 180 187 98 115 123 56 68 84 23 43 44 30 41 37 39 39 49 60 94 119 62 171 200 0 159 190 0 179 214 1 177 214 1 177 214 1 177 214 1 177 214 1 177 214 1 177 214 1 177 214 1 177 214 0 178 214 0 178 214 1 179 215 1 179 215 1 179 215 2 180 216 2 180 216 2 180 216 0 182 216 0 182 216 0 182 216 0 182 216 0 182 216 0 182 216 0 182 216 0 182 216 1 184 218 1 184 218 1 184 218 1 184 218 2 185 219 2 185 219 3 186 220 3 186 220 0 187 220 0 187 220 0 187 220 1 188 221 1 188 221 1 188 221 2 189 222 2 189 222 7 191 219 10 191 220 13 191 221 19 190 220 23 191 220 29 189 221 33 190 221 
35 190 221 39 192 226 39 192 226 41 191 224 42 192 225 44 193 225 45 194 224 46 194 224 47 195 225 53 194 224 54 193 224 55 194 223 57 195 224 58 196 224 60 195 224 62 196 223 62 196 223 65 195 227 65 195 227 66 195 227 66 195 227 68 195 228 70 194 228 71 195 229 71 195 229 75 196 225 76 197 226 77 196 226 77 196 226 79 197 227 81 196 227 81 196 227 81 196 227 83 198 227 83 198 227 83 198 227 85 198 228 87 198 228 87 198 228 89 198 229 89 198 229 90 199 228 90 199 228 90 199 228 90 199 228 90 199 228 90 199 228 90 199 228 90 199 228 91 200 229 91 200 229 90 199 228 90 199 228 89 198 227 89 198 227 89 198 227 89 198 227 83 196 228 82 197 228 79 198 228 76 200 228 76 200 228 79 198 228 82 197 228 83 196 228 83 198 225 83 198 225 83 198 225 83 198 225 83 198 225 83 198 225 83 198 225 83 198 225 83 198 227 84 199 228 84 199 228 85 198 228 88 199 229 88 199 229 89 198 229 90 199 230 91 199 228 91 199 228 91 199 228 91 199 228 91 199 228 91 199 228 91 199 228 91 199 228 95 200 230 95 200 230 95 200 230 95 200 230 
2 132 168 1 131 167 1 131 167 1 129 164 1 128 161 1 128 161 2 127 159 2 127 159 2 125 159 2 125 159 2 125 159 1 124 158 1 124 158 1 124 158 0 123 157 0 123 157 1 121 156 1 121 156 1 121 156 1 121 156 1 121 156 1 121 156 1 121 156 1 121 156 1 121 156 1 121 156 1 121 156 0 120 155 0 120 155 0 119 154 0 119 154 0 119 154 0 119 151 0 119 151 0 119 151 0 119 151 0 119 151 0 119 151 0 119 151 0 119 151 3 117 151 3 117 151 3 117 151 2 116 150 2 116 150 1 115 149 1 115 149 1 115 149 0 118 148 0 118 148 0 117 147 0 117 147 0 117 147 0 116 146 0 116 146 0 116 146 3 113 146 2 112 145 2 112 145 2 112 145 1 111 144 1 111 144 1 111 144 1 111 144 4 112 140 0 109 143 0 112 149 4 104 138 46 121 142 95 143 153 113 144 147 121 145 149 126 141 146 130 145 150 134 149 154 133 148 153 130 145 150 130 145 150 135 150 155 140 155 160 139 152 158 145 156 162 146 157 163 145 154 161 144 153 160 149 156 164 157 164 172 165 169 178 158 169 171 160 171 173 157 168 170 158 168 170 172 180 183 190 198 201 199 204 208 194 199 203 220 221 226 212 213 218 201 202 207 191 192 197 187 188 193 189 190 195 194 195 200 199 200 205 196 196 204 196 196 204 197 197 205 197 197 205 198 198 206 200 200 208 201 201 209 202 202 210 199 202 209 199 202 209 200 203 208 202 205 210 204 208 211 204 208 211 203 207 208 202 206 207 191 195 196 194 198 199 199 203 204 205 209 210 209 213 214 212 216 217 213 217 218 213 217 218 215 217 214 218 220 219 213 217 218 213 221 223 207 216 221 199 210 216 166 179 187 99 114 121 40 67 76 18 39 42 36 44 46 57 55 66 109 134 154 111 197 224 9 163 191 0 183 211 1 177 214 1 177 214 1 177 214 1 177 214 1 177 214 1 177 214 1 177 214 1 177 214 0 178 214 0 178 214 1 179 215 1 179 215 1 179 215 2 180 216 2 180 216 2 180 216 0 182 216 0 182 216 0 182 216 0 182 216 0 182 216 0 182 216 0 182 216 0 182 216 1 184 218 1 184 218 1 184 218 1 184 218 2 185 219 2 185 219 3 186 220 3 186 220 0 187 220 0 187 220 0 187 220 1 188 221 1 188 221 1 188 221 2 189 222 2 189 222 9 190 219 11 190 220 15 190 221 21 190 221 26 189 220 31 190 222 
35 190 221 37 190 222 39 192 226 39 192 226 41 191 224 42 192 225 44 193 225 45 194 224 46 194 224 47 195 225 54 193 224 54 193 224 56 194 223 57 195 224 60 195 224 61 195 224 62 196 223 62 196 223 65 195 227 65 195 227 66 195 227 66 195 227 68 195 228 70 194 228 71 195 229 71 195 229 76 197 226 76 197 226 77 196 226 78 197 227 79 197 227 81 196 227 82 197 228 82 197 228 83 198 227 83 198 227 84 199 228 85 198 228 87 198 228 88 199 229 89 198 229 89 198 229 90 199 228 90 199 228 90 199 228 90 199 228 90 199 228 90 199 228 90 199 228 90 199 228 91 200 229 91 200 229 90 199 228 90 199 228 89 198 227 89 198 227 89 198 227 89 198 227 83 196 228 82 197 228 79 198 228 76 200 228 76 200 228 79 198 228 82 197 228 83 196 228 83 198 225 83 198 225 83 198 225 83 198 225 83 198 225 83 198 225 83 198 225 83 198 225 83 198 227 84 199 228 84 199 228 85 198 228 88 199 229 88 199 229 89 198 229 90 199 230 91 199 228 91 199 228 91 199 228 91 199 228 91 199 228 91 199 228 91 199 228 91 199 228 95 200 230 95 200 230 95 200 230 95 200 230 
1 131 167 2 130 167 1 129 166 1 128 163 0 127 160 2 126 160 2 125 158 2 125 158 4 124 158 4 124 158 3 123 157 3 123 157 2 122 156 2 122 156 2 122 156 2 122 156 1 120 154 1 120 154 1 120 154 1 120 154 1 120 154 1 120 154 1 120 154 1 120 154 1 120 154 1 120 154 1 120 154 0 119 153 0 119 153 0 118 152 0 118 152 0 118 152 0 117 150 0 117 150 0 117 150 0 117 150 0 117 150 0 117 150 0 117 150 0 117 150 2 116 150 1 115 149 1 115 149 1 115 149 0 114 148 0 114 148 0 114 148 0 113 147 1 114 146 1 114 146 1 114 146 1 114 146 0 113 145 0 113 145 0 113 145 0 112 144 2 111 144 2 111 144 2 111 144 1 110 143 1 110 143 1 110 143 0 109 142 0 109 142 8 109 137 0 107 140 0 110 147 0 103 134 34 112 132 91 141 152 113 144 149 121 144 150 129 142 148 134 147 153 138 151 157 140 153 159 139 152 158 140 153 159 143 156 162 147 160 166 143 156 162 143 154 160 140 151 157 139 148 155 138 147 154 141 148 156 149 156 164 158 162 171 145 159 162 152 166 169 157 168 172 156 167 171 163 172 177 179 186 192 193 200 206 199 206 212 226 227 232 217 218 223 202 203 208 189 190 195 183 184 189 185 186 191 192 193 198 197 198 203 203 203 211 201 201 209 197 197 205 194 194 202 194 194 202 197 197 205 200 200 208 203 203 211 197 200 207 199 202 209 201 204 209 200 203 208 198 202 205 197 201 204 199 203 204 201 205 206 189 190 192 190 191 193 191 192 194 194 195 197 199 200 202 205 206 208 211 212 214 214 215 217 217 217 215 221 221 219 218 220 219 219 223 224 211 219 222 201 210 215 168 179 185 98 111 119 44 73 77 27 42 47 40 43 50 63 66 75 145 163 177 152 213 234 41 171 197 0 179 207 1 177 214 1 177 214 1 177 214 1 177 214 1 177 214 1 177 214 1 177 214 1 177 214 0 178 214 0 178 214 1 179 215 1 179 215 1 179 215 2 180 216 2 180 216 2 180 216 0 182 216 0 182 216 0 182 216 0 182 216 0 182 216 0 182 216 0 182 216 0 182 216 1 184 218 1 184 218 1 184 218 1 184 218 2 185 219 2 185 219 3 186 220 3 186 220 0 187 220 0 187 220 0 187 220 1 188 221 1 188 221 1 188 221 2 189 222 2 189 222 12 190 220 14 189 220 19 189 222 22 189 221 29 189 221 34 188 222 
39 189 222 40 189 222 39 192 226 39 192 226 41 191 224 42 192 225 44 193 225 45 194 224 46 194 224 47 195 225 55 192 224 55 192 224 56 194 223 59 194 224 61 195 224 61 195 224 64 195 223 64 195 223 65 195 227 65 195 227 66 195 227 66 195 227 68 195 228 70 194 228 71 195 229 71 195 229 76 197 226 76 197 226 78 197 227 78 197 227 80 198 228 82 197 228 82 197 228 82 197 228 84 199 228 84 199 228 84 199 228 86 199 229 88 199 229 88 199 229 90 199 230 90 199 230 90 199 228 90 199 228 90 199 228 90 199 228 90 199 228 90 199 228 90 199 228 90 199 228 91 200 229 91 200 229 90 199 228 90 199 228 89 198 227 89 198 227 89 198 227 89 198 227 84 197 229 83 198 229 80 199 229 77 201 229 77 201 229 80 199 229 83 198 229 84 197 229 83 198 225 83 198 225 83 198 225 83 198 225 83 198 225 83 198 225 83 198 225 83 198 225 83 198 227 84 199 228 84 199 228 85 198 228 88 199 229 88 199 229 89 198 229 90 199 230 91 199 228 91 199 228 91 199 228 91 199 228 91 199 228 91 199 228 91 199 228 91 199 228 95 200 230 95 200 230 95 200 230 95 200 230 
1 129 166 1 129 166 1 127 165 0 127 162 1 125 159 2 125 159 1 124 157 1 124 157 3 123 157 3 123 157 3 123 157 2 122 156 2 122 156 2 122 156 1 121 155 1 121 155 0 119 153 0 119 153 0 119 153 0 119 153 0 119 153 0 119 153 0 119 153 0 119 153 0 119 153 0 119 153 0 119 153 0 118 152 0 118 152 0 118 152 0 117 151 0 117 151 0 114 148 0 114 148 0 114 148 0 114 148 0 114 148 0 114 148 0 114 148 0 114 148 1 114 148 1 114 148 1 114 148 0 113 147 0 113 147 0 113 147 0 112 146 0 112 146 2 113 143 2 113 143 2 113 143 1 112 142 1 112 142 0 111 141 0 111 141 0 111 141 2 109 141 2 109 141 1 108 140 1 108 140 1 108 140 0 107 139 0 107 139 0 107 139 9 107 134 0 105 137 0 108 144 0 103 133 22 103 124 87 139 150 112 145 152 120 143 151 130 144 147 132 146 149 136 150 153 142 156 159 147 161 164 150 164 167 151 165 168 151 165 168 145 158 164 143 154 160 140 151 157 141 150 157 137 146 153 134 141 149 134 141 149 140 144 153 128 143 148 143 156 162 156 169 175 158 169 175 151 162 168 157 166 173 181 188 196 204 211 219 210 211 216 207 208 213 201 202 207 196 197 202 193 194 199 193 194 199 195 196 201 196 197 202 205 205 213 201 201 209 196 196 204 191 191 199 190 190 198 193 193 201 197 197 205 200 200 208 197 200 207 194 197 204 191 194 199 187 190 195 185 189 192 186 190 193 188 192 193 189 193 194 191 191 193 189 189 191 188 188 190 190 190 192 194 194 196 202 202 204 209 209 211 214 214 216 222 218 215 224 223 221 222 222 222 224 225 227 216 220 223 203 211 214 168 177 182 100 109 116 57 81 83 44 48 59 40 40 52 60 69 76 153 170 177 171 209 228 74 175 203 1 170 199 1 177 214 1 177 214 1 177 214 1 177 214 1 177 214 1 177 214 1 177 214 1 177 214 0 178 214 0 178 214 1 179 215 1 179 215 1 179 215 2 180 216 2 180 216 2 180 216 0 182 216 0 182 216 0 182 216 0 182 216 0 182 216 0 182 216 0 182 216 0 182 216 1 184 218 1 184 218 1 184 218 1 184 218 2 185 219 2 185 219 3 186 220 3 186 220 0 187 220 0 187 220 0 187 220 1 188 221 1 188 221 1 188 221 2 189 222 2 189 222 14 189 220 16 189 221 20 189 222 26 189 222 30 189 221 36 189 223 
40 189 222 42 189 223 39 192 226 39 192 226 41 191 224 42 192 225 44 193 225 45 194 224 46 194 224 47 195 225 55 192 224 55 192 224 58 193 223 60 193 224 61 195 224 63 194 224 64 195 223 65 194 223 65 195 227 65 195 227 66 195 227 66 195 227 68 195 228 70 194 228 71 195 229 71 195 229 77 198 227 77 198 227 78 197 227 79 198 228 80 198 228 82 197 228 83 198 229 83 198 229 84 199 228 84 199 228 85 200 229 86 199 229 88 199 229 89 200 230 90 199 230 90 199 230 90 199 228 90 199 228 90 199 228 90 199 228 90 199 228 90 199 228 90 199 228 90 199 228 91 200 229 91 200 229 90 199 228 90 199 228 89 198 227 89 198 227 89 198 227 89 198 227 84 197 229 83 198 229 80 199 229 77 201 229 77 201 229 80 199 229 83 198 229 84 197 229 83 198 225 83 198 225 83 198 225 83 198 225 83 198 225 83 198 225 83 198 225 83 198 225 83 198 227 84 199 228 84 199 228 85 198 228 88 199 229 88 199 229 89 198 229 90 199 230 91 199 228 91 199 228 91 199 228 91 199 228 91 199 228 91 199 228 91 199 228 91 199 228 95 200 230 95 200 230 95 200 230 95 200 230 
0 128 165 1 127 165 0 126 164 2 126 162 2 125 159 1 124 158 2 122 156 2 122 156 4 123 155 4 123 155 3 122 154 3 122 154 3 122 154 2 121 153 2 121 153 2 121 153 1 118 151 1 118 151 1 118 151 1 118 151 1 118 151 1 118 151 1 118 151 1 118 151 0 117 150 0 117 150 0 117 150 0 117 150 0 116 149 0 116 149 0 116 149 0 115 148 0 113 147 0 113 147 0 113 147 0 113 147 0 113 147 0 113 147 0 113 147 0 113 147 0 113 147 0 113 147 0 113 147 0 112 146 0 112 146 0 112 146 0 111 145 0 111 145 2 111 142 2 111 142 2 111 142 1 110 141 1 110 141 0 109 140 0 109 140 0 109 140 3 108 140 3 108 140 2 107 139 2 107 139 2 107 139 1 106 138 1 106 138 1 106 138 11 105 131 0 105 137 0 106 142 0 102 131 11 96 116 84 138 150 112 145 154 120 142 153 129 140 144 128 139 143 131 142 146 141 152 156 152 163 167 158 169 173 157 168 172 153 164 168 141 154 160 138 149 155 138 149 155 143 152 159 141 150 157 134 141 149 131 138 146 135 139 148 123 138 143 131 146 151 146 159 165 152 165 171 148 159 165 148 157 164 168 177 184 194 203 210 193 194 199 196 197 202 200 201 206 203 204 209 204 205 210 202 203 208 198 199 204 196 197 202 199 199 207 197 197 205 194 194 202 191 191 199 191 191 199 192 192 200 195 195 203 196 196 204 198 201 208 186 189 196 175 178 183 173 176 181 179 183 186 185 189 192 185 189 190 182 186 187 193 193 195 192 192 194 192 192 194 194 194 196 198 198 200 203 203 205 209 209 211 213 213 215 224 219 216 227 223 220 225 224 222 227 227 227 218 222 225 206 211 215 169 176 182 100 107 113 61 72 74 57 49 64 42 40 54 58 77 81 155 175 174 180 202 216 109 184 213 16 165 197 1 177 214 1 177 214 1 177 214 1 177 214 1 177 214 1 177 214 1 177 214 1 177 214 0 178 214 0 178 214 1 179 215 1 179 215 1 179 215 2 180 216 2 180 216 2 180 216 0 182 216 0 182 216 0 182 216 0 182 216 0 182 216 0 182 216 0 182 216 0 182 216 1 184 218 1 184 218 1 184 218 1 184 218 2 185 219 2 185 219 3 186 220 3 186 220 0 187 220 0 187 220 0 187 220 1 188 221 1 188 221 1 188 221 2 189 222 2 189 222 16 189 221 18 188 221 21 188 222 28 188 222 32 189 222 38 188 223 
41 188 222 44 188 223 39 192 226 39 192 226 41 191 224 42 192 225 44 193 225 45 194 224 46 194 224 47 195 225 57 192 224 57 192 224 58 193 223 60 193 224 63 194 224 63 194 224 65 194 223 65 194 223 65 195 227 65 195 227 66 195 227 66 195 227 68 195 228 70 194 228 71 195 229 71 195 229 77 198 227 77 198 227 79 198 228 79 198 228 80 198 228 83 198 229 83 198 229 83 198 229 84 199 228 85 200 229 85 200 229 86 199 229 89 200 230 89 200 230 90 199 230 91 200 231 90 199 228 90 199 228 90 199 228 90 199 228 90 199 228 90 199 228 90 199 228 90 199 228 91 200 229 91 200 229 90 199 228 90 199 228 89 198 227 89 198 227 89 198 227 89 198 227 84 197 229 83 198 229 80 199 229 77 201 229 77 201 229 80 199 229 83 198 229 84 197 229 83 198 225 83 198 225 83 198 225 83 198 225 83 198 225 83 198 225 83 198 225 83 198 225 83 198 227 84 199 228 84 199 228 85 198 228 88 199 229 88 199 229 89 198 229 90 199 230 91 199 228 91 199 228 91 199 228 91 199 228 91 199 228 91 199 228 91 199 228 91 199 228 95 200 230 95 200 230 95 200 230 95 200 230 
1 127 165 1 127 165 0 126 164 1 125 161 1 124 158 1 124 158 2 122 156 2 122 156 4 123 155 4 123 155 3 122 154 3 122 154 2 121 153 2 121 153 2 121 153 2 121 153 0 117 150 0 117 150 0 117 150 0 117 150 0 117 150 0 117 150 0 117 150 0 117 150 0 117 150 0 117 150 0 117 150 0 116 149 0 116 149 0 115 148 0 115 148 0 115 148 0 113 147 0 113 147 0 113 147 0 113 147 0 113 147 0 113 147 0 113 147 0 113 147 2 112 147 1 111 146 1 111 146 1 111 146 0 110 145 0 110 145 0 110 145 0 110 145 2 111 140 1 110 139 1 110 139 1 110 139 0 109 138 0 109 138 0 109 138 0 108 137 3 106 137 3 106 137 3 106 137 2 105 136 2 105 136 2 105 136 1 104 135 1 104 135 13 104 131 0 103 134 0 105 139 0 102 131 7 92 112 81 138 149 112 144 155 122 141 155 125 136 138 123 134 136 125 136 138 137 148 150 153 164 166 161 172 174 158 169 171 151 162 164 136 149 155 133 144 150 133 144 150 141 150 157 143 152 159 139 146 154 137 144 152 143 147 156 128 143 148 123 138 143 129 144 149 145 158 164 152 163 169 150 161 167 162 171 178 180 189 196 187 188 193 192 193 198 200 201 206 206 207 212 207 208 213 205 206 211 200 201 206 196 197 202 191 191 199 191 191 199 192 192 200 193 193 201 193 193 201 194 194 202 194 194 202 194 194 202 198 201 208 180 183 190 163 166 171 165 168 173 181 185 188 194 198 201 193 197 198 185 189 190 194 194 196 195 195 197 197 197 199 200 200 202 204 204 206 207 207 209 210 210 212 211 211 213 224 219 215 229 224 221 228 224 223 228 228 228 221 222 224 208 211 216 171 176 182 100 107 113 56 57 62 61 46 65 47 43 60 64 90 91 161 183 180 190 202 216 134 195 226 29 166 200 1 177 214 1 177 214 1 177 214 1 177 214 1 177 214 1 177 214 1 177 214 1 177 214 0 178 214 0 178 214 1 179 215 1 179 215 1 179 215 2 180 216 2 180 216 2 180 216 0 182 216 0 182 216 0 182 216 0 182 216 0 182 216 0 182 216 0 182 216 0 182 216 1 184 218 1 184 218 1 184 218 1 184 218 2 185 219 2 185 219 3 186 220 3 186 220 0 187 220 0 187 220 0 187 220 1 188 221 1 188 221 1 188 221 2 189 222 2 189 222 18 188 221 19 188 221 24 188 223 28 188 222 34 188 222 38 188 223 
41 188 222 44 188 223 39 192 226 39 192 226 41 191 224 42 192 225 44 193 225 45 194 224 46 194 224 47 195 225 57 192 224 57 192 224 59 192 223 60 193 224 63 194 224 64 193 224 65 194 223 65 194 223 65 195 227 65 195 227 66 195 227 66 195 227 68 195 228 70 194 228 71 195 229 71 195 229 77 198 227 77 198 227 79 198 228 79 198 228 81 199 229 83 198 229 83 198 229 83 198 229 85 200 229 85 200 229 85 200 229 87 200 230 89 200 230 89 200 230 91 200 231 91 200 231 90 199 228 90 199 228 90 199 228 90 199 228 90 199 228 90 199 228 90 199 228 90 199 228 91 200 229 91 200 229 90 199 228 90 199 228 89 198 227 89 198 227 89 198 227 89 198 227 84 197 229 83 198 229 80 199 229 77 201 229 77 201 229 80 199 229 83 198 229 84 197 229 83 198 225 83 198 225 83 198 225 83 198 225 83 198 225 83 198 225 83 198 225 83 198 225 83 198 227 84 199 228 84 199 228 85 198 228 88 199 229 88 199 229 89 198 229 90 199 230 91 199 228 91 199 228 91 199 228 91 199 228 91 199 228 91 199 228 91 199 228 91 199 228 95 200 230 95 200 230 95 200 230 95 200 230 
0 127 162 0 127 162 0 126 159 0 125 158 0 125 157 0 123 156 0 122 153 0 122 153 2 122 157 1 121 156 1 121 156 1 119 155 1 117 154 1 117 154 2 116 153 2 116 153 2 115 147 2 115 147 2 115 147 2 115 147 1 114 146 1 114 146 0 113 145 0 113 145 0 113 145 0 113 145 0 113 145 0 113 145 0 113 145 0 113 145 0 113 145 0 113 145 1 111 144 1 111 144 1 111 144 1 111 144 1 111 144 1 111 144 1 111 144 1 111 144 1 111 144 1 111 144 1 111 144 0 110 143 0 110 143 0 109 142 0 109 142 0 109 142 0 108 139 0 107 138 0 106 138 0 106 138 0 105 137 1 104 137 1 104 137 1 104 137 2 102 138 2 102 136 2 102 136 2 102 134 1 101 133 1 102 132 0 101 129 0 101 129 0 94 117 0 104 133 0 104 133 2 96 121 35 103 116 104 145 147 116 140 140 135 153 153 134 145 149 142 153 157 144 154 156 142 152 154 151 159 161 165 170 173 161 167 167 148 152 153 119 133 134 134 148 151 144 158 161 142 155 161 136 151 156 136 151 158 138 153 160 139 153 162 132 144 156 133 145 157 135 148 157 139 152 161 143 156 164 148 161 167 153 166 172 155 168 174 174 179 182 182 187 190 192 197 200 198 203 206 197 202 205 194 199 202 191 196 199 190 195 198 194 199 202 191 196 199 194 199 202 200 205 208 197 202 205 187 192 195 180 185 188 181 186 189 191 198 204 186 193 199 173 178 182 163 164 168 171 170 175 191 189 192 198 193 197 192 186 188 192 190 191 197 191 193 203 194 197 210 198 202 216 204 208 220 211 214 222 216 218 221 219 220 213 212 210 225 225 225 217 218 220 225 229 232 219 224 228 210 217 223 177 186 193 76 86 95 49 41 52 38 49 51 18 40 37 77 93 93 171 175 186 188 207 222 163 225 238 66 169 174 0 178 215 0 172 208 6 170 205 13 176 209 10 181 211 0 180 213 0 180 219 0 182 225 2 178 215 2 178 215 1 179 215 1 179 215 0 180 215 0 180 215 0 181 215 0 181 215 0 182 216 0 182 216 0 182 216 0 182 216 0 182 216 0 182 216 0 182 216 0 182 216 0 184 218 0 184 218 0 184 218 0 184 218 1 185 219 1 185 219 2 186 220 2 186 220 5 185 222 3 185 222 0 187 220 0 189 221 0 189 219 1 188 219 5 188 219 7 188 219 20 191 221 20 191 221 23 191 220 27 191 219 32 191 221 36 191 221 
38 191 222 40 191 220 44 192 222 44 192 222 45 193 223 47 192 223 49 192 224 50 193 225 53 193 226 53 193 226 56 193 225 57 194 226 57 195 224 60 195 224 62 196 225 63 197 224 65 196 224 66 198 223 68 195 228 68 195 228 68 195 228 71 195 229 72 195 229 72 195 229 75 195 230 75 195 230 76 198 222 77 197 222 78 198 223 79 197 223 81 196 223 82 197 224 83 197 224 83 197 224 90 200 227 90 200 227 90 200 227 90 200 227 90 200 227 90 200 227 90 200 227 90 200 227 93 198 227 93 198 227 93 198 227 93 198 227 93 198 227 93 198 227 93 198 227 93 198 227 90 201 228 90 201 228 89 200 227 89 200 227 89 200 227 88 199 226 88 199 226 88 199 226 82 197 228 83 198 229 84 197 227 84 197 227 87 198 226 88 198 225 88 198 225 89 199 226 90 199 228 90 199 228 90 199 228 90 199 228 90 199 228 90 199 228 90 199 228 90 199 228 88 199 229 88 199 229 88 199 229 88 199 229 88 199 229 88 199 229 88 199 229 88 199 229 91 198 230 91 198 230 91 198 230 92 199 231 92 199 231 92 199 231 93 200 232 93 200 232 93 200 232 93 200 232 93 200 232 93 200 232 
0 127 162 0 127 162 0 126 159 0 125 158 0 124 156 0 123 156 0 122 153 1 122 153 1 121 156 1 121 156 1 119 155 1 119 155 1 117 154 2 116 153 2 116 153 1 115 152 2 115 147 2 115 147 2 115 147 1 114 146 1 114 146 0 113 145 0 113 145 0 113 145 0 113 145 0 113 145 0 113 145 0 113 145 0 113 145 0 113 145 0 113 145 0 113 145 1 111 144 1 111 144 1 111 144 1 111 144 1 111 144 1 111 144 1 111 144 1 111 144 1 111 144 0 110 143 0 110 143 0 110 143 0 109 142 0 109 142 0 109 142 0 109 142 0 107 138 0 107 138 0 106 138 0 105 137 0 105 137 1 104 137 0 103 136 2 102 136 2 102 136 2 102 136 2 102 136 1 101 133 1 102 132 0 101 131 0 101 129 0 101 129 0 94 118 0 97 127 0 99 131 13 101 125 58 120 133 114 152 155 123 143 144 134 148 149 131 142 146 137 146 151 142 152 154 148 156 159 158 166 168 163 168 171 150 154 155 131 135 136 128 142 143 140 154 157 147 161 164 143 156 162 135 150 155 134 149 156 136 151 158 136 150 159 146 158 170 143 155 167 138 151 160 135 148 157 137 150 158 143 156 162 151 164 170 156 169 175 169 177 179 177 185 187 188 196 198 195 203 205 195 203 205 192 200 202 190 198 200 189 197 199 187 195 197 183 191 193 184 192 194 188 196 198 186 194 196 179 187 189 176 184 186 178 186 188 191 198 204 190 197 203 182 187 191 168 171 176 170 169 174 183 181 184 197 192 196 199 194 198 202 202 202 206 204 205 212 206 208 214 205 208 212 203 206 212 206 208 215 213 214 220 220 220 213 212 210 223 223 223 220 221 223 226 230 233 216 221 225 210 217 223 179 188 195 75 85 94 42 39 48 27 38 40 26 48 46 94 108 109 182 184 196 193 206 223 169 221 234 103 190 197 2 169 201 3 176 206 2 181 211 0 181 212 1 178 212 4 177 217 5 178 220 3 178 221 2 178 215 2 178 215 1 179 215 1 179 215 0 180 215 0 180 215 0 181 215 0 181 215 0 182 216 0 182 216 0 182 216 0 182 216 0 182 216 0 182 216 0 182 216 0 182 216 0 184 218 0 184 218 0 184 218 0 184 218 1 185 219 1 185 219 2 186 220 2 186 220 5 185 222 3 185 222 0 187 220 0 189 221 0 189 219 1 188 219 5 188 219 7 188 219 18 191 221 20 191 221 23 191 220 26 191 221 32 191 221 34 192 221 
38 191 222 40 191 222 43 192 222 44 192 222 44 192 222 47 192 223 49 192 224 50 193 225 52 192 225 53 193 226 55 194 225 57 194 226 57 195 224 60 195 225 62 196 225 62 196 223 65 196 224 65 196 224 67 196 228 68 195 228 68 195 228 70 194 228 72 195 229 72 195 229 75 195 230 75 195 230 76 197 224 76 197 224 77 197 224 79 197 225 79 197 225 82 197 226 82 197 226 83 196 226 89 199 226 89 199 226 89 199 226 89 199 226 89 199 226 89 199 226 89 199 226 89 199 226 90 198 226 90 198 226 90 198 226 90 198 226 90 198 226 90 198 226 90 198 226 90 198 226 87 201 227 87 201 227 87 201 227 87 201 227 86 200 226 86 200 226 86 200 226 85 199 225 82 197 228 82 197 228 83 198 229 84 197 227 86 197 225 87 198 226 88 198 225 88 198 225 90 199 228 90 199 228 90 199 228 90 199 228 90 199 228 90 199 228 90 199 228 90 199 228 85 198 228 85 198 228 85 198 228 85 198 228 85 198 228 85 198 228 85 198 228 85 198 228 91 198 230 91 198 230 91 198 230 91 198 230 92 199 231 92 199 231 93 200 232 93 200 232 93 200 232 93 200 232 93 200 232 93 200 232 
0 127 162 0 126 161 0 126 159 0 124 158 0 123 156 0 122 155 1 122 153 0 121 152 1 121 155 1 120 154 1 120 154 1 118 153 0 117 152 1 115 151 2 114 151 2 114 151 3 113 146 3 113 146 3 113 146 2 112 145 2 112 145 2 112 145 1 111 144 1 111 144 1 111 144 1 111 144 1 111 144 1 111 144 1 111 144 1 111 144 1 111 144 1 111 144 1 110 143 1 110 143 1 110 143 1 110 143 1 110 143 1 110 143 1 110 143 1 110 143 1 110 143 1 110 143 0 109 142 0 109 142 0 109 142 0 108 141 0 108 141 0 108 141 0 107 136 0 106 135 0 106 135 0 105 135 0 103 134 0 103 134 2 102 134 1 101 133 2 100 135 2 100 135 2 101 133 1 100 132 1 100 131 1 100 129 0 99 128 0 100 126 4 95 122 0 88 120 1 96 128 26 106 131 88 142 154 127 156 160 132 147 150 135 146 150 142 151 156 144 153 158 150 158 161 160 168 171 171 176 179 170 174 177 154 158 159 137 141 142 143 154 156 152 163 167 153 167 170 145 158 164 135 150 155 133 148 155 131 148 155 130 147 155 147 161 172 144 158 169 140 154 163 137 151 160 139 154 161 145 160 165 151 166 171 156 171 176 164 172 175 173 181 184 185 193 196 192 200 203 193 201 204 192 200 203 190 198 201 190 198 201 182 190 193 178 186 189 177 185 188 179 187 190 178 186 189 175 183 186 175 183 186 178 186 189 183 192 199 189 196 202 190 195 201 179 182 187 169 170 174 170 169 174 182 180 183 194 189 193 196 200 199 206 208 207 215 213 214 217 211 213 211 205 207 207 205 206 210 212 211 215 219 218 212 211 209 216 216 216 218 219 221 222 226 229 210 215 219 211 218 224 182 191 198 75 85 94 36 35 43 21 32 34 54 72 72 124 135 139 197 197 209 199 205 221 180 214 226 155 215 223 59 179 204 24 176 199 0 179 201 0 184 215 0 182 222 9 176 221 10 173 216 7 177 213 2 178 215 2 178 215 1 179 215 1 179 215 0 180 215 0 180 215 0 181 215 0 181 215 0 182 216 0 182 216 0 182 216 0 182 216 0 182 216 0 182 216 0 182 216 0 182 216 0 184 218 0 184 218 0 184 218 0 184 218 1 185 219 1 185 219 2 186 220 2 186 220 5 185 222 3 185 222 0 187 220 0 189 221 0 189 219 1 188 219 5 188 219 7 188 219 17 190 222 20 191 221 22 191 222 26 191 221 30 191 220 33 190 221 
36 191 221 38 191 222 42 191 221 43 192 222 44 192 222 45 193 223 48 193 224 49 192 224 50 193 225 50 193 225 55 194 227 55 194 225 57 194 226 58 196 225 60 195 224 62 196 225 63 197 224 63 197 224 66 195 227 66 195 227 68 195 228 68 195 228 71 195 229 72 195 229 72 195 229 72 195 229 76 197 224 76 197 224 76 197 224 77 197 224 79 197 225 79 197 225 82 197 226 82 197 226 88 199 227 88 199 227 88 199 227 88 199 227 88 199 227 88 199 227 88 199 227 88 199 227 89 198 227 89 198 227 89 198 227 89 198 227 89 198 227 89 198 227 89 198 227 89 198 227 87 201 228 87 201 228 86 200 227 86 200 227 86 200 227 85 199 226 85 199 226 85 199 226 80 197 230 80 197 230 82 197 228 84 197 227 84 197 227 87 198 226 87 198 226 88 198 225 88 199 227 88 199 227 88 199 227 88 199 227 88 199 227 88 199 227 88 199 227 88 199 227 85 198 228 85 198 228 85 198 228 85 198 228 85 198 228 85 198 228 85 198 228 85 198 228 89 198 229 89 198 229 90 199 230 90 199 230 91 200 231 91 200 231 91 200 231 91 200 231 91 200 231 91 200 231 91 200 231 91 200 231 
0 126 161 0 126 161 0 124 158 0 123 157 0 123 156 1 121 155 0 121 152 1 120 152 1 120 154 0 119 153 1 118 153 0 117 152 1 115 151 2 114 151 1 113 150 1 113 150 2 113 143 2 113 143 2 113 143 2 113 143 1 112 142 1 112 142 0 111 141 0 111 141 0 111 141 0 111 141 0 111 141 0 111 141 0 111 141 0 111 141 0 111 141 0 111 141 0 109 140 0 109 140 0 109 140 0 109 140 0 109 140 0 109 140 0 109 140 0 109 140 0 109 140 0 109 140 0 109 140 0 108 139 0 108 139 0 107 138 0 107 138 0 107 138 0 106 135 0 105 134 0 104 134 0 103 134 0 102 133 1 101 133 1 101 133 2 101 133 1 100 132 1 100 132 1 100 132 1 100 131 0 99 128 0 99 128 0 99 125 0 99 125 7 96 126 0 85 116 6 95 127 40 112 136 108 156 166 132 156 160 142 153 157 144 151 159 156 165 170 156 163 169 158 166 169 166 171 175 171 175 178 168 172 175 163 164 166 158 159 161 156 166 168 162 171 176 160 171 175 149 162 168 138 153 158 132 149 156 128 147 153 125 144 151 130 144 155 134 148 159 140 154 163 147 161 170 152 167 174 155 170 175 156 171 176 156 171 176 159 169 171 168 178 180 181 191 193 189 199 201 191 201 203 190 200 202 189 199 201 189 199 201 178 188 190 178 188 190 178 188 190 180 190 192 180 190 192 179 189 191 178 188 190 179 189 191 173 184 190 183 192 199 190 197 203 185 190 196 172 173 178 160 159 164 163 161 166 170 168 173 177 183 181 187 191 190 201 201 201 207 205 206 207 205 206 205 205 205 206 210 209 209 215 213 213 212 210 208 208 208 212 213 215 216 220 223 206 211 215 211 218 224 178 187 194 71 81 90 35 38 43 38 49 51 101 116 119 157 166 171 207 205 218 203 205 218 189 207 219 194 229 235 149 203 227 70 179 199 0 169 187 0 182 211 0 187 228 6 177 221 2 172 208 0 180 207 2 178 215 2 178 215 1 179 215 1 179 215 0 180 215 0 180 215 0 181 215 0 181 215 0 182 216 0 182 216 0 182 216 0 182 216 0 182 216 0 182 216 0 182 216 0 182 216 0 184 218 0 184 218 0 184 218 0 184 218 1 185 219 1 185 219 2 186 220 2 186 220 5 185 222 3 185 222 0 187 220 0 189 221 0 189 219 1 188 219 5 188 219 7 188 219 16 191 222 17 190 222 20 191 221 24 191 223 28 191 222 32 191 221 
36 191 222 37 190 222 41 192 223 42 191 223 43 192 224 44 191 224 45 192 225 48 192 226 50 193 227 50 193 227 53 193 226 55 194 227 55 194 225 57 194 226 58 196 225 61 196 225 62 196 225 63 197 226 65 195 227 66 195 227 66 195 227 68 195 228 68 195 228 70 194 228 72 195 229 72 195 229 73 197 225 73 197 225 76 197 226 76 197 226 77 196 226 79 197 227 79 197 227 81 196 227 87 198 226 87 198 226 87 198 226 87 198 226 87 198 226 87 198 226 87 198 226 87 198 226 87 198 226 87 198 226 87 198 226 87 198 226 87 198 226 87 198 226 87 198 226 87 198 226 85 200 227 85 200 227 84 199 226 84 199 226 84 199 226 83 198 225 83 198 225 83 198 225 79 196 229 80 197 230 80 197 230 82 197 228 84 197 227 84 197 227 86 197 225 87 198 226 88 199 227 88 199 227 88 199 227 88 199 227 88 199 227 88 199 227 88 199 227 88 199 227 84 199 228 84 199 228 84 199 228 84 199 228 84 199 228 84 199 228 84 199 228 84 199 228 89 198 229 89 198 229 89 198 229 90 199 230 90 199 230 90 199 230 91 200 231 91 200 231 90 199 230 90 199 230 90 199 230 90 199 230 
1 125 161 0 124 160 1 124 158 0 123 157 1 121 155 1 120 154 1 120 152 0 119 151 1 118 151 1 118 151 0 117 150 1 115 149 1 114 148 1 114 148 2 112 147 2 112 147 2 111 140 2 111 140 2 111 140 2 111 140 1 110 139 1 110 139 1 110 139 0 109 138 0 109 138 0 109 138 0 109 138 0 109 138 0 109 138 0 109 138 0 109 138 0 109 138 0 108 137 0 108 137 0 108 137 0 108 137 0 108 137 0 108 137 0 108 137 0 108 137 0 108 137 0 108 137 0 108 137 0 107 136 0 107 136 0 106 135 0 106 135 0 106 135 0 104 133 0 104 133 0 103 132 0 103 132 0 101 131 1 100 131 1 100 131 1 100 131 1 98 131 1 98 130 1 98 130 1 99 128 0 98 127 0 98 125 0 98 123 0 97 122 8 97 127 0 88 119 11 96 125 51 117 139 115 158 165 130 150 151 147 156 161 154 161 169 159 166 172 161 168 174 164 169 173 162 167 171 156 160 163 153 154 158 154 155 157 158 158 160 165 170 174 168 175 181 166 175 180 154 167 173 143 158 163 135 154 160 128 149 154 121 144 150 118 135 145 125 142 152 137 154 162 148 165 173 155 172 179 157 175 179 155 173 177 153 171 175 156 165 170 166 175 180 178 187 192 186 195 200 188 197 202 187 196 201 186 195 200 187 196 201 179 188 193 183 192 197 187 196 201 189 198 203 189 198 203 187 196 201 184 193 198 180 189 194 177 187 196 180 190 199 183 192 199 179 186 192 170 173 180 160 161 166 155 154 160 156 154 159 166 172 170 171 175 174 180 180 180 188 186 187 194 192 193 199 199 199 201 205 204 204 210 208 214 213 211 207 207 207 213 214 216 219 223 226 211 216 220 209 216 222 163 172 179 61 71 80 55 60 64 80 89 94 156 167 171 183 192 199 206 209 218 206 206 216 199 206 212 214 228 231 216 217 238 143 196 214 56 179 197 11 177 203 1 179 215 0 178 216 0 179 210 0 184 207 2 178 215 2 178 215 1 179 215 1 179 215 0 180 215 0 180 215 0 181 215 0 181 215 0 182 216 0 182 216 0 182 216 0 182 216 0 182 216 0 182 216 0 182 216 0 182 216 0 184 218 0 184 218 0 184 218 0 184 218 1 185 219 1 185 219 2 186 220 2 186 220 5 185 222 3 185 222 0 187 220 0 189 221 0 189 219 1 188 219 5 188 219 7 188 219 14 191 224 16 190 224 20 190 223 23 190 222 27 190 223 31 190 222 
33 190 223 36 191 222 40 190 223 41 191 224 41 191 224 43 192 225 45 192 226 46 193 227 48 192 227 48 192 227 53 193 228 53 193 228 54 194 227 56 195 226 57 194 226 58 196 225 61 196 226 61 196 225 64 194 226 64 194 226 65 195 227 66 195 227 68 195 228 68 195 228 70 194 228 70 194 228 72 197 225 73 197 225 73 197 225 76 197 226 77 196 226 77 196 226 79 197 227 79 197 227 84 197 227 84 197 227 84 197 227 84 197 227 84 197 227 84 197 227 84 197 227 84 197 227 84 197 227 84 197 227 84 197 227 84 197 227 84 197 227 84 197 227 84 197 227 84 197 227 84 199 228 84 199 228 83 198 227 83 198 227 83 198 227 82 197 226 82 197 226 82 197 226 78 197 231 78 197 231 79 196 229 80 197 230 82 197 228 84 197 227 84 197 227 84 197 227 85 199 226 85 199 226 85 199 226 85 199 226 85 199 226 85 199 226 85 199 226 85 199 226 83 198 227 83 198 227 83 198 227 83 198 227 83 198 227 83 198 227 83 198 227 83 198 227 87 198 228 87 198 228 88 199 229 88 199 229 89 200 230 89 200 230 89 200 230 89 200 230 88 199 229 88 199 229 88 199 229 88 199 229 
0 124 160 1 123 160 0 123 157 1 121 156 2 121 155 1 120 154 1 118 151 1 118 151 0 118 148 0 118 148 1 116 147 1 114 146 0 113 145 2 112 145 1 111 144 2 111 144 2 111 140 1 110 139 1 110 139 1 110 139 0 109 138 0 109 138 0 109 138 0 108 137 0 108 137 0 108 137 0 108 137 0 108 137 0 108 137 0 108 137 0 108 137 0 108 137 1 106 136 1 106 136 1 106 136 1 106 136 1 106 136 1 106 136 1 106 136 1 106 136 1 106 136 1 106 136 1 106 136 0 105 135 0 105 135 0 105 135 0 104 134 0 104 134 0 103 132 0 103 132 0 102 131 0 101 131 1 100 131 0 99 130 1 98 130 1 98 130 3 98 130 2 97 129 2 97 127 2 97 127 1 96 124 1 97 122 1 97 122 0 96 121 6 97 128 3 94 125 12 98 125 59 124 142 115 154 159 128 148 147 146 157 159 157 167 176 162 167 173 171 176 182 175 180 184 167 170 175 155 156 160 147 148 152 148 148 150 151 151 153 167 170 175 171 176 182 169 178 183 161 172 178 149 167 171 142 161 167 130 154 158 120 145 150 124 142 152 128 146 156 135 154 161 142 161 168 147 166 172 149 168 172 149 168 172 148 167 171 155 166 172 164 175 181 176 187 193 183 194 200 185 196 202 183 194 200 182 193 199 181 192 198 180 191 197 186 197 203 191 202 208 191 202 208 190 201 207 189 200 206 183 194 200 176 187 193 183 196 204 180 190 199 172 181 190 166 173 181 165 170 176 166 169 176 164 165 170 160 159 165 169 173 172 170 172 171 171 169 170 176 170 172 183 177 179 190 188 189 197 199 198 200 204 203 215 214 212 212 212 212 221 222 224 226 230 233 219 224 228 206 213 219 153 162 169 72 82 91 99 107 110 133 140 146 195 204 211 195 206 212 201 210 217 203 211 214 209 213 214 222 222 220 230 214 227 205 218 234 145 208 225 68 183 204 17 171 195 0 180 205 0 186 213 0 183 209 2 178 215 2 178 215 1 179 215 1 179 215 0 180 215 0 180 215 0 181 215 0 181 215 0 182 216 0 182 216 0 182 216 0 182 216 0 182 216 0 182 216 0 182 216 0 182 216 0 184 218 0 184 218 0 184 218 0 184 218 1 185 219 1 185 219 2 186 220 2 186 220 5 185 222 3 185 222 0 187 220 0 189 221 0 189 219 1 188 219 5 188 219 7 188 219 13 190 223 16 190 224 17 190 224 22 191 224 26 191 223 
30 190 224 32 191 223 33 190 223 38 191 223 38 191 223 41 191 224 42 192 225 43 192 225 45 192 226 46 193 227 48 192 227 50 193 227 51 194 228 53 193 228 54 194 227 56 195 226 58 195 227 58 196 225 61 196 226 62 195 226 62 195 226 64 194 226 65 195 227 66 195 227 68 195 228 68 195 228 70 194 228 71 196 226 71 196 226 73 196 227 73 196 227 76 197 228 77 196 228 77 196 228 77 196 228 82 197 228 82 197 228 82 197 228 82 197 228 82 197 228 82 197 228 82 197 228 82 197 228 80 198 228 80 198 228 80 198 228 80 198 228 80 198 228 80 198 228 80 198 228 80 198 228 81 199 229 81 199 229 81 199 229 80 198 228 80 198 228 79 197 227 79 197 227 79 197 227 77 197 232 78 197 231 78 197 231 79 196 229 80 197 230 82 197 228 83 196 226 84 197 227 84 199 226 84 199 226 84 199 226 84 199 226 84 199 226 84 199 226 84 199 226 84 199 226 81 199 227 81 199 227 81 199 227 81 199 227 81 199 227 81 199 227 81 199 227 81 199 227 87 198 228 87 198 228 87 198 228 88 199 229 88 199 229 89 200 230 89 200 230 89 200 230 87 198 228 87 198 228 87 198 228 87 198 228 
1 123 160 0 122 159 2 122 157 1 121 156 1 120 154 2 119 154 1 118 151 1 118 151 1 116 147 1 116 147 0 115 146 1 114 146 2 112 145 1 111 144 1 110 143 1 110 143 2 110 138 2 110 138 1 109 137 1 109 137 1 109 137 0 108 136 0 108 136 0 108 136 0 108 136 0 108 136 0 108 136 0 108 136 0 108 136 0 108 136 0 108 136 0 108 136 1 106 135 1 106 135 1 106 135 1 106 135 1 106 135 1 106 135 1 106 135 1 106 135 0 105 134 0 105 134 0 105 134 0 105 134 0 104 133 0 104 133 0 104 133 0 103 132 0 102 129 0 102 129 0 101 129 0 100 128 0 99 128 0 98 127 0 98 127 0 98 127 2 97 129 2 97 127 1 96 126 1 96 124 1 97 122 0 96 121 0 96 120 0 96 120 1 96 128 5 100 130 9 95 120 65 131 145 112 152 154 130 150 148 142 156 157 150 164 173 162 167 173 176 181 187 183 186 191 175 176 181 163 164 168 161 160 165 160 160 162 159 157 160 165 166 171 170 173 180 171 178 184 166 177 183 157 175 179 148 169 174 134 159 163 120 148 152 132 150 160 133 151 161 134 153 160 136 155 162 139 158 164 141 160 164 143 162 166 144 163 167 156 167 173 165 176 182 176 187 193 182 193 199 182 193 199 179 190 196 177 188 194 177 188 194 180 191 197 185 196 202 187 198 204 183 194 200 181 192 198 182 193 199 178 189 195 171 182 188 175 188 197 169 182 191 159 169 178 152 161 170 161 165 174 174 177 184 176 176 184 167 168 173 170 170 170 173 171 172 179 173 175 183 174 177 186 177 180 190 184 186 196 194 195 201 201 201 214 213 211 215 215 215 223 224 226 223 227 230 219 224 228 205 212 218 165 174 181 122 132 141 156 161 165 180 185 191 209 216 224 193 206 214 194 212 214 201 216 213 219 224 218 225 221 212 215 217 214 226 225 231 210 223 239 145 207 222 62 188 202 10 180 197 0 178 206 9 177 216 2 178 215 2 178 215 1 179 215 1 179 215 0 180 215 0 180 215 0 181 215 0 181 215 0 182 216 0 182 216 0 182 216 0 182 216 0 182 216 0 182 216 0 182 216 0 182 216 0 184 218 0 184 218 0 184 218 0 184 218 1 185 219 1 185 219 2 186 220 2 186 220 5 185 222 3 185 222 0 187 220 0 189 221 0 189 219 1 188 219 5 188 219 7 188 219 12 191 224 13 190 224 17 190 224 20 190 225 25 189 224 
28 191 224 31 189 224 33 190 223 38 191 225 38 191 225 38 191 225 41 191 226 43 191 227 44 192 228 45 191 228 46 192 229 50 192 228 50 192 228 51 194 228 54 194 229 56 195 228 56 195 226 58 195 227 58 196 225 62 195 226 62 195 226 62 195 226 64 194 226 66 195 227 66 195 227 67 194 227 68 195 228 69 197 226 71 196 226 71 196 226 73 196 227 73 196 227 76 197 228 77 196 228 77 196 228 81 196 227 81 196 227 81 196 227 81 196 227 81 196 227 81 196 227 81 196 227 81 196 227 78 197 227 78 197 227 78 197 227 78 197 227 78 197 227 78 197 227 78 197 227 78 197 227 80 198 228 80 198 228 80 198 228 80 198 228 79 197 227 79 197 227 78 196 226 78 196 226 76 196 231 76 196 231 78 197 231 78 197 231 79 196 229 82 197 228 82 197 228 82 197 228 83 198 225 83 198 225 83 198 225 83 198 225 83 198 225 83 198 225 83 198 225 83 198 225 80 198 226 80 198 226 80 198 226 80 198 226 80 198 226 80 198 226 80 198 226 80 198 226 85 198 228 85 198 228 85 198 228 85 198 228 86 199 229 86 199 229 86 199 229 87 200 230 85 198 228 85 198 228 85 198 228 85 198 228 
1 123 160 0 122 159 2 122 157 2 120 156 1 120 154 1 118 153 1 118 151 2 116 150 1 116 147 1 116 147 1 114 146 0 113 145 1 111 144 2 111 144 1 110 143 1 110 143 1 109 137 1 109 137 1 109 137 1 109 137 0 108 136 0 108 136 0 108 136 0 107 135 0 107 135 0 107 135 0 107 135 0 107 135 0 107 135 0 107 135 0 107 135 0 107 135 0 105 134 0 105 134 0 105 134 0 105 134 0 105 134 0 105 134 0 105 134 0 105 134 0 105 134 0 105 134 0 105 134 0 104 133 0 104 133 0 103 132 0 103 132 0 103 132 0 102 129 0 102 129 0 100 128 0 99 128 0 98 127 0 98 127 0 98 127 2 97 127 1 96 126 1 96 126 1 96 126 1 96 124 0 96 121 0 96 121 0 96 120 0 95 119 0 94 126 5 103 132 5 93 117 69 135 147 111 153 152 133 155 152 138 154 154 141 158 166 159 164 170 174 177 184 179 182 187 172 173 178 169 168 173 174 173 178 177 175 178 171 169 172 162 163 168 168 171 178 171 178 184 169 180 186 161 179 183 153 174 179 137 162 166 122 150 154 131 149 159 131 149 159 133 152 159 134 153 160 137 156 162 139 158 162 140 159 163 141 160 164 155 168 174 164 177 183 174 187 193 180 193 199 179 192 198 175 188 194 173 186 192 172 185 191 177 190 196 181 194 200 179 192 198 171 184 190 169 182 188 172 185 191 170 183 189 164 177 183 157 171 180 156 169 178 150 160 169 144 153 162 157 164 172 177 180 187 180 180 188 169 169 177 161 159 160 175 169 171 191 182 185 199 187 191 199 187 191 197 188 191 199 193 195 202 200 201 212 211 209 216 216 216 219 220 222 213 217 220 212 217 221 206 213 219 186 195 202 176 186 195 196 201 204 206 209 216 209 216 226 188 203 210 193 214 215 199 220 213 225 233 222 229 223 211 202 230 216 219 218 216 232 218 231 201 229 241 111 216 222 22 180 192 1 164 197 25 171 222 2 178 215 2 178 215 1 179 215 1 179 215 0 180 215 0 180 215 0 181 215 0 181 215 0 182 216 0 182 216 0 182 216 0 182 216 0 182 216 0 182 216 0 182 216 0 182 216 0 184 218 0 184 218 0 184 218 0 184 218 1 185 219 1 185 219 2 186 220 2 186 220 5 185 222 3 185 222 0 187 220 0 189 221 0 189 219 1 188 219 5 188 219 7 188 219 12 191 224 13 190 224 16 190 224 20 190 225 23 190 224 
27 190 223 31 189 224 32 190 225 36 190 224 38 191 225 38 191 225 41 191 226 42 192 227 44 192 228 45 191 228 45 191 228 49 193 228 50 192 228 51 194 228 54 194 229 54 194 227 56 195 226 58 195 227 58 195 227 60 195 225 62 195 226 62 195 226 64 194 226 65 195 227 66 195 227 67 194 227 67 194 227 69 196 228 69 196 228 71 196 228 72 197 229 73 196 229 75 195 229 76 196 230 77 196 230 81 196 227 81 196 227 81 196 227 81 196 227 81 196 227 81 196 227 81 196 227 81 196 227 78 197 227 78 197 227 78 197 227 78 197 227 78 197 227 78 197 227 78 197 227 78 197 227 79 198 228 79 198 228 79 198 228 78 197 227 78 197 227 77 196 226 77 196 226 77 196 226 76 196 231 76 196 231 76 196 231 78 197 231 79 196 229 80 197 230 82 197 228 82 197 228 83 198 225 83 198 225 83 198 225 83 198 225 83 198 225 83 198 225 83 198 225 83 198 225 79 199 226 79 199 226 79 199 226 79 199 226 79 199 226 79 199 226 79 199 226 79 199 226 84 197 227 85 198 228 85 198 228 85 198 228 86 199 229 86 199 229 86 199 229 86 199 229 84 197 227 84 197 227 84 197 227 84 197 227 
3 124 155 2 123 154 2 121 153 1 120 152 1 118 151 2 116 150 1 115 149 0 114 148 0 116 144 0 116 144 0 114 143 0 113 142 0 112 142 0 111 141 0 110 140 0 109 140 0 110 138 0 109 137 0 109 137 0 108 137 0 107 136 0 107 136 1 106 136 1 106 136 1 107 133 1 107 133 1 107 133 1 107 133 1 107 133 1 107 133 1 107 133 1 107 133 0 103 134 0 103 134 0 103 134 0 103 134 0 103 134 0 103 134 0 103 134 0 103 134 0 103 130 0 103 130 0 103 130 0 102 129 0 102 129 0 102 129 0 101 128 0 101 128 0 98 125 0 98 125 0 98 125 0 98 125 0 98 125 0 98 125 0 98 125 0 98 125 0 97 124 0 97 124 0 97 124 0 97 124 0 97 124 0 97 124 0 97 124 0 97 124 1 97 122 0 95 123 8 96 120 73 140 156 110 149 154 125 143 145 133 142 149 142 150 163 162 161 167 165 164 170 175 174 180 168 167 173 167 166 172 178 177 183 177 176 182 184 183 189 182 187 191 172 179 185 170 179 184 169 182 188 152 170 174 140 161 166 138 162 166 125 150 155 128 149 154 135 156 161 138 162 166 137 161 165 136 161 165 137 162 166 131 159 162 124 152 155 143 161 165 157 175 179 178 193 198 189 202 208 179 192 198 166 177 183 167 178 184 178 187 194 176 187 193 178 189 195 177 188 194 174 185 191 173 184 190 171 182 188 162 173 179 151 162 168 144 163 178 136 158 172 138 162 174 125 149 159 133 156 162 160 177 184 163 174 180 169 178 185 168 168 176 182 180 185 195 189 191 200 191 192 202 193 194 205 199 201 203 201 206 199 199 207 210 208 211 219 219 221 219 220 224 215 219 222 213 218 222 203 211 214 195 204 209 197 208 212 197 209 205 200 212 208 205 216 212 211 220 217 217 221 220 221 223 222 222 222 222 222 222 222 212 212 212 210 215 218 202 216 217 203 221 223 176 214 217 116 200 210 19 168 190 0 186 215 3 179 216 3 179 216 2 180 216 2 180 216 1 181 216 1 181 216 0 182 216 0 182 216 0 181 215 0 181 215 0 182 216 0 182 216 0 183 217 0 183 217 0 183 217 0 183 217 2 185 219 2 185 219 2 185 219 2 185 219 2 185 219 2 185 219 2 185 219 2 185 219 1 188 221 1 188 221 1 188 221 1 188 221 1 188 221 1 188 221 1 188 221 1 188 221 8 191 225 10 190 225 11 189 225 14 188 225 18 187 226 
20 186 226 22 185 226 24 185 227 32 191 223 32 191 223 34 191 224 36 191 222 37 192 222 39 192 223 39 193 221 42 193 222 44 194 229 44 194 229 45 194 227 47 194 228 47 194 227 49 194 225 50 195 226 51 194 226 58 191 222 58 191 222 58 191 222 59 192 223 59 192 223 60 193 224 60 193 224 60 193 224 58 194 220 58 194 220 60 194 221 62 193 221 62 193 221 64 193 222 64 193 222 65 193 222 76 193 228 76 193 228 76 193 228 76 193 228 76 193 228 76 193 228 76 193 228 76 193 228 77 197 231 74 197 230 74 197 230 73 198 230 70 197 229 70 197 229 69 198 229 69 198 229 70 193 235 71 194 236 69 195 235 68 196 233 68 198 234 66 199 232 65 200 232 64 202 231 68 200 225 69 201 226 70 200 226 71 199 226 72 200 227 74 199 227 74 199 227 76 200 228 74 199 227 74 199 227 74 199 227 74 199 227 74 199 227 74 199 227 74 199 227 74 199 227 71 196 224 71 196 224 71 196 224 71 196 224 71 196 224 71 196 224 71 196 224 71 196 224 72 196 230 72 196 230 72 196 230 72 196 230 72 196 230 72 196 230 72 196 230 72 196 230 79 202 236 79 202 236 79 202 236 79 202 236 
3 124 155 2 123 154 2 121 153 1 120 152 1 118 151 2 116 150 1 115 149 0 114 148 0 116 144 0 115 144 0 114 143 0 112 142 0 111 141 0 111 141 0 109 140 0 109 140 0 109 137 0 109 137 0 108 137 0 108 137 0 107 136 1 106 136 1 106 136 0 105 135 0 106 132 0 106 132 0 106 132 0 106 132 0 106 132 0 106 132 0 106 132 0 106 132 0 103 134 0 103 134 0 103 134 0 103 134 0 103 134 0 103 134 0 103 134 0 103 134 0 103 130 0 103 130 0 102 129 0 102 129 0 102 129 0 101 128 0 101 128 0 101 128 0 98 125 0 98 125 0 98 125 0 98 125 0 98 125 0 98 125 0 98 125 0 98 125 0 97 124 0 97 124 0 97 124 0 97 124 0 97 124 0 97 124 0 97 124 0 97 124 1 97 122 0 95 123 8 96 120 74 141 157 112 151 156 129 147 149 137 146 153 147 155 168 166 165 171 167 166 172 177 176 182 169 168 174 169 168 174 177 176 182 172 171 177 174 173 179 185 190 194 178 183 189 170 179 184 168 181 187 159 177 181 143 164 169 129 153 157 118 143 148 127 148 153 134 155 160 136 160 164 136 160 164 136 161 165 137 162 166 131 159 162 124 152 155 138 156 160 151 169 173 173 188 193 186 201 206 181 194 200 170 181 187 167 178 184 172 183 189 177 188 194 179 190 196 177 188 194 173 184 190 171 182 188 168 179 185 158 169 175 146 157 163 137 155 169 126 145 159 129 151 162 123 148 155 129 152 158 145 162 169 147 160 166 161 170 177 169 169 177 183 181 186 196 192 193 203 194 195 207 198 199 209 205 206 210 208 213 206 206 214 210 208 211 219 219 221 219 220 224 215 219 222 213 218 222 203 211 214 195 204 209 197 208 212 199 210 206 201 212 208 207 216 213 213 219 217 217 221 220 220 222 221 221 221 221 220 220 220 214 212 213 212 216 219 204 215 217 204 219 222 180 213 218 124 204 215 24 170 193 0 184 214 3 179 216 3 179 216 2 180 216 2 180 216 1 181 216 1 181 216 0 182 216 0 182 216 0 181 215 0 181 215 0 182 216 0 182 216 0 183 217 0 183 217 0 183 217 0 183 217 2 185 219 2 185 219 2 185 219 2 185 219 2 185 219 2 185 219 2 185 219 2 185 219 1 188 221 1 188 221 1 188 221 1 188 221 1 188 221 1 188 221 1 188 221 1 188 221 4 191 224 6 190 224 8 191 225 11 189 225 14 188 225 
16 188 226 19 187 226 19 187 226 30 190 224 30 190 224 32 191 223 32 191 221 34 191 222 37 192 222 38 193 223 38 193 221 42 192 225 42 192 225 43 192 224 44 191 224 45 193 223 47 192 223 48 193 222 49 192 222 58 191 222 59 192 223 59 192 223 59 192 223 60 193 224 60 193 224 60 193 224 61 194 225 59 194 223 59 194 223 60 194 223 61 195 224 63 194 224 64 193 224 65 194 225 65 194 225 71 196 228 71 196 228 71 196 228 71 196 228 71 196 228 71 196 228 71 196 228 71 196 228 73 196 229 73 196 229 72 197 229 71 196 228 69 196 228 68 197 228 67 196 227 67 196 227 67 193 233 67 193 233 66 194 231 66 196 232 64 197 230 64 199 229 64 199 229 62 200 229 65 196 224 65 196 224 66 195 224 68 196 225 68 196 225 70 195 225 71 196 226 72 195 226 72 197 227 72 197 227 72 197 227 72 197 227 72 197 227 72 197 227 72 197 227 72 197 227 71 196 226 71 196 226 71 196 226 71 196 226 71 196 226 71 196 226 71 196 226 71 196 226 72 197 229 72 197 229 72 197 229 72 197 229 72 197 229 72 197 229 72 197 229 72 197 229 75 198 231 75 198 231 75 198 231 75 198 231 
2 123 154 2 123 154 2 121 153 1 120 152 0 117 150 1 115 149 0 114 148 0 114 148 0 115 144 0 114 143 0 113 143 0 112 142 0 111 141 0 109 140 0 109 140 0 108 139 0 109 137 0 108 137 0 108 137 0 107 136 0 107 136 0 105 135 1 104 135 1 104 135 0 106 132 0 106 132 0 106 132 0 106 132 0 106 132 0 106 132 0 106 132 0 106 132 1 102 132 1 102 132 1 102 132 1 102 132 1 102 132 1 102 132 1 102 132 1 102 132 1 102 130 0 101 129 0 101 129 0 101 129 0 100 128 0 100 128 0 100 128 0 100 128 0 98 125 0 98 125 0 98 125 0 98 125 0 98 125 0 98 125 0 98 125 0 98 125 0 97 124 0 97 124 0 97 124 0 97 124 0 97 124 0 97 124 0 97 124 0 97 124 1 97 122 0 95 123 8 96 120 75 142 158 114 153 158 133 151 153 144 153 160 155 163 176 172 171 176 172 171 176 181 180 185 175 174 179 175 174 179 181 180 185 169 168 173 165 164 169 186 189 194 183 188 194 173 180 186 169 180 186 168 183 188 144 163 169 113 137 141 109 132 138 124 145 150 131 152 157 134 158 162 134 158 162 134 159 163 136 161 165 130 158 161 123 151 154 132 151 155 143 161 165 161 179 183 178 193 198 181 194 200 172 185 191 167 178 184 166 177 183 177 188 194 179 190 196 177 188 194 172 183 189 170 181 187 167 178 184 156 167 173 144 155 161 130 146 159 113 133 144 113 136 144 115 140 147 119 142 148 125 144 150 130 145 152 148 159 165 167 167 175 181 180 185 196 192 193 203 197 197 208 202 202 215 211 212 216 215 220 214 214 222 210 208 211 219 219 221 219 220 224 215 219 222 213 218 222 203 211 214 195 204 209 197 208 212 201 210 207 203 212 209 209 215 213 212 218 216 216 220 219 218 220 219 217 219 218 217 217 217 217 213 214 217 218 222 206 214 217 205 216 220 185 214 220 133 209 222 33 173 198 0 180 212 3 179 216 3 179 216 2 180 216 2 180 216 1 181 216 1 181 216 0 182 216 0 182 216 0 181 215 0 181 215 0 182 216 0 182 216 0 183 217 0 183 217 0 183 217 0 183 217 2 185 219 2 185 219 2 185 219 2 185 219 2 185 219 2 185 219 2 185 219 2 185 219 0 187 220 0 187 220 0 187 220 0 187 220 0 187 220 0 187 220 0 187 220 0 187 220 2 191 223 3 192 224 4 191 224 6 190 224 10 190 225 
11 189 225 12 188 225 15 189 226 23 190 224 25 189 224 26 191 223 28 191 222 30 190 222 31 192 221 33 192 222 33 192 221 40 191 222 40 191 222 41 192 223 42 191 221 43 191 219 44 192 220 46 191 218 46 191 218 55 192 224 56 193 225 56 193 225 56 193 225 57 194 226 57 194 226 57 194 226 58 195 227 57 195 224 57 195 224 60 195 225 60 195 225 61 194 225 64 194 226 64 194 226 64 194 226 64 200 226 64 200 226 64 200 226 64 200 226 64 200 226 64 200 226 64 200 226 64 200 226 69 194 224 67 195 224 67 195 224 66 195 224 64 195 223 64 195 223 61 195 222 61 195 222 62 192 228 62 192 228 61 194 227 61 194 227 60 195 225 59 197 225 59 197 225 59 197 225 61 192 222 61 192 222 61 192 222 63 192 223 64 191 223 64 191 223 67 192 224 67 192 224 70 195 227 70 195 227 70 195 227 70 195 227 70 195 227 70 195 227 70 195 227 70 195 227 72 197 229 72 197 229 72 197 229 72 197 229 72 197 229 72 197 229 72 197 229 72 197 229 73 198 228 73 198 228 73 198 228 73 198 228 73 198 228 73 198 228 73 198 228 73 198 228 71 194 225 71 194 225 71 194 225 71 194 225 
2 123 154 1 122 153 1 120 152 0 119 151 0 117 150 1 115 149 0 114 148 0 114 148 0 114 143 0 113 143 0 112 142 0 111 141 1 110 141 0 109 140 0 107 139 0 107 139 0 108 137 0 108 137 0 107 136 0 107 136 0 105 135 1 104 135 1 104 135 1 104 135 0 104 131 0 104 131 0 104 131 0 104 131 0 104 131 0 104 131 0 104 131 0 104 131 0 101 131 0 101 131 0 101 131 0 101 131 0 101 131 0 101 131 0 101 131 0 101 131 0 101 129 0 101 129 0 101 129 0 100 128 0 100 128 0 100 128 0 99 127 0 99 127 0 98 125 0 98 125 0 98 125 0 98 125 0 98 125 0 98 125 0 98 125 0 98 125 0 97 124 0 97 124 0 97 124 0 97 124 0 97 124 0 97 124 0 97 124 0 97 124 1 97 122 0 94 122 8 96 120 76 143 159 116 155 160 137 155 157 149 158 165 161 169 182 176 175 180 176 175 180 186 185 190 183 182 187 187 186 191 192 191 196 176 175 180 168 167 172 183 184 189 186 189 196 176 183 189 167 178 184 169 184 189 136 155 161 94 115 120 99 122 128 121 142 147 128 149 154 131 155 159 132 156 160 132 157 161 134 159 163 129 157 160 122 150 153 130 149 153 136 155 159 149 167 171 163 181 185 173 188 193 173 186 192 166 179 185 161 174 180 174 185 191 177 188 194 176 187 193 173 184 190 172 183 189 171 182 188 161 172 178 150 161 167 131 145 154 112 131 138 101 121 128 99 122 128 105 129 133 115 136 141 122 139 146 134 147 155 158 161 168 174 175 179 190 188 189 200 194 194 208 202 202 214 212 213 217 218 222 215 218 225 210 208 211 219 219 221 219 220 224 215 219 222 213 218 222 203 211 214 195 204 209 197 208 212 206 210 209 208 212 211 211 215 214 213 217 216 216 218 217 215 217 216 214 216 215 213 215 214 217 213 214 218 219 223 206 214 217 204 213 218 187 214 221 141 213 227 40 176 202 0 177 211 3 179 216 3 179 216 2 180 216 2 180 216 1 181 216 1 181 216 0 182 216 0 182 216 0 181 215 0 181 215 0 182 216 0 182 216 0 183 217 0 183 217 0 183 217 0 183 217 2 185 219 2 185 219 2 185 219 2 185 219 2 185 219 2 185 219 2 185 219 2 185 219 0 187 220 0 187 220 0 187 220 0 187 220 0 187 220 0 187 220 0 187 220 0 187 220 0 192 223 0 192 223 1 191 223 2 191 223 4 191 224 6 190 224 
6 190 224 8 191 225 17 190 224 17 190 224 20 190 223 21 190 223 22 191 222 24 192 221 25 193 222 27 192 222 38 193 223 38 193 223 39 192 223 40 194 222 42 193 220 42 193 220 44 194 219 44 194 219 50 193 227 50 193 227 51 194 228 51 194 228 51 194 228 52 195 229 52 195 229 52 195 229 52 195 227 54 194 227 55 195 228 56 195 228 56 195 228 58 195 229 60 194 229 60 194 229 60 198 226 60 198 226 60 198 226 60 198 226 60 198 226 60 198 226 60 198 226 60 198 226 60 194 223 60 194 223 59 193 222 58 193 222 56 194 222 55 193 221 54 194 221 54 194 221 53 192 225 53 192 225 53 192 223 52 193 223 53 194 222 53 194 221 54 195 222 54 195 222 57 192 222 57 192 222 58 191 222 59 192 223 61 191 223 61 191 223 63 192 224 63 192 224 65 194 226 65 194 226 65 194 226 65 194 226 65 194 226 65 194 226 65 194 226 65 194 226 69 198 230 69 198 230 69 198 230 69 198 230 69 198 230 69 198 230 69 198 230 69 198 230 69 198 227 69 198 227 69 198 227 69 198 227 69 198 227 69 198 227 69 198 227 69 198 227 66 194 223 66 194 223 66 194 223 66 194 223 
1 122 153 1 122 153 1 120 152 0 119 151 0 117 150 0 114 148 0 113 147 0 113 147 0 113 143 0 112 142 1 112 142 0 111 141 0 109 140 0 107 139 0 107 139 1 106 138 0 107 136 0 107 136 0 107 136 0 105 135 1 104 135 1 104 135 2 102 134 2 102 134 1 102 130 1 102 130 1 102 130 1 102 130 1 102 130 1 102 130 1 102 130 1 102 130 1 100 129 1 100 129 1 100 129 1 100 129 1 100 129 1 100 129 1 100 129 1 100 129 1 100 129 1 100 129 0 99 128 0 99 128 0 98 127 0 98 127 0 98 127 0 98 127 0 98 125 0 98 125 0 98 125 0 98 125 0 98 125 0 98 125 0 98 125 0 98 125 0 97 124 0 97 124 0 97 124 0 97 124 0 97 124 0 97 124 0 97 124 0 97 124 1 97 122 0 94 122 7 95 119 74 141 157 115 154 159 137 155 157 152 161 168 165 173 186 179 179 181 180 180 182 193 193 195 193 193 195 199 199 201 205 205 207 189 189 191 182 182 184 176 177 182 186 186 194 183 188 194 168 177 184 164 177 183 125 142 149 77 96 102 94 114 121 117 138 143 124 145 150 128 152 156 129 153 157 130 155 159 132 157 161 128 156 159 121 149 152 130 151 154 131 152 155 136 155 159 147 165 169 159 177 181 168 183 188 165 180 185 160 173 179 169 180 186 172 183 189 174 185 191 173 184 190 175 186 192 176 187 193 169 180 186 159 170 176 137 150 156 119 137 141 93 114 119 81 105 109 91 115 119 111 132 137 125 144 150 125 139 148 149 154 160 166 167 171 183 181 182 193 189 188 202 198 197 210 208 209 214 215 219 211 216 222 210 208 211 219 219 221 219 220 224 215 219 222 213 218 222 203 211 214 195 204 209 197 208 212 211 211 211 212 212 212 213 215 214 215 217 216 215 217 216 213 215 214 211 213 212 207 211 210 212 210 211 213 217 220 204 212 215 203 212 217 188 213 220 143 212 227 42 176 203 0 176 211 3 179 216 3 179 216 2 180 216 2 180 216 1 181 216 1 181 216 0 182 216 0 182 216 0 181 215 0 181 215 0 182 216 0 182 216 0 183 217 0 183 217 0 183 217 0 183 217 2 185 219 2 185 219 2 185 219 2 185 219 2 185 219 2 185 219 2 185 219 2 185 219 0 187 220 0 187 220 0 187 220 0 187 220 0 187 220 0 187 220 0 187 220 0 187 220 0 191 222 0 191 222 0 191 222 0 190 222 1 191 223 2 191 223 3 192 224 
3 192 224 10 189 222 11 190 223 12 189 223 13 190 223 16 191 222 18 191 223 18 191 221 18 191 221 33 196 227 35 196 225 35 196 225 36 195 224 37 196 225 38 196 223 40 196 221 41 197 222 40 193 225 40 193 225 40 193 225 41 194 226 41 194 226 41 194 226 42 195 227 42 195 227 44 194 227 44 194 227 46 195 228 47 194 228 47 194 228 50 194 229 50 194 229 51 193 229 55 194 225 55 194 225 55 194 225 55 194 225 55 194 225 55 194 225 55 194 225 55 194 225 51 192 222 49 192 222 49 192 222 47 192 221 47 192 221 44 192 220 43 193 220 43 193 220 41 192 223 41 192 223 41 192 223 42 193 222 42 193 220 43 193 220 44 194 219 44 194 219 51 194 224 54 195 225 54 195 225 55 194 225 56 195 226 57 194 226 59 194 226 60 195 227 56 193 225 56 193 225 56 193 225 56 193 225 56 193 225 56 193 225 56 193 225 56 193 225 60 197 229 60 197 229 60 197 229 60 197 229 60 197 229 60 197 229 60 197 229 60 197 229 60 198 226 60 198 226 60 198 226 60 198 226 60 198 226 60 198 226 60 198 226 60 198 226 63 197 226 63 197 226 63 197 226 63 197 226 
1 122 153 0 121 152 0 119 151 0 118 150 0 116 149 0 114 148 0 113 147 0 113 147 1 112 142 1 112 142 0 111 141 0 109 140 1 108 140 0 107 139 1 106 138 1 106 138 0 107 136 0 107 136 0 105 135 1 104 135 0 103 134 2 102 134 2 102 134 3 102 134 0 101 129 0 101 129 0 101 129 0 101 129 0 101 129 0 101 129 0 101 129 0 101 129 0 100 126 0 100 126 0 100 126 0 100 126 0 100 126 0 100 126 0 100 126 0 100 126 0 99 128 0 99 128 0 99 128 0 98 127 0 98 127 0 98 127 0 97 126 0 97 126 0 98 125 0 98 125 0 98 125 0 98 125 0 98 125 0 98 125 0 98 125 0 98 125 0 97 124 0 97 124 0 97 124 0 97 124 0 97 124 0 97 124 0 97 124 0 97 124 2 98 123 0 94 122 6 94 118 72 139 155 113 152 157 135 153 155 150 159 166 164 172 185 180 180 180 184 184 184 199 199 199 200 200 200 205 205 205 213 213 213 200 200 200 197 197 197 178 177 183 184 184 192 188 191 198 172 179 187 163 174 180 121 136 143 70 89 95 93 112 119 113 134 139 121 142 147 125 149 153 127 151 155 128 153 157 131 156 160 126 154 157 121 149 152 129 150 153 128 149 152 129 150 153 136 155 159 149 167 171 160 178 182 162 177 182 155 170 175 163 174 180 167 178 184 169 180 186 171 182 188 174 185 191 177 188 194 171 182 188 161 172 178 141 152 156 127 142 145 91 111 112 73 97 99 81 106 110 103 127 131 124 144 151 121 138 146 143 148 154 158 162 165 176 176 176 186 185 183 195 194 192 204 204 204 207 211 214 207 212 218 210 208 211 219 219 221 219 220 224 215 219 222 213 218 222 203 211 214 195 204 209 197 208 212 214 212 213 215 213 214 216 214 215 215 215 215 213 215 214 210 212 211 205 209 208 203 207 206 206 208 207 206 214 216 199 210 212 200 214 217 183 212 218 136 208 222 38 172 199 0 178 213 3 179 216 3 179 216 2 180 216 2 180 216 1 181 216 1 181 216 0 182 216 0 182 216 0 181 215 0 181 215 0 182 216 0 182 216 0 183 217 0 183 217 0 183 217 0 183 217 2 185 219 2 185 219 2 185 219 2 185 219 2 185 219 2 185 219 2 185 219 2 185 219 0 186 219 0 186 219 0 186 219 0 186 219 0 186 219 0 186 219 0 186 219 0 186 219 0 189 221 0 189 221 0 189 221 0 190 222 0 190 222 0 190 222 1 191 223 
1 191 223 4 188 224 4 188 222 5 189 223 7 190 222 10 190 223 10 191 222 12 191 221 12 191 221 25 195 228 25 195 228 26 195 228 27 196 227 28 196 225 30 195 225 31 196 224 31 196 224 27 192 222 27 192 222 27 192 222 28 193 223 28 193 223 28 193 223 29 194 224 29 194 224 33 193 227 33 193 227 34 192 227 35 193 228 36 193 228 38 192 228 39 193 229 40 192 229 44 191 225 44 191 225 44 191 225 44 191 225 44 191 225 44 191 225 44 191 225 44 191 225 38 191 223 38 191 223 37 192 223 35 192 223 34 191 222 33 192 222 32 191 221 31 192 221 27 192 224 27 192 224 29 192 223 29 192 223 31 192 221 33 192 221 33 192 221 33 192 221 45 196 227 46 197 228 47 196 228 47 196 228 49 196 229 51 195 229 51 195 229 52 196 230 48 192 226 48 192 226 48 192 226 48 192 226 48 192 226 48 192 226 48 192 226 48 192 226 51 195 229 51 195 229 51 195 229 51 195 229 51 195 229 51 195 229 51 195 229 51 195 229 50 195 226 50 195 226 50 195 226 50 195 226 50 195 226 50 195 226 50 195 226 50 195 226 54 197 229 54 197 229 54 197 229 54 197 229 
0 121 152 0 121 152 0 119 151 0 118 150 0 116 149 0 114 148 0 113 147 0 112 146 1 112 142 0 111 141 1 110 141 1 108 140 0 107 139 2 107 139 1 106 138 2 105 138 0 105 135 0 105 135 0 105 135 1 104 135 2 102 134 2 102 134 2 101 133 2 101 133 0 99 128 0 99 128 0 99 128 0 99 128 0 99 128 0 99 128 0 99 128 0 99 128 0 98 125 0 98 125 0 98 125 0 98 125 0 98 125 0 98 125 0 98 125 0 98 125 1 99 128 1 99 128 0 98 127 0 98 127 0 98 127 0 97 126 0 97 126 0 97 126 0 98 125 0 98 125 0 98 125 0 98 125 0 98 125 0 98 125 0 98 125 0 98 125 0 97 124 0 97 124 0 97 124 0 97 124 0 97 124 0 97 124 0 97 124 0 97 124 3 99 124 0 94 122 4 92 116 69 136 152 109 148 153 132 150 152 147 156 163 161 169 182 180 180 180 186 186 186 203 203 203 202 202 202 204 204 204 212 212 212 204 204 204 204 204 204 187 186 192 184 183 191 191 194 201 175 182 190 164 175 181 125 140 147 74 91 98 94 113 120 110 131 136 118 139 144 123 147 151 125 149 153 127 152 156 130 155 159 126 154 157 120 148 151 122 146 148 125 149 151 128 149 152 131 152 155 143 162 166 155 173 177 154 172 176 148 163 168 158 169 175 162 173 179 164 175 181 165 176 182 169 180 186 171 182 188 164 175 181 155 166 172 139 149 150 126 140 141 92 110 110 77 101 101 78 104 105 89 113 117 117 137 144 123 142 149 140 147 153 157 161 164 174 176 175 184 183 181 193 192 190 201 203 202 205 209 212 202 209 215 210 208 211 219 219 221 219 220 224 215 219 222 213 218 222 203 211 214 195 204 209 197 208 212 218 212 214 218 214 215 218 214 215 216 214 215 213 213 213 209 211 210 203 207 206 201 205 204 197 206 203 196 210 210 191 209 209 197 215 217 179 210 215 127 201 214 32 168 194 0 182 216 3 179 216 3 179 216 2 180 216 2 180 216 1 181 216 1 181 216 0 182 216 0 182 216 0 181 215 0 181 215 0 182 216 0 182 216 0 183 217 0 183 217 0 183 217 0 183 217 2 185 219 2 185 219 2 185 219 2 185 219 2 185 219 2 185 219 2 185 219 2 185 219 0 186 219 0 186 219 0 186 219 0 186 219 0 186 219 0 186 219 0 186 219 0 186 219 0 187 220 0 187 220 0 187 220 0 189 221 0 189 221 0 190 222 0 190 222 0 190 222 0 188 224 
0 189 223 0 188 223 2 189 222 3 190 223 6 191 222 6 191 221 8 191 222 11 191 226 13 191 227 13 192 225 14 191 225 17 191 225 17 192 223 18 191 223 18 191 223 15 190 219 15 190 219 16 191 220 16 191 220 16 191 220 17 192 221 17 192 221 17 192 221 21 191 226 21 191 226 23 191 227 24 191 227 25 192 228 27 191 228 27 191 228 28 190 228 28 191 226 28 191 226 28 191 226 28 191 226 28 191 226 28 191 226 28 191 226 28 191 226 28 192 227 28 192 227 27 191 226 25 192 226 23 192 225 23 192 225 22 192 225 22 192 225 15 192 226 16 193 227 18 192 226 19 192 224 22 192 225 23 192 223 23 192 223 25 193 222 34 195 224 36 195 225 36 195 225 37 194 225 40 195 226 40 195 226 41 194 226 42 195 227 39 194 225 39 194 225 39 194 225 39 194 225 39 194 225 39 194 225 39 194 225 39 194 225 40 195 226 40 195 226 40 195 226 40 195 226 40 195 226 40 195 226 40 195 226 40 195 226 39 193 227 39 193 227 39 193 227 39 193 227 39 193 227 39 193 227 39 193 227 39 193 227 45 195 230 45 195 230 45 195 230 45 195 230 
0 121 152 0 121 152 0 119 151 0 118 150 0 116 149 0 113 147 0 113 147 0 112 146 1 112 142 1 110 141 1 110 141 1 108 140 2 107 139 1 106 138 2 105 138 1 104 137 0 105 135 0 105 135 1 104 135 0 103 134 2 102 134 3 102 134 2 101 133 2 101 133 0 99 128 0 99 128 0 99 128 0 99 128 0 99 128 0 99 128 0 99 128 0 99 128 0 98 125 0 98 125 0 98 125 0 98 125 0 98 125 0 98 125 0 98 125 0 98 125 1 99 128 1 99 128 0 98 127 0 98 127 0 97 126 0 97 126 0 97 126 0 97 126 0 98 125 0 98 125 0 98 125 0 98 125 0 98 125 0 98 125 0 98 125 0 98 125 0 97 124 0 97 124 0 97 124 0 97 124 0 97 124 0 97 124 0 97 124 0 97 124 3 99 124 0 94 122 4 92 116 68 135 151 107 146 151 129 147 149 145 154 161 159 167 180 181 181 181 188 188 188 205 205 205 201 201 201 201 201 201 208 208 208 202 202 202 205 205 205 198 195 202 184 183 191 192 195 202 180 184 193 167 178 184 133 146 154 79 96 103 95 114 121 109 130 135 117 138 143 121 145 149 124 148 152 126 151 155 129 154 158 125 153 156 119 147 150 118 142 144 123 147 149 129 150 153 132 153 156 143 162 166 153 171 175 150 168 172 141 159 163 156 167 173 159 170 176 161 172 178 161 172 178 163 174 180 164 175 181 157 168 174 147 158 164 135 145 144 124 136 136 92 110 110 85 109 109 78 104 105 75 100 104 107 130 136 125 145 154 141 148 154 157 162 165 174 176 175 185 184 182 193 192 190 200 202 201 203 208 211 201 208 214 210 208 211 219 219 221 219 220 224 215 219 222 213 218 222 203 211 214 195 204 209 197 208 212 221 212 215 219 213 215 219 215 216 216 214 215 212 212 212 208 210 209 202 206 205 198 204 202 192 204 200 190 209 207 189 209 208 196 216 217 175 210 214 120 196 209 27 165 191 0 183 217 3 179 216 3 179 216 2 180 216 2 180 216 1 181 216 1 181 216 0 182 216 0 182 216 0 181 215 0 181 215 0 182 216 0 182 216 0 183 217 0 183 217 0 183 217 0 183 217 2 185 219 2 185 219 2 185 219 2 185 219 2 185 219 2 185 219 2 185 219 2 185 219 0 186 219 0 186 219 0 186 219 0 186 219 0 186 219 0 186 219 0 186 219 0 186 219 2 186 220 2 186 220 2 186 220 0 187 220 1 188 221 0 189 221 1 190 222 0 190 222 0 187 223 
0 188 224 0 188 222 0 189 223 1 190 222 3 190 221 3 190 221 4 191 222 3 187 225 3 187 225 4 186 223 5 187 224 7 187 222 8 187 220 9 188 221 9 188 221 8 189 218 8 189 218 8 189 218 9 190 219 9 190 219 10 191 220 10 191 220 10 191 220 13 190 223 16 190 224 16 190 224 17 190 224 18 191 225 20 190 225 21 189 225 22 190 226 13 191 227 13 191 227 13 191 227 13 191 227 13 191 227 13 191 227 13 191 227 13 191 227 22 191 230 22 191 230 22 191 230 19 191 229 18 192 229 18 192 229 15 191 228 15 191 228 9 193 229 9 193 227 10 193 227 13 193 226 15 192 226 18 192 226 19 192 226 19 192 224 28 193 221 28 193 221 29 193 221 30 194 222 32 193 222 33 192 222 34 193 223 34 193 223 35 194 224 35 194 224 35 194 224 35 194 224 35 194 224 35 194 224 35 194 224 35 194 224 34 193 223 34 193 223 34 193 223 34 193 223 34 193 223 34 193 223 34 193 223 34 193 223 33 191 228 33 191 228 33 191 228 33 191 228 33 191 228 33 191 228 33 191 228 33 191 228 36 192 230 36 192 230 36 192 230 36 192 230 
1 121 158 2 120 158 1 119 155 1 117 154 2 116 152 1 115 151 1 114 148 0 113 147 1 111 144 1 110 143 1 110 143 1 108 140 2 107 137 1 106 136 2 106 135 1 105 134 1 106 136 1 106 136 0 105 135 1 104 135 2 102 134 1 101 133 1 100 132 1 100 132 0 100 128 0 100 128 0 100 128 0 100 128 0 100 128 0 100 128 0 100 128 0 100 128 0 98 127 0 98 127 0 98 127 0 98 127 0 98 127 0 98 127 0 98 127 0 98 127 1 99 126 1 99 126 1 99 126 1 99 126 1 99 126 1 99 126 1 99 126 1 99 126 1 96 124 1 96 124 1 96 124 1 96 124 1 96 124 1 96 124 1 96 124 1 96 124 1 96 124 1 96 124 1 96 124 1 96 124 1 96 124 1 96 124 1 96 124 1 96 124 11 108 127 19 110 139 8 87 120 84 141 161 116 147 150 123 138 133 147 154 160 150 157 176 182 186 189 190 191 195 201 199 204 208 203 209 210 205 211 207 205 210 205 206 210 204 208 211 203 204 209 196 196 204 188 191 200 187 191 202 168 181 190 121 141 152 78 108 118 85 119 128 94 124 135 99 129 140 110 138 149 121 145 157 127 149 160 130 150 159 129 147 157 128 145 153 128 147 154 124 143 150 128 145 153 136 153 161 141 155 164 140 153 162 144 157 166 153 163 173 158 169 175 155 166 172 158 171 179 159 172 180 149 163 172 142 159 169 138 155 165 129 146 156 129 144 151 101 118 125 95 116 121 100 124 128 91 112 117 91 108 115 114 127 135 134 143 152 135 144 149 160 168 170 182 184 183 191 190 188 200 199 197 203 201 202 200 201 205 203 206 213 216 214 217 211 211 213 211 212 216 213 217 220 209 214 218 199 207 210 195 204 209 199 210 214 215 217 216 215 215 215 217 213 214 215 210 214 214 209 215 209 208 213 204 209 213 201 209 212 182 211 209 193 207 208 195 200 206 187 205 215 150 212 225 76 191 210 13 172 201 0 179 215 4 178 215 4 178 215 4 178 215 2 178 215 1 179 215 1 179 215 0 180 215 0 180 215 0 182 216 0 182 216 0 182 216 0 182 216 0 182 216 0 182 216 0 182 216 0 182 216 0 183 217 0 183 217 0 183 217 0 183 217 1 184 218 1 184 218 1 184 218 2 185 219 1 185 219 1 185 219 1 185 219 1 185 219 1 185 219 1 185 219 1 185 219 1 185 219 0 188 220 0 188 220 0 188 220 0 188 220 0 188 220 0 188 220 0 188 220 
0 188 220 0 189 221 0 189 221 0 189 221 0 189 221 0 189 221 0 189 221 0 189 221 0 189 221 1 188 223 1 188 223 1 188 223 1 188 223 1 188 223 1 188 223 1 188 223 1 188 223 2 189 224 2 189 224 2 189 224 2 189 224 2 189 224 2 189 224 2 189 224 2 189 224 2 189 224 2 189 224 2 189 224 2 189 224 2 189 224 2 189 224 2 189 224 2 189 224 2 189 224 2 189 224 2 189 224 2 189 224 2 189 224 2 189 224 2 189 224 2 189 224 2 189 224 2 189 224 2 189 224 2 189 224 2 189 224 2 189 224 2 189 224 2 189 224 3 190 225 3 190 225 3 190 225 3 190 225 3 190 225 3 190 225 3 190 225 3 190 225 13 191 221 13 191 221 13 191 221 13 191 221 13 191 221 13 191 221 13 191 221 13 191 221 11 189 219 11 189 219 11 189 219 11 189 219 11 189 219 11 189 219 11 189 219 11 189 219 11 189 219 11 189 219 11 189 219 11 189 219 11 189 219 11 189 219 11 189 219 11 189 219 11 188 221 11 188 221 11 188 221 11 188 221 11 188 221 11 188 221 11 188 221 11 188 221 17 195 225 17 195 225 17 195 225 17 195 225 
2 122 159 1 121 158 1 119 155 1 117 154 0 117 152 1 115 151 0 114 148 0 113 147 1 111 144 0 110 143 1 110 143 1 108 140 0 108 137 2 107 137 1 106 135 2 106 135 1 106 136 1 106 136 0 105 135 1 104 135 2 102 134 1 101 133 1 100 132 1 100 132 0 100 128 0 100 128 0 100 128 0 100 128 0 100 128 0 100 128 0 100 128 0 100 128 0 98 127 0 98 127 0 98 127 0 98 127 0 98 127 0 98 127 0 98 127 0 98 127 1 99 126 1 99 126 1 99 126 1 99 126 1 99 126 1 99 126 1 99 126 1 99 126 1 96 124 1 96 124 1 96 124 1 96 124 1 96 124 1 96 124 1 96 124 1 96 124 1 96 124 1 96 124 1 96 124 1 96 124 1 96 124 1 96 124 1 96 124 1 96 124 1 100 119 4 95 122 8 85 115 77 134 153 105 140 142 120 139 135 145 156 160 154 163 180 182 186 187 191 192 194 202 200 203 209 204 208 210 205 209 207 205 208 206 207 209 205 209 210 205 206 211 201 201 209 194 197 206 184 188 199 168 181 190 114 134 143 79 109 117 90 124 133 89 123 133 94 127 136 104 134 144 113 142 150 121 145 155 125 148 156 127 147 154 127 147 154 123 144 149 124 145 150 129 148 154 134 153 159 134 151 158 132 147 154 137 152 159 147 162 169 149 162 168 145 160 165 149 164 169 148 165 172 140 157 165 134 153 160 129 149 158 120 140 149 121 140 146 100 121 126 91 115 119 94 119 123 88 112 116 87 106 112 105 120 127 128 138 147 135 144 149 160 168 170 182 184 183 192 191 189 201 200 198 204 202 203 202 203 207 204 207 214 216 214 217 212 212 214 211 212 216 213 217 220 210 215 219 200 208 211 196 205 210 197 208 212 210 214 213 211 213 212 211 211 211 210 208 211 207 206 211 203 207 210 198 206 209 196 207 209 182 203 204 189 198 203 194 198 207 184 208 220 138 205 221 65 184 206 12 173 202 0 180 216 4 178 215 4 178 215 4 178 215 2 178 215 1 179 215 1 179 215 0 180 215 0 180 215 0 182 216 0 182 216 0 182 216 0 182 216 0 182 216 0 182 216 0 182 216 0 182 216 0 182 216 0 183 217 0 183 217 0 183 217 1 184 218 1 184 218 1 184 218 1 184 218 1 185 219 1 185 219 1 185 219 1 185 219 1 185 219 1 185 219 1 185 219 1 185 219 0 187 220 0 187 220 0 187 220 0 187 220 0 187 220 0 187 220 0 187 220 0 187 220 
0 189 221 0 189 221 0 189 221 0 189 221 0 189 221 0 189 221 0 189 221 0 189 221 1 188 223 1 188 223 1 188 223 1 188 223 1 188 223 1 188 223 1 188 223 1 188 223 2 189 224 2 189 224 2 189 224 2 189 224 2 189 224 2 189 224 2 189 224 2 189 224 2 189 224 2 189 224 2 189 224 2 189 224 2 189 224 2 189 224 2 189 224 2 189 224 2 189 224 2 189 224 2 189 224 2 189 224 2 189 224 2 189 224 2 189 224 2 189 224 2 189 224 2 189 224 2 189 224 2 189 224 2 189 224 2 189 224 2 189 224 2 189 224 3 190 225 3 190 225 3 190 225 3 190 225 3 190 225 3 190 225 3 190 225 3 190 225 10 191 222 10 191 222 10 191 222 10 191 222 10 191 222 10 191 222 10 191 222 10 191 222 9 190 221 9 190 221 9 190 221 9 190 221 9 190 221 9 190 221 9 190 221 9 190 221 9 190 221 9 190 221 9 190 221 9 190 221 9 190 221 9 190 221 9 190 221 9 190 221 9 189 224 9 189 224 9 189 224 9 189 224 9 189 224 9 189 224 9 189 224 9 189 224 10 191 222 10 191 222 10 191 222 10 191 222 
2 122 159 1 121 158 1 121 156 0 118 154 0 117 152 0 116 151 0 114 148 0 114 148 1 111 144 1 111 144 0 110 143 0 109 140 1 109 138 0 108 137 1 106 135 1 106 135 1 106 136 1 106 136 0 105 135 1 104 135 2 102 134 1 101 133 1 100 132 1 100 132 0 98 127 0 98 127 0 98 127 0 98 127 0 98 127 0 98 127 0 98 127 0 98 127 0 98 127 0 98 127 0 98 127 0 98 127 0 98 127 0 98 127 0 98 127 0 98 127 0 98 125 0 98 125 0 98 125 0 98 125 0 98 125 0 98 125 0 98 125 0 98 125 1 96 124 1 96 124 1 96 124 1 96 124 1 96 124 1 96 124 1 96 124 1 96 124 1 96 124 1 96 124 1 96 124 1 96 124 1 96 124 1 96 124 1 96 124 1 96 124 1 100 119 0 86 110 21 96 119 76 132 147 97 135 138 118 143 140 140 155 158 157 167 179 181 185 186 192 193 195 203 201 204 210 205 209 210 205 209 207 205 208 206 207 209 206 210 211 205 206 211 203 204 209 197 200 207 178 182 191 167 180 189 101 121 130 76 106 114 89 124 130 83 120 128 86 123 131 93 128 134 101 134 141 110 139 145 116 144 148 122 147 152 125 148 154 119 143 147 123 147 151 129 153 157 133 154 159 129 148 154 124 143 149 130 147 154 138 155 162 135 153 155 132 150 152 136 155 159 136 157 162 127 148 153 120 143 149 116 139 145 106 131 138 108 132 136 96 121 125 84 112 115 83 113 115 84 112 115 80 104 108 92 111 117 118 133 140 136 145 150 161 169 171 183 185 184 193 192 190 202 201 199 206 204 205 204 205 209 206 209 216 218 216 219 214 214 216 213 214 218 214 218 221 211 216 220 203 211 214 196 205 210 195 206 210 202 211 208 203 209 207 203 207 206 203 204 206 202 203 207 197 202 205 192 203 205 189 203 204 188 197 202 189 192 201 195 201 215 179 212 229 119 197 217 47 176 198 6 174 203 0 182 218 4 178 215 4 178 215 4 178 215 2 178 215 1 179 215 1 179 215 0 180 215 0 180 215 1 181 216 1 181 216 1 181 216 1 181 216 1 181 216 1 181 216 1 181 216 1 181 216 1 181 216 1 181 216 1 181 216 2 182 217 2 182 217 3 183 218 3 183 218 3 183 218 0 184 218 0 184 218 0 184 218 0 184 218 0 184 218 0 184 218 0 184 218 0 184 218 0 186 219 0 186 219 0 186 219 0 186 219 0 186 219 0 186 219 0 186 219 0 186 219 0 188 220 
0 188 220 0 188 220 0 188 220 0 188 220 0 188 220 0 188 220 0 188 220 0 187 222 0 187 222 0 187 222 0 187 222 0 187 222 0 187 222 0 187 222 0 187 222 2 189 224 2 189 224 2 189 224 2 189 224 2 189 224 2 189 224 2 189 224 2 189 224 2 189 224 2 189 224 2 189 224 2 189 224 2 189 224 2 189 224 2 189 224 2 189 224 2 189 224 2 189 224 2 189 224 2 189 224 2 189 224 2 189 224 2 189 224 2 189 224 2 189 224 2 189 224 2 189 224 2 189 224 2 189 224 2 189 224 2 189 224 2 189 224 2 189 224 2 189 224 2 189 224 2 189 224 2 189 224 2 189 224 2 189 224 2 189 224 6 190 226 6 190 226 6 190 226 6 190 226 6 190 226 6 190 226 6 190 226 6 190 226 5 189 225 5 189 225 5 189 225 5 189 225 5 189 225 5 189 225 5 189 225 5 189 225 5 189 225 5 189 225 5 189 225 5 189 225 5 189 225 5 189 225 5 189 225 5 189 225 5 189 227 5 189 227 5 189 227 5 189 227 5 189 227 5 189 227 5 189 227 5 189 227 1 185 221 1 185 221 1 185 221 1 185 221 
0 122 159 0 122 159 1 121 156 0 120 155 0 119 153 0 116 151 0 116 149 0 114 148 0 113 145 0 112 144 1 111 144 0 111 141 0 109 138 0 108 137 0 108 136 1 106 135 1 106 136 1 106 136 0 105 135 1 104 135 2 102 134 1 101 133 1 100 132 1 100 132 0 98 127 0 98 127 0 98 127 0 98 127 0 98 127 0 98 127 0 98 127 0 98 127 0 98 127 0 98 127 0 98 127 0 98 127 0 98 127 0 98 127 0 98 127 0 98 127 0 98 125 0 98 125 0 98 125 0 98 125 0 98 125 0 98 125 0 98 125 0 98 125 1 96 124 1 96 124 1 96 124 1 96 124 1 96 124 1 96 124 1 96 124 1 96 124 1 96 124 1 96 124 1 96 124 1 96 124 1 96 124 1 96 124 1 96 124 1 96 124 8 105 122 4 89 109 51 116 134 87 137 148 96 137 139 118 150 149 134 153 157 155 165 174 181 185 184 193 195 194 206 204 205 212 208 209 210 206 207 207 205 206 207 209 208 208 212 211 203 204 208 201 202 206 196 199 204 174 178 187 165 178 186 90 110 117 73 104 109 78 113 119 77 118 124 79 118 123 83 120 126 90 125 129 97 131 133 108 137 141 115 143 146 120 148 151 121 147 148 124 150 151 129 153 155 130 154 156 128 149 152 126 145 149 126 145 149 129 148 152 125 146 147 122 143 144 127 148 149 126 150 152 116 141 145 111 136 140 105 133 137 96 124 128 93 118 122 88 116 119 76 106 108 75 106 108 82 112 114 78 103 107 86 107 112 111 130 136 136 145 150 161 169 171 184 186 185 195 194 192 204 203 201 208 206 207 207 208 212 209 212 219 219 217 220 216 216 218 215 216 220 215 219 222 213 218 222 206 214 217 197 206 211 191 202 206 194 205 201 195 204 201 196 202 200 196 200 201 194 199 202 190 200 201 187 201 202 183 201 201 200 200 208 194 194 206 195 208 227 168 216 238 95 191 215 28 169 196 3 173 206 0 182 218 3 177 214 3 177 214 3 177 214 1 177 214 0 178 214 0 178 214 0 179 214 0 179 214 1 181 216 1 181 216 1 181 216 1 181 216 1 181 216 1 181 216 1 181 216 1 181 216 1 181 216 1 181 216 1 181 216 1 181 216 2 182 217 2 182 217 3 183 218 3 183 218 1 184 218 1 184 218 1 184 218 1 184 218 1 184 218 1 184 218 1 184 218 1 184 218 1 185 219 1 185 219 1 185 219 1 185 219 1 185 219 1 185 219 1 185 219 1 185 219 0 188 220 0 188 220 
0 188 220 0 188 220 0 188 220 0 188 220 0 188 220 0 188 220 0 187 222 0 187 222 0 187 222 0 187 222 0 187 222 0 187 222 0 187 222 0 187 222 1 188 223 1 188 223 1 188 223 1 188 223 1 188 223 1 188 223 1 188 223 1 188 223 1 188 223 1 188 223 1 188 223 1 188 223 1 188 223 1 188 223 1 188 223 1 188 223 1 188 223 1 188 223 1 188 223 1 188 223 1 188 223 1 188 223 1 188 223 1 188 223 1 188 223 1 188 223 1 188 223 1 188 223 1 188 223 1 188 223 1 188 223 1 188 223 1 188 223 1 188 223 1 188 223 1 188 223 1 188 223 1 188 223 1 188 223 1 188 223 2 190 228 2 190 228 2 190 228 2 190 228 2 190 228 2 190 228 2 190 228 2 190 228 1 189 227 1 189 227 1 189 227 1 189 227 1 189 227 1 189 227 1 189 227 1 189 227 1 189 227 1 189 227 1 189 227 1 189 227 1 189 227 1 189 227 1 189 227 1 189 227 1 189 227 1 189 227 1 189 227 1 189 227 1 189 227 1 189 227 1 189 227 1 189 227 0 185 223 0 185 223 0 185 223 0 185 223 
0 124 160 0 122 159 0 123 157 0 120 155 0 119 153 0 118 152 0 116 149 0 116 149 0 114 145 0 113 145 0 112 144 0 111 141 1 110 139 0 109 138 0 108 136 0 108 136 1 106 136 1 106 136 0 105 135 1 104 135 2 102 134 1 101 133 1 100 132 1 100 132 0 98 127 0 98 127 0 98 127 0 98 127 0 98 127 0 98 127 0 98 127 0 98 127 0 98 127 0 98 127 0 98 127 0 98 127 0 98 127 0 98 127 0 98 127 0 98 127 0 98 125 0 98 125 0 98 125 0 98 125 0 98 125 0 98 125 0 98 125 0 98 125 1 96 124 1 96 124 1 96 124 1 96 124 1 96 124 1 96 124 1 96 124 1 96 124 1 96 124 1 96 124 1 96 124 1 96 124 1 96 124 1 96 124 1 96 124 1 96 124 5 98 116 19 95 111 78 132 144 93 136 143 98 139 141 118 153 155 132 153 156 154 162 165 181 185 184 194 196 195 208 206 207 214 210 211 210 206 207 206 204 205 207 209 208 210 214 213 207 208 210 201 202 206 197 200 205 180 185 191 162 175 181 84 104 111 74 105 110 69 104 108 73 114 118 74 113 118 76 114 117 81 116 120 88 122 124 99 129 131 108 136 139 112 140 141 125 149 151 125 149 151 125 149 151 128 149 152 132 151 155 131 150 154 127 145 149 121 139 143 120 142 140 117 139 137 122 143 144 121 145 145 111 137 138 106 131 135 100 128 131 91 119 122 80 105 109 80 108 111 72 102 104 71 102 104 80 110 112 78 103 107 85 106 111 108 127 133 137 146 151 162 170 172 185 187 186 196 195 193 207 206 204 211 209 210 210 211 215 213 216 223 221 219 222 219 219 221 218 219 223 216 220 223 216 221 225 210 218 221 198 207 212 188 199 203 187 198 194 188 197 194 190 196 194 192 196 197 192 197 200 189 199 200 187 201 202 184 202 202 211 210 218 197 203 217 185 213 234 145 212 239 70 185 214 13 168 198 0 174 207 0 178 215 3 177 214 3 177 214 3 177 214 1 177 214 0 178 214 0 178 214 0 179 214 0 179 214 1 179 215 1 179 215 1 179 215 1 179 215 1 179 215 1 179 215 1 179 215 1 179 215 1 179 215 1 179 215 2 180 216 2 180 216 2 180 216 3 181 217 3 181 217 3 181 217 2 182 217 2 182 217 2 182 217 2 182 217 2 182 217 2 182 217 2 182 217 2 182 217 0 184 218 0 184 218 0 184 218 0 184 218 0 184 218 0 184 218 0 184 218 0 184 218 0 187 220 0 187 220 
0 187 220 0 187 220 0 187 220 0 187 220 0 187 220 0 187 220 0 187 222 0 187 222 0 187 222 0 187 222 0 187 222 0 187 222 0 187 222 0 187 222 1 188 223 1 188 223 1 188 223 1 188 223 1 188 223 1 188 223 1 188 223 1 188 223 1 188 223 1 188 223 1 188 223 1 188 223 1 188 223 1 188 223 1 188 223 1 188 223 1 188 223 1 188 223 1 188 223 1 188 223 1 188 223 1 188 223 1 188 223 1 188 223 1 188 223 1 188 223 1 188 223 1 188 223 1 188 223 1 188 223 1 188 223 1 188 223 0 187 222 0 187 222 0 187 222 0 187 222 0 187 222 0 187 222 0 187 222 0 187 222 0 188 226 0 188 226 0 188 226 0 188 226 0 188 226 0 188 226 0 188 226 0 188 226 0 189 227 0 189 227 0 189 227 0 189 227 0 189 227 0 189 227 0 189 227 0 189 227 0 189 227 0 189 227 0 189 227 0 189 227 0 189 227 0 189 227 0 189 227 0 189 227 0 189 227 0 189 227 0 189 227 0 189 227 0 189 227 0 189 227 0 189 227 0 189 227 0 187 225 0 187 225 0 187 225 0 187 225 
0 124 160 0 124 160 0 123 157 0 122 156 0 120 154 0 118 152 0 118 150 0 117 149 0 115 146 0 114 145 0 113 145 0 112 142 0 111 139 0 109 138 0 110 137 0 109 136 1 106 136 1 106 136 0 105 135 1 104 135 2 102 134 1 101 133 1 100 132 1 100 132 1 96 126 1 96 126 1 96 126 1 96 126 1 96 126 1 96 126 1 96 126 1 96 126 0 98 127 0 98 127 0 98 127 0 98 127 0 98 127 0 98 127 0 98 127 0 98 127 0 97 124 0 97 124 0 97 124 0 97 124 0 97 124 0 97 124 0 97 124 0 97 124 1 96 124 1 96 124 1 96 124 1 96 124 1 96 124 1 96 124 1 96 124 1 96 124 1 96 124 1 96 124 1 96 124 1 96 124 1 96 124 1 96 124 1 96 124 1 96 124 0 85 105 39 102 117 96 136 144 92 125 130 100 137 143 118 153 159 136 155 159 160 161 163 181 186 182 195 197 194 210 209 207 215 211 210 211 207 206 206 205 203 208 210 207 212 217 213 212 213 215 203 204 206 200 204 207 189 194 198 148 161 167 75 96 101 77 108 111 67 102 104 71 109 112 71 109 112 73 108 112 77 111 113 85 115 117 92 120 123 100 126 127 105 129 131 124 144 145 123 143 144 122 142 143 125 143 145 133 148 151 135 150 153 127 141 144 116 130 133 117 136 134 114 132 132 118 138 137 118 139 140 109 130 131 102 126 128 98 122 126 88 113 117 78 102 106 77 102 106 73 101 104 74 104 106 78 106 109 78 102 106 86 105 111 103 118 125 137 146 151 163 171 173 186 188 187 198 197 195 209 208 206 214 212 213 213 214 218 216 219 226 222 220 223 222 222 224 220 221 225 218 222 225 218 223 227 213 221 224 199 208 213 185 196 200 180 189 186 183 189 187 187 191 190 191 192 194 195 196 200 194 199 202 193 204 206 192 206 207 211 214 221 196 212 225 164 210 233 108 199 228 42 179 211 3 172 205 0 174 209 0 176 213 2 176 213 2 176 213 2 176 213 0 176 213 0 177 213 0 177 213 0 178 213 0 178 213 1 179 215 1 179 215 1 179 215 1 179 215 1 179 215 1 179 215 1 179 215 1 179 215 1 179 215 1 179 215 1 179 215 1 179 215 2 180 216 2 180 216 3 181 217 3 181 217 2 182 217 2 182 217 2 182 217 2 182 217 2 182 217 2 182 217 2 182 217 2 182 217 1 184 218 1 184 218 1 184 218 1 184 218 1 184 218 1 184 218 1 184 218 1 184 218 1 185 219 1 185 219 
1 185 219 1 185 219 1 185 219 1 185 219 1 185 219 1 185 219 0 186 221 0 186 221 0 186 221 0 186 221 0 186 221 0 186 221 0 186 221 0 186 221 0 187 222 0 187 222 0 187 222 0 187 222 0 187 222 0 187 222 0 187 222 0 187 222 0 187 222 0 187 222 0 187 222 0 187 222 0 187 222 0 187 222 0 187 222 0 187 222 0 187 222 0 187 222 0 187 222 0 187 222 0 187 222 0 187 222 0 187 222 0 187 222 0 187 222 0 187 222 0 187 222 0 187 222 0 187 222 0 187 222 0 187 222 0 187 222 0 187 222 0 187 222 0 187 222 0 187 222 0 187 222 0 187 222 0 187 222 0 187 222 0 187 225 0 187 225 0 187 225 0 187 225 0 187 225 0 187 225 0 187 225 0 187 225 0 188 226 0 188 226 0 188 226 0 188 226 0 188 226 0 188 226 0 188 226 0 188 226 0 188 226 0 188 226 0 188 226 0 188 226 0 188 226 0 188 226 0 188 226 0 188 226 0 188 225 0 188 225 0 188 225 0 188 225 0 188 225 0 188 225 0 188 225 0 188 225 1 189 227 1 189 227 1 189 227 1 189 227 
0 126 161 0 124 160 0 123 157 0 122 156 0 121 154 0 119 153 0 118 150 0 117 149 0 116 146 0 115 146 0 114 145 0 112 142 0 112 139 0 111 139 0 110 137 0 110 137 1 106 136 1 106 136 0 105 135 1 104 135 2 102 134 1 101 133 1 100 132 1 100 132 1 96 126 1 96 126 1 96 126 1 96 126 1 96 126 1 96 126 1 96 126 1 96 126 0 98 127 0 98 127 0 98 127 0 98 127 0 98 127 0 98 127 0 98 127 0 98 127 0 97 124 0 97 124 0 97 124 0 97 124 0 97 124 0 97 124 0 97 124 0 97 124 1 96 124 1 96 124 1 96 124 1 96 124 1 96 124 1 96 124 1 96 124 1 96 124 1 96 124 1 96 124 1 96 124 1 96 124 1 96 124 1 96 124 1 96 124 1 96 124 7 85 108 70 123 137 115 143 147 92 116 118 100 135 141 116 150 159 145 160 165 168 164 163 181 186 182 196 198 195 212 211 209 217 213 212 211 207 206 205 204 202 208 210 207 214 219 215 210 212 211 200 201 203 196 200 203 190 195 199 118 132 135 55 76 79 74 105 107 68 103 105 70 105 109 71 104 109 74 105 108 77 107 109 83 108 112 88 112 114 94 115 118 96 117 118 114 129 132 118 133 136 121 135 138 121 135 138 128 139 143 132 141 146 124 133 138 113 122 127 115 129 129 111 127 126 116 132 132 115 133 133 106 124 126 100 119 123 95 116 119 86 107 110 85 104 110 80 101 106 81 105 109 82 107 111 77 101 105 78 97 103 88 103 110 95 105 114 137 146 151 163 171 173 187 189 188 199 198 196 210 209 207 216 214 215 215 216 220 218 221 228 224 222 225 224 224 226 222 223 227 218 222 225 220 225 229 216 224 227 200 209 214 182 193 197 177 181 180 181 183 182 186 186 186 192 190 193 197 196 201 199 203 206 200 208 211 200 211 213 198 212 213 185 213 224 134 199 221 68 179 209 19 173 207 0 177 210 0 175 212 0 172 209 2 176 213 2 176 213 2 176 213 0 176 213 0 177 213 0 177 213 0 178 213 0 178 213 1 177 214 1 177 214 1 177 214 1 177 214 1 177 214 1 177 214 1 177 214 1 177 214 1 177 214 1 177 214 2 178 215 2 178 215 3 179 216 3 179 216 3 179 216 3 179 216 2 180 216 2 180 216 2 180 216 2 180 216 2 180 216 2 180 216 2 180 216 2 180 216 1 184 218 1 184 218 1 184 218 1 184 218 1 184 218 1 184 218 1 184 218 1 184 218 1 185 219 1 185 219 
1 185 219 1 185 219 1 185 219 1 185 219 1 185 219 1 185 219 0 186 221 0 186 221 0 186 221 0 186 221 0 186 221 0 186 221 0 186 221 0 186 221 0 187 222 0 187 222 0 187 222 0 187 222 0 187 222 0 187 222 0 187 222 0 187 222 0 187 222 0 187 222 0 187 222 0 187 222 0 187 222 0 187 222 0 187 222 0 187 222 0 187 222 0 187 222 0 187 222 0 187 222 0 187 222 0 187 222 0 187 222 0 187 222 0 187 222 0 187 222 0 187 222 0 187 222 0 187 222 0 187 222 0 187 222 0 187 222 0 186 221 0 186 221 0 186 221 0 186 221 0 186 221 0 186 221 0 186 221 0 186 221 0 186 221 0 186 221 0 186 221 0 186 221 0 186 221 0 186 221 0 186 221 0 186 221 0 187 222 0 187 222 0 187 222 0 187 222 0 187 222 0 187 222 0 187 222 0 187 222 0 187 222 0 187 222 0 187 222 0 187 222 0 187 222 0 187 222 0 187 222 0 187 222 0 187 220 0 187 220 0 187 220 0 187 220 0 187 220 0 187 220 0 187 220 0 187 220 2 189 224 2 189 224 2 189 224 2 189 224 
0 126 161 0 125 160 0 123 157 0 122 156 0 121 154 0 119 153 0 119 150 0 118 150 0 116 146 0 116 146 0 114 145 0 113 142 0 113 140 0 111 139 0 110 137 0 110 137 1 106 136 1 106 136 0 105 135 1 104 135 2 102 134 1 101 133 1 100 132 1 100 132 1 96 126 1 96 126 1 96 126 1 96 126 1 96 126 1 96 126 1 96 126 1 96 126 0 98 127 0 98 127 0 98 127 0 98 127 0 98 127 0 98 127 0 98 127 0 98 127 0 97 124 0 97 124 0 97 124 0 97 124 0 97 124 0 97 124 0 97 124 0 97 124 1 96 124 1 96 124 1 96 124 1 96 124 1 96 124 1 96 124 1 96 124 1 96 124 1 96 124 1 96 124 1 96 124 1 96 124 1 96 124 1 96 124 1 96 124 1 96 124 22 96 121 99 147 161 131 152 155 94 112 114 104 134 142 116 148 159 150 163 169 175 165 164 180 185 179 197 199 194 213 212 208 217 213 210 211 207 204 205 204 200 209 211 206 215 220 214 204 206 205 194 196 195 190 194 195 185 190 194 91 105 108 35 56 59 68 99 101 67 102 104 71 102 107 72 103 106 74 103 107 79 104 108 82 106 108 87 108 111 89 109 110 91 109 111 106 117 119 115 126 128 120 131 133 120 130 132 122 130 133 125 133 136 122 127 131 113 118 122 112 124 124 109 121 121 112 126 126 113 127 128 103 118 121 96 114 116 92 110 114 83 101 105 95 110 117 84 101 108 88 109 114 87 111 115 76 97 102 76 93 100 86 99 107 87 96 105 138 147 152 164 172 174 188 190 189 200 199 197 211 210 208 217 215 216 216 217 221 220 223 230 224 222 225 225 225 227 223 224 228 219 223 226 220 225 229 217 225 228 200 209 214 181 192 196 176 178 177 180 180 180 188 184 185 194 189 193 201 196 202 204 203 208 205 210 214 206 214 217 186 206 205 173 211 220 114 189 210 42 163 194 5 169 204 0 179 215 0 175 212 0 172 209 2 176 213 2 176 213 2 176 213 0 176 213 0 177 213 0 177 213 0 178 213 0 178 213 1 177 214 1 177 214 1 177 214 1 177 214 1 177 214 1 177 214 1 177 214 1 177 214 1 177 214 1 177 214 2 178 215 2 178 215 2 178 215 3 179 216 3 179 216 3 179 216 2 180 216 2 180 216 2 180 216 2 180 216 2 180 216 2 180 216 2 180 216 2 180 216 2 182 217 2 182 217 2 182 217 2 182 217 2 182 217 2 182 217 2 182 217 2 182 217 1 185 219 1 185 219 1 185 219 
1 185 219 1 185 219 1 185 219 1 185 219 1 185 219 0 186 221 0 186 221 0 186 221 0 186 221 0 186 221 0 186 221 0 186 221 0 186 221 0 187 222 0 187 222 0 187 222 0 187 222 0 187 222 0 187 222 0 187 222 0 187 222 0 187 222 0 187 222 0 187 222 0 187 222 0 187 222 0 187 222 0 187 222 0 187 222 0 187 222 0 187 222 0 187 222 0 187 222 0 187 222 0 187 222 0 187 222 0 187 222 0 187 222 0 187 222 0 187 222 0 187 222 0 187 222 0 187 222 0 187 222 0 187 222 0 185 220 0 185 220 0 185 220 0 185 220 0 185 220 0 185 220 0 185 220 0 185 220 1 184 218 1 184 218 1 184 218 1 184 218 1 184 218 1 184 218 1 184 218 1 184 218 3 186 220 3 186 220 3 186 220 3 186 220 3 186 220 3 186 220 3 186 220 3 186 220 3 186 220 3 186 220 3 186 220 3 186 220 3 186 220 3 186 220 3 186 220 3 186 220 3 186 217 3 186 217 3 186 217 3 186 217 3 186 217 3 186 217 3 186 217 3 186 217 3 186 220 3 186 220 3 186 220 3 186 220 
0 126 164 0 125 163 0 125 163 0 124 160 0 123 157 0 123 157 1 121 155 1 121 155 1 119 149 1 119 149 0 118 148 1 116 147 0 113 145 0 112 144 0 110 143 0 110 143 1 108 142 1 108 142 0 107 141 1 106 138 1 104 135 0 102 133 1 102 132 0 101 131 1 98 130 0 98 127 0 98 127 1 96 124 1 95 123 0 94 120 2 93 120 1 93 118 0 95 123 0 95 123 0 95 123 0 95 123 0 95 123 0 95 123 0 95 123 0 95 123 1 96 124 1 96 124 1 96 124 1 96 124 1 96 124 1 96 124 1 96 124 1 96 124 0 94 122 0 94 122 0 94 122 0 94 122 0 94 122 0 94 122 0 94 122 0 94 122 0 96 100 4 101 117 10 91 120 3 87 121 0 96 125 0 92 116 0 85 106 24 92 115 99 137 140 128 158 158 124 149 146 82 108 109 106 137 140 119 149 151 129 152 144 162 176 161 186 186 184 197 197 195 210 210 208 215 215 213 212 212 210 207 207 205 207 207 205 210 210 208 208 206 209 196 196 198 199 203 204 173 182 181 80 92 90 39 55 52 31 50 46 56 77 72 64 89 93 66 94 97 70 100 102 72 102 104 78 103 107 84 105 110 91 106 113 94 104 113 94 110 110 103 117 118 110 124 125 113 124 126 114 125 127 114 124 126 107 115 118 97 105 108 106 118 114 106 118 114 103 118 115 102 117 114 97 113 112 90 108 108 86 104 104 83 101 101 91 117 116 80 106 105 88 112 112 83 104 105 76 96 97 86 101 104 91 106 109 105 119 122 140 149 146 161 165 164 187 187 187 206 202 203 213 207 209 214 210 211 217 215 216 220 222 221 223 224 226 227 228 230 229 228 233 226 225 230 223 224 229 212 220 223 197 208 212 180 195 198 191 186 190 187 188 190 192 198 196 206 208 207 210 208 209 203 204 206 192 208 207 188 217 213 193 199 211 127 196 211 38 181 198 0 174 197 7 178 208 12 170 205 0 166 200 0 178 209 0 176 212 0 176 212 0 176 212 0 176 212 0 176 212 0 176 212 0 176 212 0 176 212 2 176 213 2 176 213 2 176 213 2 176 213 2 176 213 2 176 213 2 176 213 2 176 213 0 176 213 0 176 213 1 177 214 1 177 214 1 177 214 2 178 215 2 178 215 2 178 215 0 181 215 0 181 215 0 181 215 0 181 215 0 181 215 0 181 215 0 181 215 0 181 215 0 182 216 0 182 216 0 182 216 0 182 216 0 182 216 0 182 216 0 182 216 0 182 216 1 184 218 1 184 218 1 184 218 
1 184 218 1 184 218 1 184 218 1 184 218 1 184 218 1 184 218 1 184 218 1 184 218 1 184 218 1 184 218 1 184 218 1 184 218 1 184 218 1 184 218 1 184 218 1 184 218 1 184 218 1 184 218 1 184 218 1 184 218 1 184 218 1 184 218 1 184 218 1 184 218 1 184 218 1 184 218 1 184 218 1 184 218 1 184 218 1 183 220 1 183 220 1 183 220 1 183 220 1 183 220 1 183 220 1 183 220 1 183 220 1 183 220 1 183 220 1 183 220 1 183 220 1 183 220 1 183 220 1 183 220 1 183 220 1 184 218 1 184 218 1 184 218 1 184 218 1 184 218 1 184 218 1 184 218 1 184 218 2 185 219 2 185 219 2 185 219 2 185 219 2 185 219 2 185 219 2 185 219 2 185 219 1 184 218 1 184 218 1 184 218 1 184 218 1 184 218 1 184 218 1 184 218 1 184 218 2 185 219 2 185 219 2 185 219 2 185 219 2 185 219 2 185 219 2 185 219 2 185 219 1 185 219 1 185 219 1 185 219 1 185 219 1 185 219 1 185 219 1 185 219 1 185 219 1 185 219 1 185 219 1 185 219 1 185 219 
0 127 164 0 126 164 0 125 163 0 124 160 1 124 158 0 123 157 1 121 155 1 121 155 0 119 149 1 119 149 0 118 148 1 116 147 1 114 146 0 113 145 1 111 144 0 110 143 1 110 143 1 108 142 0 107 141 1 106 138 1 104 135 0 103 134 1 102 132 0 101 131 0 99 130 0 98 127 0 98 127 1 96 124 1 95 123 1 95 121 2 93 120 2 94 119 0 95 123 0 95 123 0 95 123 0 95 123 0 95 123 0 95 123 0 95 123 0 95 123 1 96 124 1 96 124 1 96 124 1 96 124 1 96 124 1 96 124 1 96 124 1 96 124 0 95 123 0 95 123 0 95 123 0 95 123 0 95 123 0 95 123 0 95 123 0 95 123 0 98 111 1 96 116 8 93 122 6 95 127 1 96 124 3 94 115 32 103 121 71 122 141 121 149 152 139 161 159 136 155 153 96 117 118 109 138 144 118 147 151 131 153 150 160 173 163 186 186 184 197 197 195 210 210 208 215 215 213 212 212 210 207 207 205 207 207 205 210 210 208 211 211 213 198 199 201 197 201 202 168 174 174 83 92 91 45 55 54 27 39 37 35 50 47 49 68 72 59 80 83 69 95 96 74 100 101 75 101 102 81 102 105 90 108 112 99 112 118 103 117 118 110 124 125 117 128 130 117 128 130 117 127 129 116 124 127 108 116 119 99 107 110 101 112 108 101 112 108 100 112 108 98 113 110 97 111 111 94 110 109 92 108 108 89 107 107 82 106 106 76 100 100 89 110 111 85 105 106 78 96 98 86 101 104 94 108 111 111 125 128 140 149 146 161 165 164 186 186 186 205 201 202 212 206 208 214 210 211 217 215 216 220 222 221 223 224 226 226 227 229 228 227 232 225 224 229 222 223 228 212 220 223 198 209 213 181 196 199 199 197 200 196 198 197 198 202 201 211 211 209 220 216 217 214 214 216 194 210 210 178 207 205 175 201 216 106 187 204 25 174 196 0 174 201 7 177 212 13 171 208 1 168 204 0 174 207 0 175 212 0 175 212 0 175 212 0 175 212 0 175 212 0 175 212 0 175 212 0 175 212 2 176 213 2 176 213 2 176 213 2 176 213 2 176 213 2 176 213 2 176 213 2 176 213 0 176 213 0 176 213 0 176 213 1 177 214 1 177 214 2 178 215 2 178 215 2 178 215 0 181 215 0 181 215 0 181 215 0 181 215 0 181 215 0 181 215 0 181 215 0 181 215 0 182 216 0 182 216 0 182 216 0 182 216 0 182 216 0 182 216 0 182 216 0 182 216 0 183 217 0 183 217 0 183 217 
0 183 217 0 183 217 0 183 217 0 183 217 0 183 217 0 183 217 0 183 217 0 183 217 0 183 217 0 183 217 0 183 217 0 183 217 0 183 217 0 183 217 0 183 217 0 183 217 0 183 217 0 183 217 0 183 217 0 183 217 0 183 217 0 183 217 0 183 217 0 183 217 0 183 217 0 183 217 0 183 217 0 183 217 0 183 217 0 182 219 0 182 219 0 182 219 0 182 219 0 182 219 0 182 219 0 182 219 0 182 219 0 182 219 0 182 219 0 182 219 0 182 219 0 182 219 0 182 219 0 182 219 0 182 219 0 183 217 0 183 217 0 183 217 0 183 217 0 183 217 0 183 217 0 183 217 0 183 217 1 184 218 1 184 218 1 184 218 1 184 218 1 184 218 1 184 218 1 184 218 1 184 218 0 183 217 0 183 217 0 183 217 0 183 217 0 183 217 0 183 217 0 183 217 0 183 217 1 184 218 1 184 218 1 184 218 1 184 218 1 184 218 1 184 218 1 184 218 1 184 218 0 184 218 0 184 218 0 184 218 0 184 218 0 184 218 0 184 218 0 184 218 0 184 218 0 184 218 0 184 218 0 184 218 0 184 218 
0 128 165 0 128 165 0 126 164 0 126 161 0 124 158 1 124 158 0 123 156 0 123 156 1 120 150 1 120 150 1 119 149 0 118 148 0 115 146 0 113 145 0 112 144 0 112 144 1 110 143 1 110 143 1 108 142 0 107 139 1 106 136 0 103 134 0 104 133 0 103 132 0 99 130 0 99 128 0 98 127 0 97 124 1 96 124 1 95 121 0 94 120 0 94 119 0 95 123 0 95 123 0 95 123 0 95 123 0 95 123 0 95 123 0 95 123 0 95 123 1 96 124 1 96 124 1 96 124 1 96 124 1 96 124 1 96 124 1 96 124 1 96 124 0 95 123 0 95 123 0 95 123 0 95 123 0 95 123 0 95 123 0 95 123 0 95 123 3 97 122 0 90 117 3 96 127 8 103 131 4 99 121 25 101 117 80 126 141 131 153 167 146 157 159 148 157 156 148 157 154 112 127 130 112 139 146 119 148 156 138 159 162 162 174 170 186 186 184 197 197 195 210 210 208 215 215 213 212 212 210 207 207 205 207 207 205 210 210 208 208 209 211 198 199 201 194 195 197 157 161 162 89 93 94 59 63 64 32 36 37 25 29 30 23 32 37 39 53 56 60 78 80 73 94 95 74 98 98 77 98 99 86 104 106 95 110 113 100 112 112 107 119 119 112 122 123 110 120 121 110 118 120 113 118 121 110 115 118 105 110 113 102 111 106 101 110 105 100 109 106 98 108 107 96 108 106 96 108 108 94 108 108 94 108 109 86 106 105 79 97 97 85 103 103 85 101 101 85 101 101 91 105 106 95 106 108 112 123 125 142 151 148 161 165 164 185 185 185 203 199 200 211 205 207 214 210 211 217 215 216 220 222 221 222 223 225 225 226 228 227 226 231 224 223 228 221 222 227 212 220 223 198 209 213 183 198 201 205 203 206 205 207 206 208 210 207 213 212 208 220 214 216 214 213 219 190 207 214 170 201 206 143 200 219 72 177 198 8 168 194 0 174 207 3 175 211 11 170 210 5 169 207 0 169 208 0 174 211 0 174 211 0 174 211 0 174 211 0 174 211 0 174 211 0 174 211 0 174 211 2 176 213 2 176 213 2 176 213 2 176 213 2 176 213 2 176 213 2 176 213 2 176 213 0 176 213 0 176 213 0 176 213 0 176 213 1 177 214 1 177 214 2 178 215 2 178 215 0 180 215 0 180 215 0 180 215 0 180 215 0 180 215 0 180 215 0 180 215 0 180 215 1 181 216 1 181 216 1 181 216 1 181 216 1 181 216 1 181 216 1 181 216 1 181 216 2 182 217 2 182 217 2 182 217 2 182 217 
2 182 217 2 182 217 2 182 217 2 182 217 2 182 217 2 182 217 2 182 217 2 182 217 2 182 217 2 182 217 2 182 217 2 182 217 2 182 217 2 182 217 2 182 217 2 182 217 2 182 217 2 182 217 2 182 217 2 182 217 2 182 217 2 182 217 2 182 217 2 182 217 2 182 217 2 182 217 2 182 217 2 182 217 2 182 217 2 182 217 2 182 217 2 182 217 2 182 217 2 182 217 2 182 217 2 182 217 2 182 217 2 182 217 2 182 217 2 182 217 2 182 217 2 182 217 2 182 217 2 182 217 2 182 217 2 182 217 2 182 217 2 182 217 2 182 217 2 182 217 2 182 217 2 182 217 3 183 218 3 183 218 3 183 218 3 183 218 3 183 218 3 183 218 3 183 218 3 183 218 2 182 217 2 182 217 2 182 217 2 182 217 2 182 217 2 182 217 2 182 217 2 182 217 3 183 218 3 183 218 3 183 218 3 183 218 3 183 218 3 183 218 3 183 218 3 183 218 0 184 218 0 184 218 0 184 218 0 184 218 0 184 218 0 184 218 0 184 218 0 184 218 0 184 218 0 184 218 0 184 218 0 184 218 
0 130 166 0 128 165 0 128 165 0 127 162 0 126 159 0 124 158 1 124 157 1 124 157 1 122 153 2 121 153 1 120 152 1 118 151 0 116 149 0 114 148 0 113 147 0 113 147 1 111 144 2 111 144 1 110 143 1 108 140 0 108 137 0 105 135 1 105 134 0 104 133 0 101 131 0 99 128 0 99 128 0 98 125 0 97 124 0 96 121 1 95 121 0 94 119 0 95 123 0 95 123 0 95 123 0 95 123 0 95 123 0 95 123 0 95 123 0 95 123 1 96 124 1 96 124 1 96 124 1 96 124 1 96 124 1 96 124 1 96 124 1 96 124 0 95 123 0 95 123 0 95 123 0 95 123 0 95 123 0 95 123 0 95 123 0 95 123 8 94 129 0 90 123 1 100 131 5 105 131 11 98 117 56 114 126 123 145 156 163 162 170 156 154 157 148 144 143 152 152 150 121 132 134 114 138 148 121 149 160 146 166 173 168 178 179 186 186 184 197 197 195 210 210 208 215 215 213 212 212 210 207 207 205 207 207 205 210 210 208 197 201 202 193 197 198 188 189 191 144 145 147 94 94 96 77 75 78 53 51 54 40 35 39 23 22 28 26 29 34 36 46 48 49 65 65 59 77 77 67 85 85 76 94 94 86 102 102 96 106 107 104 114 115 109 117 119 106 114 116 106 111 114 109 113 116 108 112 115 107 108 112 102 107 103 101 106 102 99 105 101 98 104 102 96 105 104 96 106 105 97 107 108 97 107 108 97 111 112 81 95 96 80 91 93 79 90 92 86 97 99 92 103 105 90 101 103 109 119 121 144 153 150 160 164 163 182 182 182 201 197 198 210 204 206 215 211 212 218 216 217 219 221 220 222 223 225 224 225 227 225 224 229 222 221 226 220 221 226 212 220 223 200 211 215 185 200 203 203 202 207 207 211 210 210 215 211 210 210 208 208 206 209 202 206 215 178 205 216 157 199 211 98 193 215 40 168 195 0 166 200 0 176 213 0 171 211 4 166 205 7 170 211 0 170 212 0 174 211 0 174 211 0 174 211 0 174 211 0 174 211 0 174 211 0 174 211 0 174 211 1 175 212 1 175 212 1 175 212 1 175 212 1 175 212 1 175 212 1 175 212 1 175 212 0 175 212 0 175 212 0 176 213 0 176 213 0 176 213 1 177 214 1 177 214 1 177 214 0 179 214 0 179 214 0 179 214 0 179 214 0 179 214 0 179 214 0 179 214 0 179 214 1 181 216 1 181 216 1 181 216 1 181 216 1 181 216 1 181 216 1 181 216 1 181 216 1 181 216 1 181 216 1 181 216 1 181 216 
1 181 216 1 181 216 1 181 216 1 181 216 1 181 216 1 181 216 1 181 216 1 181 216 1 181 216 1 181 216 1 181 216 1 181 216 1 181 216 1 181 216 1 181 216 1 181 216 1 181 216 1 181 216 1 181 216 1 181 216 1 181 216 1 181 216 1 181 216 1 181 216 1 181 216 1 181 216 1 181 216 1 181 216 1 181 216 1 181 216 1 181 216 1 181 216 1 181 216 1 181 216 1 181 216 1 181 216 1 181 216 1 181 216 1 181 216 1 181 216 1 181 216 1 181 216 1 181 216 1 181 216 1 181 216 1 181 216 1 181 216 1 181 216 1 181 216 1 181 216 1 181 216 1 181 216 2 182 217 2 182 217 2 182 217 2 182 217 2 182 217 2 182 217 2 182 217 2 182 217 1 181 216 1 181 216 1 181 216 1 181 216 1 181 216 1 181 216 1 181 216 1 181 216 2 182 217 2 182 217 2 182 217 2 182 217 2 182 217 2 182 217 2 182 217 2 182 217 0 183 217 0 183 217 0 183 217 0 183 217 0 183 217 0 183 217 0 183 217 0 183 217 0 183 217 0 183 217 0 183 217 0 183 217 
1 131 167 0 130 166 0 130 166 0 128 163 0 127 160 0 126 159 1 126 158 1 126 158 2 122 156 1 121 155 1 121 155 0 119 153 0 117 152 0 116 151 0 114 150 0 114 150 2 112 145 2 112 145 1 111 144 1 110 141 0 108 137 0 107 136 0 105 134 0 105 134 0 101 131 0 101 129 0 100 128 0 99 125 0 98 125 0 97 122 0 96 121 0 96 120 0 95 123 0 95 123 0 95 123 0 95 123 0 95 123 0 95 123 0 95 123 0 95 123 1 96 124 1 96 124 1 96 124 1 96 124 1 96 124 1 96 124 1 96 124 1 96 124 1 96 124 1 96 124 1 96 124 1 96 124 1 96 124 1 96 124 1 96 124 1 96 124 6 90 127 0 94 128 0 103 132 0 99 122 23 99 115 87 127 137 145 153 156 164 150 150 159 148 154 147 137 138 151 150 148 120 131 133 110 134 144 119 147 158 148 167 174 167 175 177 186 186 184 197 197 195 210 210 208 215 215 213 212 212 210 207 207 205 207 207 205 210 210 208 195 199 200 195 199 200 188 189 191 132 133 135 94 94 96 87 85 88 74 72 75 61 56 60 52 47 53 31 30 35 14 19 22 19 29 30 34 48 48 49 63 63 62 74 74 71 81 82 84 93 92 99 105 105 110 116 116 112 116 117 111 112 114 109 110 112 105 105 107 100 100 102 98 99 94 98 99 94 98 98 96 97 99 96 95 99 98 95 99 100 94 100 100 94 100 100 86 91 94 77 82 85 74 82 84 70 78 80 75 83 85 79 87 89 85 93 95 118 128 129 146 155 152 160 164 163 180 180 180 198 194 195 209 203 205 215 211 212 218 216 217 219 221 220 221 222 224 223 224 226 223 222 227 220 219 224 218 219 224 212 220 223 201 212 216 187 202 205 199 202 209 200 208 210 202 211 208 203 209 207 202 210 213 190 210 221 155 201 217 124 189 207 56 182 207 18 165 198 0 170 208 0 178 219 0 168 208 0 163 201 4 170 210 1 172 215 0 174 211 0 174 211 0 174 211 0 174 211 0 174 211 0 174 211 0 174 211 0 174 211 1 175 212 1 175 212 1 175 212 1 175 212 1 175 212 1 175 212 1 175 212 1 175 212 0 175 212 0 175 212 0 175 212 0 176 213 0 176 213 0 176 213 1 177 214 1 177 214 0 178 214 0 178 214 0 178 214 0 178 214 0 178 214 0 178 214 0 178 214 0 178 214 1 179 215 1 179 215 1 179 215 1 179 215 1 179 215 1 179 215 1 179 215 1 179 215 1 179 215 1 179 215 1 179 215 1 179 215 1 179 215 1 179 215 1 179 215 
1 179 215 1 179 215 1 179 215 1 179 215 1 179 215 1 179 215 1 179 215 1 179 215 1 179 215 1 179 215 1 179 215 1 179 215 1 179 215 1 179 215 1 179 215 1 179 215 1 179 215 1 179 215 1 179 215 1 179 215 1 179 215 1 179 215 1 179 215 1 179 215 1 179 215 1 180 213 1 180 213 1 180 213 1 180 213 1 180 213 1 180 213 1 180 213 1 180 213 1 180 213 1 180 213 1 180 213 1 180 213 1 180 213 1 180 213 1 180 213 1 180 213 1 179 215 1 179 215 1 179 215 1 179 215 1 179 215 1 179 215 1 179 215 1 179 215 2 180 216 2 180 216 2 180 216 2 180 216 2 180 216 2 180 216 2 180 216 2 180 216 1 179 215 1 179 215 1 179 215 1 179 215 1 179 215 1 179 215 1 179 215 1 179 215 2 180 216 2 180 216 2 180 216 2 180 216 2 180 216 2 180 216 2 180 216 2 180 216 1 181 216 1 181 216 1 181 216 1 181 216 1 181 216 1 181 216 1 181 216 1 181 216 1 181 216 1 181 216 1 181 216 1 181 216 
0 133 168 0 132 167 1 131 167 0 130 164 0 129 161 0 127 160 0 127 159 1 126 158 1 124 157 0 123 156 2 122 156 0 120 154 0 119 153 0 117 152 0 116 151 1 115 151 1 114 146 1 114 146 2 112 145 1 112 142 0 109 138 0 108 137 0 107 135 1 106 135 0 103 132 0 102 129 0 101 129 0 101 126 0 99 125 0 97 122 0 97 122 0 96 120 0 95 123 0 95 123 0 95 123 0 95 123 0 95 123 0 95 123 0 95 123 0 95 123 1 96 124 1 96 124 1 96 124 1 96 124 1 96 124 1 96 124 1 96 124 1 96 124 1 96 124 1 96 124 1 96 124 1 96 124 1 96 124 1 96 124 1 96 124 1 96 124 1 89 125 2 101 132 0 104 130 0 92 115 40 101 119 108 135 144 150 152 151 149 140 133 158 145 155 149 138 144 150 150 150 113 128 131 104 133 139 118 147 155 148 163 168 165 169 168 186 186 184 197 197 195 210 210 208 215 215 213 212 212 210 207 207 205 207 207 205 210 210 208 202 203 205 203 204 206 189 190 192 122 126 127 92 96 97 88 92 93 82 86 87 71 75 76 69 63 67 43 41 44 26 27 29 29 35 35 39 48 47 44 50 50 45 46 48 47 47 49 51 55 54 70 74 73 90 94 93 99 101 100 100 100 100 99 99 99 96 94 95 91 89 90 98 95 90 98 94 91 96 95 91 93 92 90 87 87 85 79 81 80 73 74 76 69 70 72 58 57 62 66 67 71 77 78 82 70 74 77 69 73 76 67 72 75 83 91 93 137 145 147 148 157 154 160 164 163 177 177 177 195 191 192 208 202 204 216 212 213 218 216 217 219 221 220 221 222 224 222 223 225 221 220 225 218 217 222 217 218 223 211 219 222 202 213 217 189 204 207 197 205 218 192 203 209 187 201 202 191 207 207 192 212 219 167 209 225 118 190 212 75 171 196 23 173 200 11 169 206 4 173 216 2 175 218 0 168 204 0 165 199 2 170 206 2 174 214 0 172 210 0 172 210 0 172 210 0 172 210 0 172 210 0 172 210 0 172 210 0 172 210 0 174 211 0 174 211 0 174 211 0 174 211 0 174 211 0 174 211 0 174 211 0 174 211 0 174 211 0 174 211 0 175 212 0 175 212 0 176 213 0 176 213 0 176 213 0 176 213 0 177 213 0 177 213 0 177 213 0 177 213 0 177 213 0 177 213 0 177 213 0 177 213 1 179 215 1 179 215 1 179 215 1 179 215 1 179 215 1 179 215 1 179 215 1 179 215 0 178 214 0 178 214 0 178 214 0 178 214 0 178 214 0 178 214 0 178 214 0 178 214 
0 178 214 0 178 214 0 178 214 0 178 214 0 178 214 0 178 214 0 178 214 0 178 214 0 178 214 0 178 214 0 178 214 0 178 214 0 178 214 0 178 214 0 178 214 0 178 214 0 178 214 0 178 214 0 178 214 0 178 214 0 178 214 0 178 214 0 178 214 0 178 214 0 179 212 0 179 212 0 179 212 0 179 212 0 179 212 0 179 212 0 179 212 0 179 212 0 179 212 0 179 212 0 179 212 0 179 212 0 179 212 0 179 212 0 179 212 0 179 212 0 178 214 0 178 214 0 178 214 0 178 214 0 178 214 0 178 214 0 178 214 0 178 214 1 179 215 1 179 215 1 179 215 1 179 215 1 179 215 1 179 215 1 179 215 1 179 215 0 178 214 0 178 214 0 178 214 0 178 214 0 178 214 0 178 214 0 178 214 0 178 214 1 179 215 1 179 215 1 179 215 1 179 215 1 179 215 1 179 215 1 179 215 1 179 215 0 180 215 0 180 215 0 180 215 0 180 215 0 180 215 0 180 215 0 180 215 0 180 215 0 180 215 0 180 215 0 180 215 0 180 215 
0 133 168 0 133 168 0 132 167 1 131 165 1 130 162 0 129 161 0 127 159 0 127 159 2 125 159 1 124 158 0 123 157 1 121 156 1 119 155 0 118 154 0 116 153 0 115 152 2 115 147 1 114 146 0 113 145 1 112 142 1 110 139 0 109 138 0 108 136 0 108 136 0 103 132 0 103 130 0 102 129 0 101 126 0 99 125 0 99 123 0 97 122 0 98 121 0 95 123 0 95 123 0 95 123 0 95 123 0 95 123 0 95 123 0 95 123 0 95 123 1 96 124 1 96 124 1 96 124 1 96 124 1 96 124 1 96 124 1 96 124 1 96 124 2 97 125 2 97 125 2 97 125 2 97 125 2 97 125 2 97 125 2 97 125 2 97 125 0 93 123 1 107 133 0 102 124 8 90 112 59 106 126 118 135 145 144 149 145 143 147 133 149 138 154 147 142 149 147 151 154 106 126 127 105 136 141 123 152 156 152 166 166 173 172 167 186 186 184 197 197 195 210 210 208 215 215 213 212 212 210 207 207 205 207 207 205 210 210 208 205 205 207 202 203 205 183 187 188 114 120 120 93 102 101 90 100 99 84 96 94 71 86 83 67 63 64 55 53 54 51 53 52 58 62 61 60 62 61 49 47 48 43 37 39 47 36 40 35 37 36 50 52 51 64 66 65 68 68 68 69 67 68 74 72 73 81 77 78 83 79 80 87 79 76 87 82 78 87 82 79 84 80 77 77 73 72 64 62 63 53 53 53 46 46 46 52 47 51 68 63 67 83 81 84 83 83 85 83 84 86 76 80 81 91 97 97 149 155 155 149 158 155 160 164 163 176 176 176 194 190 191 208 202 204 216 212 213 219 217 218 218 220 219 220 221 223 221 222 224 220 219 224 216 215 220 215 216 221 211 219 222 203 214 218 191 206 209 191 202 220 181 197 210 173 194 199 169 194 198 154 191 200 118 181 199 70 170 194 37 162 192 7 168 197 11 175 213 7 174 219 2 169 213 4 171 205 4 172 199 0 171 201 0 172 207 0 172 210 0 172 210 0 172 210 0 172 210 0 172 210 0 172 210 0 172 210 0 172 210 0 174 211 0 174 211 0 174 211 0 174 211 0 174 211 0 174 211 0 174 211 0 174 211 0 174 211 0 174 211 0 174 211 0 175 212 0 175 212 0 176 213 0 176 213 0 176 213 0 176 213 0 176 213 0 176 213 0 176 213 0 176 213 0 176 213 0 176 213 0 176 213 1 177 214 1 177 214 1 177 214 1 177 214 1 177 214 1 177 214 1 177 214 1 177 214 0 176 213 0 176 213 0 176 213 0 176 213 0 176 213 0 176 213 0 176 213 0 176 213 0 176 213 
0 176 213 0 176 213 0 176 213 0 176 213 0 176 213 0 176 213 0 176 213 0 176 213 0 176 213 0 176 213 0 176 213 0 176 213 0 176 213 0 176 213 0 176 213 0 176 213 0 176 213 0 176 213 0 176 213 0 176 213 0 176 213 0 176 213 0 176 213 0 177 210 0 177 210 0 177 210 0 177 210 0 177 210 0 177 210 0 177 210 0 177 210 0 177 210 0 177 210 0 177 210 0 177 210 0 177 210 0 177 210 0 177 210 0 177 210 0 176 213 0 176 213 0 176 213 0 176 213 0 176 213 0 176 213 0 176 213 0 176 213 1 177 214 1 177 214 1 177 214 1 177 214 1 177 214 1 177 214 1 177 214 1 177 214 0 176 213 0 176 213 0 176 213 0 176 213 0 176 213 0 176 213 0 176 213 0 176 213 1 177 214 1 177 214 1 177 214 1 177 214 1 177 214 1 177 214 1 177 214 1 177 214 0 178 214 0 178 214 0 178 214 0 178 214 0 178 214 0 178 214 0 178 214 0 178 214 0 178 214 0 178 214 0 178 214 0 178 214 
0 134 169 0 133 168 0 133 168 1 131 165 0 130 162 0 129 161 1 128 160 0 127 159 1 125 159 1 124 158 1 124 158 1 121 156 0 120 155 0 118 154 0 116 153 0 116 153 1 116 147 2 115 147 1 114 146 2 113 143 0 111 139 0 109 138 0 108 136 0 108 136 0 103 132 0 103 130 0 102 129 0 101 126 0 101 126 0 99 123 0 97 122 0 98 121 0 95 123 0 95 123 0 95 123 0 95 123 0 95 123 0 95 123 0 95 123 0 95 123 1 96 124 1 96 124 1 96 124 1 96 124 1 96 124 1 96 124 1 96 124 1 96 124 2 97 125 2 97 125 2 97 125 2 97 125 2 97 125 2 97 125 2 97 125 2 97 125 0 98 121 0 109 130 0 100 121 14 90 113 71 109 130 122 132 144 139 145 141 145 158 141 137 130 148 142 140 151 142 150 153 100 124 126 106 140 142 131 161 163 162 174 170 184 181 172 186 186 184 197 197 195 210 210 208 215 215 213 212 212 210 207 207 205 207 207 205 210 210 208 202 200 203 197 197 199 176 180 181 107 116 115 95 107 105 91 107 104 84 103 99 70 91 86 68 67 65 64 64 62 66 68 65 70 72 69 62 62 60 52 46 46 59 47 49 76 60 63 53 55 54 58 60 59 57 57 57 47 45 46 41 39 40 51 47 48 65 61 62 75 69 71 61 53 50 66 58 55 72 64 61 73 68 65 70 66 65 63 59 58 52 50 51 45 43 44 65 59 63 76 70 74 90 85 89 95 93 96 105 105 107 96 100 101 99 103 104 147 153 153 150 159 156 160 164 163 175 175 175 193 189 190 207 201 203 216 212 213 219 217 218 218 220 219 220 221 223 221 222 224 219 218 223 215 214 219 215 216 221 211 219 222 204 215 219 192 207 210 183 195 217 176 195 210 166 191 198 147 180 185 112 159 169 68 145 165 35 150 177 20 165 196 0 166 198 13 179 219 9 171 218 2 163 207 11 176 208 11 179 205 0 171 196 0 169 200 2 171 210 2 171 210 2 171 210 2 171 210 2 171 210 2 171 210 2 171 210 2 171 210 0 174 211 0 174 211 0 174 211 0 174 211 0 174 211 0 174 211 0 174 211 0 174 211 0 174 211 0 174 211 0 174 211 0 175 212 0 175 212 0 175 212 0 176 213 0 176 213 0 176 213 0 176 213 0 176 213 0 176 213 0 176 213 0 176 213 0 176 213 0 176 213 1 177 214 1 177 214 1 177 214 1 177 214 1 177 214 1 177 214 1 177 214 1 177 214 0 176 213 0 176 213 0 176 213 0 176 213 0 176 213 0 176 213 0 176 213 0 176 213 
0 176 213 0 176 213 0 176 213 0 176 213 0 176 213 0 176 213 0 176 213 0 176 213 0 176 213 0 176 213 0 176 213 0 176 213 0 176 213 0 176 213 0 176 213 0 176 213 0 176 213 0 176 213 0 176 213 0 176 213 0 176 213 0 176 213 0 176 213 0 176 213 0 177 210 0 177 210 0 177 210 0 177 210 0 177 210 0 177 210 0 177 210 0 177 210 0 177 210 0 177 210 0 177 210 0 177 210 0 177 210 0 177 210 0 177 210 0 177 210 0 176 213 0 176 213 0 176 213 0 176 213 0 176 213 0 176 213 0 176 213 0 176 213 1 177 214 1 177 214 1 177 214 1 177 214 1 177 214 1 177 214 1 177 214 1 177 214 0 176 213 0 176 213 0 176 213 0 176 213 0 176 213 0 176 213 0 176 213 0 176 213 1 177 214 1 177 214 1 177 214 1 177 214 1 177 214 1 177 214 1 177 214 1 177 214 0 178 214 0 178 214 0 178 214 0 178 214 0 178 214 0 178 214 0 178 214 0 178 214 0 178 214 0 178 214 0 178 214 0 178 214 
1 136 168 0 135 167 0 135 167 0 133 166 1 131 165 0 130 164 1 129 164 0 128 163 2 126 160 2 126 160 1 125 159 1 125 159 1 125 159 0 124 158 0 124 158 0 124 158 1 119 149 1 119 149 2 117 148 2 115 147 2 115 147 3 113 146 2 112 145 3 112 145 0 107 136 0 106 134 0 104 133 0 103 130 0 102 127 0 101 126 0 100 123 0 99 123 3 99 123 2 98 122 2 98 122 2 98 122 1 97 121 1 97 121 1 97 121 0 96 120 0 100 126 0 100 126 0 100 126 0 100 126 0 100 126 0 100 126 0 100 126 0 100 126 0 102 127 0 102 127 0 102 127 0 102 127 0 102 127 0 102 127 0 102 127 0 102 127 6 102 124 6 109 126 0 104 117 10 99 107 55 112 119 109 133 137 142 144 143 154 146 143 152 142 140 139 139 141 125 138 146 97 121 133 114 141 152 131 150 157 160 168 171 165 164 162 182 182 182 189 189 189 201 201 201 211 211 211 217 217 217 217 217 217 214 214 214 211 211 211 213 204 207 202 201 206 164 175 181 91 111 120 78 100 111 85 104 111 99 110 114 81 86 89 81 87 85 68 74 72 62 64 63 66 64 65 75 71 72 83 74 77 87 75 79 89 77 81 83 74 69 66 61 55 74 71 64 68 68 60 59 56 49 60 53 47 55 44 40 65 50 47 53 40 34 72 59 53 76 65 59 67 56 52 64 54 52 76 68 65 83 75 73 76 71 68 87 76 80 106 96 97 109 101 98 102 94 91 85 80 76 63 59 58 90 85 91 154 151 158 151 156 160 159 164 168 171 176 180 182 186 189 193 194 196 204 205 207 216 216 216 225 225 225 215 217 216 222 222 222 226 224 227 223 221 224 221 220 225 216 221 225 206 217 219 196 210 211 150 199 195 157 176 182 162 164 179 137 160 178 63 142 157 16 149 168 13 172 202 3 164 206 3 170 206 3 170 206 2 170 206 3 171 207 2 172 207 2 172 207 1 174 208 1 174 208 0 173 207 0 173 207 0 173 207 0 173 207 0 173 207 0 173 207 0 173 207 0 173 207 0 173 207 0 173 207 0 173 207 0 173 207 0 173 207 0 173 207 0 173 207 0 173 207 2 174 212 2 174 212 2 174 212 2 174 212 2 174 212 2 174 212 2 174 212 2 174 212 2 174 212 2 174 212 2 174 212 2 174 212 2 174 212 2 174 212 2 174 212 2 174 212 1 175 212 1 175 212 1 175 212 1 175 212 1 175 212 1 175 212 1 175 212 1 175 212 1 175 212 1 175 212 1 175 212 1 175 212 1 175 212 1 175 212 1 175 212 
1 175 212 0 174 208 0 174 208 0 174 208 0 174 208 0 174 208 0 174 208 0 174 208 0 174 208 0 174 208 0 174 208 0 174 208 0 174 208 0 174 208 0 174 208 0 174 208 0 174 208 2 175 209 2 175 209 2 175 209 2 175 209 2 175 209 2 175 209 2 175 209 2 175 209 1 174 208 1 174 208 1 174 208 1 174 208 1 174 208 1 174 208 1 174 208 1 174 208 1 175 209 1 175 209 1 175 209 1 175 209 1 175 209 1 175 209 1 175 209 1 175 209 0 174 208 0 174 208 0 174 208 0 174 208 0 174 208 0 174 208 0 174 208 0 174 208 2 176 210 2 176 210 2 176 210 2 176 210 2 176 210 2 176 210 2 176 210 2 176 210 0 177 209 0 177 209 0 177 209 0 177 209 0 177 209 0 177 209 0 177 209 0 177 209 0 177 209 0 177 209 0 177 209 0 177 209 0 177 209 0 177 209 0 177 209 0 177 209 0 178 210 0 178 210 0 178 210 0 178 210 0 178 210 0 178 210 0 178 210 0 178 210 0 177 209 0 177 209 0 177 209 0 177 209 
1 136 168 0 135 167 0 135 167 0 133 166 1 131 165 0 130 164 1 129 164 0 128 163 2 126 160 2 126 160 2 126 160 1 125 159 1 125 159 1 125 159 0 124 158 0 124 158 2 120 150 1 119 149 1 119 149 2 117 148 2 115 147 1 114 146 3 113 146 2 112 145 0 108 137 0 107 136 0 106 134 0 105 131 0 103 130 0 102 127 0 101 126 0 100 123 1 99 124 1 99 124 1 99 124 0 98 123 0 98 123 0 97 122 0 97 122 0 97 122 0 100 126 0 100 126 0 100 126 0 100 126 0 100 126 0 100 126 0 100 126 0 100 126 0 102 127 0 102 127 0 102 127 0 102 127 0 102 127 0 102 127 0 102 127 0 102 127 0 97 120 0 102 121 0 101 114 11 98 107 57 110 118 118 136 140 155 149 149 160 145 140 152 141 137 142 141 139 125 136 140 99 119 128 115 137 148 130 147 155 157 165 168 169 169 169 188 188 188 194 194 194 204 204 204 212 212 212 216 216 216 215 215 215 210 210 210 207 207 207 209 205 206 199 203 206 156 169 175 91 111 118 87 110 116 94 113 119 100 111 115 84 89 92 82 87 83 68 73 69 63 63 61 64 63 61 59 53 53 57 47 48 77 65 67 105 93 95 104 93 89 103 94 89 109 104 98 102 97 91 87 82 76 89 80 75 102 87 84 119 101 99 99 84 79 85 70 65 77 62 57 79 65 62 85 74 72 88 77 75 91 81 80 96 86 85 114 102 106 116 104 104 88 78 76 61 52 47 61 53 50 72 66 66 106 100 104 155 148 156 150 155 159 156 161 165 168 172 175 179 183 186 192 193 195 204 204 204 215 215 215 221 221 221 219 219 219 227 225 226 230 228 229 229 224 228 225 224 229 221 225 228 212 222 224 201 215 216 146 186 185 160 179 186 174 181 197 141 174 193 53 140 157 12 151 170 3 164 193 3 169 209 2 169 205 3 170 206 2 170 206 2 170 206 2 172 207 2 172 207 0 173 207 1 174 208 0 173 207 0 173 207 0 173 207 0 173 207 0 173 207 0 173 207 0 173 207 0 173 207 0 173 207 0 173 207 0 173 207 0 173 207 0 173 207 0 173 207 0 173 207 0 173 207 2 174 212 2 174 212 2 174 212 2 174 212 2 174 212 2 174 212 2 174 212 2 174 212 2 174 212 2 174 212 2 174 212 2 174 212 2 174 212 2 174 212 2 174 212 2 174 212 1 175 212 1 175 212 1 175 212 1 175 212 1 175 212 1 175 212 1 175 212 1 175 212 1 175 212 1 175 212 1 175 212 1 175 212 1 175 212 
1 175 212 1 175 212 1 175 212 0 174 208 0 174 208 0 174 208 0 174 208 0 174 208 0 174 208 0 174 208 0 174 208 0 174 208 0 174 208 0 174 208 0 174 208 0 174 208 0 174 208 0 174 208 0 174 208 2 175 209 2 175 209 2 175 209 2 175 209 2 175 209 2 175 209 2 175 209 2 175 209 1 174 208 1 174 208 1 174 208 1 174 208 1 174 208 1 174 208 1 174 208 1 174 208 1 175 209 1 175 209 1 175 209 1 175 209 1 175 209 1 175 209 1 175 209 1 175 209 0 174 208 0 174 208 0 174 208 0 174 208 0 174 208 0 174 208 0 174 208 0 174 208 2 176 210 2 176 210 2 176 210 2 176 210 2 176 210 2 176 210 2 176 210 2 176 210 0 176 209 0 176 209 0 176 209 0 176 209 0 176 209 0 176 209 0 176 209 0 176 209 0 176 209 0 176 209 0 176 209 0 176 209 0 176 209 0 176 209 0 176 209 0 176 209 0 177 210 0 177 210 0 177 210 0 177 210 0 177 210 0 177 210 0 177 210 0 177 210 0 176 209 0 176 209 0 176 209 0 176 209 
1 136 168 0 135 167 0 135 167 0 133 166 1 131 165 0 130 164 1 129 164 0 128 163 2 126 160 2 126 160 2 126 160 2 126 160 1 125 159 1 125 159 1 125 159 0 124 158 2 121 151 1 120 150 1 120 150 1 119 149 2 117 148 1 116 147 2 115 147 1 114 146 0 109 138 0 109 138 0 108 137 0 107 135 0 106 132 0 105 131 0 103 128 0 102 127 1 101 125 1 101 125 1 101 125 0 100 124 0 100 124 0 99 123 0 99 123 0 99 123 0 102 127 0 102 127 0 102 127 0 102 127 0 102 127 0 102 127 0 102 127 0 102 127 0 103 128 0 103 128 0 103 128 0 103 128 0 103 128 0 103 128 0 103 128 0 103 128 0 100 125 0 100 122 0 102 118 11 95 106 48 97 104 114 125 129 157 143 142 154 129 124 147 134 126 139 136 131 119 127 129 99 117 121 119 139 146 135 150 155 161 166 170 182 182 184 195 195 195 200 200 200 207 207 207 213 213 213 215 215 215 212 212 212 207 207 207 204 204 204 203 203 205 198 203 206 147 161 164 82 101 105 82 103 106 89 107 109 93 105 105 92 101 100 98 99 94 86 87 82 84 83 79 82 78 75 57 49 47 30 20 19 47 35 35 88 74 74 113 98 95 120 106 103 118 109 104 122 113 108 124 115 110 128 114 111 138 118 117 136 115 114 141 122 118 117 98 94 95 77 73 89 71 69 87 71 71 89 75 74 104 90 90 123 109 109 121 106 109 112 98 98 84 70 69 70 59 55 87 77 75 100 90 91 106 97 102 122 112 120 149 154 158 153 157 160 161 165 168 176 177 179 190 191 193 204 204 204 213 212 210 216 215 213 219 219 217 226 225 223 232 228 229 230 225 229 227 225 228 222 226 229 213 223 224 203 217 218 155 185 187 164 182 192 177 196 213 126 177 198 39 142 161 13 159 182 0 161 190 2 172 208 2 169 205 2 169 205 2 170 206 2 170 206 1 171 206 2 172 207 0 173 207 0 173 207 0 173 207 0 173 207 0 173 207 0 173 207 0 173 207 0 173 207 0 173 207 0 173 207 0 173 207 0 173 207 0 173 207 0 173 207 0 173 207 0 173 207 0 173 207 0 173 207 1 173 211 1 173 211 1 173 211 1 173 211 1 173 211 1 173 211 1 173 211 1 173 211 1 173 211 1 173 211 1 173 211 1 173 211 1 173 211 1 173 211 1 173 211 1 173 211 0 174 211 0 174 211 0 174 211 0 174 211 0 174 211 0 174 211 0 174 211 0 174 211 0 174 211 0 174 211 0 174 211 
0 174 211 0 174 211 0 174 211 0 174 211 0 174 211 0 174 208 0 174 208 0 174 208 0 174 208 0 174 208 0 174 208 0 174 208 0 174 208 0 174 208 0 174 208 0 174 208 0 174 208 0 174 208 0 174 208 0 174 208 0 174 208 1 174 208 1 174 208 1 174 208 1 174 208 1 174 208 1 174 208 1 174 208 1 174 208 1 174 208 1 174 208 1 174 208 1 174 208 1 174 208 1 174 208 1 174 208 1 174 208 0 174 208 0 174 208 0 174 208 0 174 208 0 174 208 0 174 208 0 174 208 0 174 208 0 174 208 0 174 208 0 174 208 0 174 208 0 174 208 0 174 208 0 174 208 0 174 208 2 176 210 2 176 210 2 176 210 2 176 210 2 176 210 2 176 210 2 176 210 2 176 210 0 175 208 0 175 208 0 175 208 0 175 208 0 175 208 0 175 208 0 175 208 0 175 208 0 175 208 0 175 208 0 175 208 0 175 208 0 175 208 0 175 208 0 175 208 0 175 208 0 177 210 0 177 210 0 177 210 0 177 210 0 177 210 0 177 210 0 177 210 0 177 210 0 175 208 0 175 208 0 175 208 0 175 208 
1 136 168 0 135 167 0 135 167 0 133 166 1 131 165 0 130 164 1 129 164 0 128 163 1 128 161 1 128 161 0 127 160 0 127 160 0 127 160 0 126 159 0 126 159 0 126 159 0 123 154 2 123 154 1 122 153 1 120 152 1 118 151 1 118 151 2 116 150 2 116 150 0 113 143 1 112 142 0 111 139 0 109 138 0 108 136 0 107 133 0 106 132 0 105 129 1 103 128 1 103 128 1 103 128 1 103 128 0 102 127 0 102 127 0 102 127 0 101 126 1 102 130 1 102 130 1 102 130 1 102 130 1 102 130 1 102 130 1 102 130 1 102 130 0 106 132 0 106 132 0 106 132 0 106 132 0 106 132 0 106 132 0 106 132 0 106 132 2 105 136 0 105 130 3 110 128 11 97 110 37 85 95 102 113 119 152 138 137 150 125 120 140 133 125 132 131 126 109 118 117 101 116 119 126 144 148 143 157 160 161 166 170 185 185 187 198 198 198 202 202 202 208 208 208 213 213 213 214 214 214 212 212 212 208 208 208 205 205 205 199 203 206 196 204 207 137 151 152 71 89 89 71 90 88 83 97 97 94 104 103 115 121 119 126 123 118 120 117 112 122 117 113 121 113 110 90 80 78 48 37 35 36 25 23 52 38 37 102 84 82 113 98 95 107 93 90 112 101 97 128 114 111 135 117 115 141 120 119 134 108 109 133 109 107 114 93 90 91 70 67 77 57 56 81 63 63 97 79 79 110 94 95 116 100 101 105 89 90 105 89 89 98 84 81 93 80 74 86 75 71 84 74 73 115 104 108 164 153 161 149 153 156 150 154 157 158 159 161 172 173 175 189 189 189 204 203 201 210 209 207 211 210 208 216 215 213 224 220 219 229 223 223 228 222 224 224 222 225 222 223 225 212 220 222 203 215 215 180 197 204 164 184 195 163 200 219 89 164 187 27 149 172 10 168 195 0 164 197 0 170 206 2 169 205 2 169 205 1 169 205 2 170 206 1 171 206 1 171 206 0 173 207 0 173 207 0 173 207 0 173 207 0 173 207 0 173 207 0 173 207 0 173 207 0 173 207 0 173 207 0 173 207 0 173 207 0 173 207 0 173 207 0 173 207 0 173 207 0 173 207 0 173 207 1 173 211 1 173 211 1 173 211 1 173 211 1 173 211 1 173 211 1 173 211 1 173 211 1 173 211 1 173 211 1 173 211 1 173 211 1 173 211 1 173 211 1 173 211 1 173 211 0 174 211 0 174 211 0 174 211 0 174 211 0 174 211 0 174 211 0 174 211 0 174 211 0 174 211 0 174 211 
0 174 211 0 174 211 0 174 211 0 174 211 0 174 211 0 174 211 0 174 208 0 174 208 0 174 208 0 174 208 0 174 208 0 174 208 0 174 208 0 174 208 0 174 208 0 174 208 0 174 208 0 174 208 0 174 208 0 174 208 0 174 208 0 174 208 1 174 208 1 174 208 1 174 208 1 174 208 1 174 208 1 174 208 1 174 208 1 174 208 1 174 208 1 174 208 1 174 208 1 174 208 1 174 208 1 174 208 1 174 208 1 174 208 0 174 208 0 174 208 0 174 208 0 174 208 0 174 208 0 174 208 0 174 208 0 174 208 0 174 208 0 174 208 0 174 208 0 174 208 0 174 208 0 174 208 0 174 208 0 174 208 1 175 209 1 175 209 1 175 209 1 175 209 1 175 209 1 175 209 1 175 209 1 175 209 0 174 208 0 174 208 0 174 208 0 174 208 0 174 208 0 174 208 0 174 208 0 174 208 0 174 208 0 174 208 0 174 208 0 174 208 0 174 208 0 174 208 0 174 208 0 174 208 1 175 209 1 175 209 1 175 209 1 175 209 1 175 209 1 175 209 1 175 209 1 175 209 0 174 208 0 174 208 0 174 208 0 174 208 
1 136 168 0 135 167 0 135 167 0 133 166 1 131 165 0 130 164 1 129 164 0 128 163 0 129 161 0 129 161 0 129 161 0 129 161 0 128 160 0 128 160 0 127 159 0 127 159 0 125 157 0 125 157 1 124 157 0 123 156 1 121 155 1 120 154 1 120 154 1 118 153 1 116 147 1 116 145 1 114 144 0 114 141 0 111 138 0 110 137 0 109 134 0 108 134 1 105 130 1 105 130 0 104 129 0 104 129 0 104 129 0 103 128 0 103 128 0 103 128 0 104 133 0 104 133 0 104 133 0 104 133 0 104 133 0 104 133 0 104 133 0 104 133 1 106 135 1 106 135 1 106 135 1 106 135 1 106 135 1 106 135 1 106 135 1 106 135 2 105 138 0 107 136 6 115 136 11 100 118 25 81 94 85 105 114 137 135 138 141 130 128 124 130 128 112 121 120 95 109 109 106 124 124 135 151 151 155 165 167 165 169 172 185 183 186 199 199 199 202 202 202 207 207 207 212 212 212 214 214 214 213 213 213 211 211 211 209 209 209 204 209 215 196 204 207 135 145 146 88 99 95 96 107 101 115 124 119 123 129 125 145 150 146 152 143 138 148 139 134 145 136 131 141 132 127 126 115 111 95 84 80 64 50 47 43 29 26 81 63 61 102 87 84 104 90 87 100 89 85 106 92 89 114 96 94 127 106 105 141 115 116 161 137 135 113 92 89 60 39 36 37 17 16 54 36 36 84 66 66 97 81 82 96 80 81 95 81 81 65 51 50 44 31 25 61 50 44 99 90 83 123 113 111 134 125 128 145 136 141 149 150 152 150 151 153 157 158 160 171 171 171 189 188 186 202 201 199 210 206 203 212 208 205 217 213 210 224 220 217 229 223 223 229 223 223 227 223 224 224 225 227 215 224 223 207 217 216 193 203 212 156 184 196 143 204 223 54 156 181 20 161 189 3 168 198 0 167 202 0 168 204 1 168 204 1 168 204 1 169 205 1 169 205 0 170 205 1 171 206 0 172 206 0 172 206 0 173 207 0 173 207 0 173 207 0 173 207 0 173 207 0 173 207 0 173 207 0 173 207 0 173 207 0 173 207 0 173 207 0 173 207 0 173 207 0 173 207 0 173 207 0 173 207 1 173 211 1 173 211 1 173 211 1 173 211 1 173 211 1 173 211 1 173 211 1 173 211 1 173 211 1 173 211 1 173 211 1 173 211 1 173 211 1 173 211 1 173 211 1 173 211 0 174 211 0 174 211 0 174 211 0 174 211 0 174 211 0 174 211 0 174 211 0 174 211 0 174 211 0 174 211 0 174 211 
0 174 211 0 174 211 0 174 211 0 174 211 0 174 211 0 174 208 0 174 208 0 174 208 0 174 208 0 174 208 0 174 208 0 174 208 0 174 208 0 174 208 0 174 208 0 174 208 0 174 208 0 174 208 0 174 208 0 174 208 0 174 208 1 174 208 1 174 208 1 174 208 1 174 208 1 174 208 1 174 208 1 174 208 1 174 208 1 174 208 1 174 208 1 174 208 1 174 208 1 174 208 1 174 208 1 174 208 1 174 208 0 174 208 0 174 208 0 174 208 0 174 208 0 174 208 0 174 208 0 174 208 0 174 208 0 174 208 0 174 208 0 174 208 0 174 208 0 174 208 0 174 208 0 174 208 0 174 208 1 175 209 1 175 209 1 175 209 1 175 209 1 175 209 1 175 209 1 175 209 1 175 209 0 174 208 0 174 208 0 174 208 0 174 208 0 174 208 0 174 208 0 174 208 0 174 208 0 174 208 0 174 208 0 174 208 0 174 208 0 174 208 0 174 208 0 174 208 0 174 208 1 175 209 1 175 209 1 175 209 1 175 209 1 175 209 1 175 209 1 175 209 1 175 209 0 174 208 0 174 208 0 174 208 0 174 208 
1 136 168 0 135 167 0 135 167 0 133 166 1 131 165 0 130 164 1 129 164 0 128 163 1 130 162 1 130 162 0 129 161 0 129 161 0 129 161 0 128 160 0 128 160 0 128 160 0 127 159 0 126 158 1 126 158 0 125 157 0 123 156 2 122 156 1 121 155 1 121 155 1 119 149 1 119 149 2 117 146 1 116 145 1 115 142 1 112 139 1 112 139 0 111 138 0 107 133 0 107 133 0 107 133 0 106 132 0 106 132 0 106 132 0 105 131 0 105 131 0 105 134 0 105 134 0 105 134 0 105 134 0 105 134 0 105 134 0 105 134 0 105 134 0 108 136 0 108 136 0 108 136 0 108 136 0 108 136 0 108 136 0 108 136 0 108 136 3 101 138 0 105 137 0 112 136 0 98 119 8 79 97 47 89 103 86 109 117 94 109 112 82 105 111 72 95 101 76 100 104 116 137 140 144 160 160 171 179 181 185 185 185 202 196 198 202 202 202 205 205 205 208 208 208 212 212 212 213 213 213 213 213 213 211 211 211 210 210 210 210 213 222 197 200 205 147 151 150 130 132 127 150 151 145 172 173 165 166 165 160 175 171 168 168 155 147 163 150 142 151 138 130 140 127 119 137 124 116 124 111 103 88 75 67 51 38 30 57 42 39 76 62 59 91 82 77 88 79 74 98 89 84 106 92 89 102 82 81 123 102 101 129 110 106 86 67 63 47 29 25 42 24 22 53 37 37 64 50 49 73 59 59 81 67 67 82 72 70 95 86 81 107 98 91 115 108 98 130 126 117 153 148 144 167 163 162 170 165 169 148 149 151 151 152 154 160 160 160 174 173 171 188 187 185 202 198 195 210 206 203 215 210 206 221 218 213 229 224 221 235 227 225 235 226 227 233 227 227 230 230 230 222 228 228 213 223 222 191 200 207 148 186 197 116 198 219 32 160 187 9 168 200 0 165 201 0 166 205 3 165 204 1 168 204 1 168 204 0 168 204 1 169 205 0 170 205 0 170 205 0 172 206 0 172 206 0 173 207 0 173 207 0 173 207 0 173 207 0 173 207 0 173 207 0 173 207 0 173 207 0 173 207 0 173 207 0 173 207 0 173 207 0 173 207 0 173 207 0 173 207 0 173 207 0 172 210 0 172 210 0 172 210 0 172 210 0 172 210 0 172 210 0 172 210 0 172 210 0 172 210 0 172 210 0 172 210 0 172 210 0 172 210 0 172 210 0 172 210 0 172 210 0 173 210 0 173 210 0 173 210 0 173 210 0 173 210 0 173 210 0 173 210 0 173 210 0 173 210 0 173 210 0 173 210 
0 173 210 0 173 210 0 173 210 0 173 210 0 173 210 0 174 208 0 174 208 0 174 208 0 174 208 0 174 208 0 174 208 0 174 208 0 174 208 0 174 208 0 174 208 0 174 208 0 174 208 0 174 208 0 174 208 0 174 208 0 174 208 0 173 207 0 173 207 0 173 207 0 173 207 0 173 207 0 173 207 0 173 207 0 173 207 1 174 208 1 174 208 1 174 208 1 174 208 1 174 208 1 174 208 1 174 208 1 174 208 0 173 207 0 173 207 0 173 207 0 173 207 0 173 207 0 173 207 0 173 207 0 173 207 0 174 208 0 174 208 0 174 208 0 174 208 0 174 208 0 174 208 0 174 208 0 174 208 0 174 208 0 174 208 0 174 208 0 174 208 0 174 208 0 174 208 0 174 208 0 174 208 0 173 207 0 173 207 0 173 207 0 173 207 0 173 207 0 173 207 0 173 207 0 173 207 0 173 207 0 173 207 0 173 207 0 173 207 0 173 207 0 173 207 0 173 207 0 173 207 1 174 208 1 174 208 1 174 208 1 174 208 1 174 208 1 174 208 1 174 208 1 174 208 0 173 207 0 173 207 0 173 207 0 173 207 
1 136 168 0 135 167 0 135 167 0 133 166 1 131 165 0 130 164 1 129 164 0 128 163 0 130 162 0 130 162 0 130 162 0 129 161 0 129 161 0 129 161 0 128 160 0 128 160 0 129 161 0 128 160 0 127 160 0 126 159 0 124 158 1 124 158 0 123 157 0 123 157 2 121 153 2 121 151 2 120 150 1 119 147 1 116 145 1 115 142 0 114 140 0 114 140 0 109 134 0 109 134 0 109 134 0 108 133 0 108 133 0 108 133 0 107 132 0 107 132 0 105 135 0 105 135 0 105 135 0 105 135 0 105 135 0 105 135 0 105 135 0 105 135 1 109 138 1 109 138 1 109 138 1 109 138 1 109 138 1 109 138 1 109 138 1 109 138 8 102 140 1 106 138 0 108 135 0 101 125 3 87 111 19 82 100 34 82 96 38 81 90 39 81 97 36 73 89 65 99 109 127 155 159 147 165 167 180 186 186 200 199 197 217 209 207 209 209 209 210 210 210 212 212 212 212 212 212 212 212 212 210 210 210 208 208 208 206 206 206 206 206 218 198 197 203 170 166 167 171 166 160 184 177 167 203 194 187 189 180 175 188 178 176 177 160 152 177 160 152 167 153 144 155 141 132 148 134 125 136 123 114 104 91 82 71 58 49 41 30 26 47 38 33 72 67 61 67 62 56 85 80 74 100 91 86 80 65 62 114 96 94 115 100 95 121 106 101 135 120 115 152 138 135 154 143 141 143 132 130 131 121 120 126 116 115 108 103 99 109 104 98 107 105 93 105 103 90 112 112 100 138 139 131 159 160 155 162 162 162 148 148 148 154 154 154 164 164 164 177 176 174 190 186 183 201 197 194 212 207 203 219 214 210 221 216 212 228 223 219 235 227 225 235 227 225 234 228 228 232 232 232 225 229 228 215 224 221 196 205 212 145 193 203 71 174 191 13 163 190 0 165 201 0 171 214 2 163 207 8 161 203 0 167 203 1 168 204 0 168 204 0 168 204 0 170 205 0 170 205 0 171 205 0 172 206 0 173 207 0 173 207 0 173 207 0 173 207 0 173 207 0 173 207 0 173 207 0 173 207 0 173 207 0 173 207 0 173 207 0 173 207 0 173 207 0 173 207 0 173 207 0 173 207 0 172 210 0 172 210 0 172 210 0 172 210 0 172 210 0 172 210 0 172 210 0 172 210 0 172 210 0 172 210 0 172 210 0 172 210 0 172 210 0 172 210 0 172 210 0 172 210 0 173 210 0 173 210 0 173 210 0 173 210 0 173 210 0 173 210 0 173 210 0 173 210 0 173 210 
0 173 210 0 173 210 0 173 210 0 173 210 0 173 210 0 173 210 0 173 210 0 174 208 0 174 208 0 174 208 0 174 208 0 174 208 0 174 208 0 174 208 0 174 208 0 174 208 0 174 208 0 174 208 0 174 208 0 174 208 0 174 208 0 174 208 0 174 208 0 173 207 0 173 207 0 173 207 0 173 207 0 173 207 0 173 207 0 173 207 0 173 207 1 174 208 1 174 208 1 174 208 1 174 208 1 174 208 1 174 208 1 174 208 1 174 208 0 173 207 0 173 207 0 173 207 0 173 207 0 173 207 0 173 207 0 173 207 0 173 207 0 174 208 0 174 208 0 174 208 0 174 208 0 174 208 0 174 208 0 174 208 0 174 208 0 174 208 0 174 208 0 174 208 0 174 208 0 174 208 0 174 208 0 174 208 0 174 208 0 173 207 0 173 207 0 173 207 0 173 207 0 173 207 0 173 207 0 173 207 0 173 207 0 173 207 0 173 207 0 173 207 0 173 207 0 173 207 0 173 207 0 173 207 0 173 207 1 174 208 1 174 208 1 174 208 1 174 208 1 174 208 1 174 208 1 174 208 1 174 208 0 173 207 0 173 207 0 173 207 0 173 207 
1 136 168 0 135 167 0 135 167 0 133 166 1 131 165 0 130 164 1 129 164 0 128 163 0 130 162 0 130 162 0 130 162 0 130 162 0 129 161 0 129 161 0 128 160 0 128 160 0 129 161 0 129 161 0 128 160 0 127 160 0 126 159 0 124 158 1 124 158 0 123 157 2 123 154 2 121 153 2 121 151 1 119 149 0 118 146 1 116 143 1 115 142 1 115 141 0 110 137 0 110 137 0 109 136 0 109 136 0 109 136 0 108 135 0 108 135 0 108 135 1 106 136 1 106 136 1 106 136 1 106 136 1 106 136 1 106 136 1 106 136 1 106 136 1 110 139 1 110 139 1 110 139 1 110 139 1 110 139 1 110 139 1 110 139 1 110 139 14 103 143 4 107 142 0 109 138 0 111 138 14 110 134 19 95 118 16 81 99 17 79 92 24 76 100 24 72 92 67 109 123 138 168 176 145 165 166 174 180 180 199 195 192 214 204 203 215 215 215 215 215 215 215 215 215 213 213 213 211 211 211 207 207 207 204 204 204 202 202 202 198 194 208 200 195 202 188 179 180 194 183 177 187 174 165 197 184 176 187 174 168 190 176 175 178 159 152 189 170 163 194 177 169 188 171 163 173 159 150 154 140 131 124 111 102 99 86 77 40 31 26 40 35 29 70 67 60 46 46 38 56 53 46 80 73 67 75 64 60 143 128 125 185 172 166 192 179 173 184 173 167 168 157 153 162 152 150 165 157 154 157 149 147 137 132 129 109 109 101 105 105 95 108 108 96 107 109 95 99 103 89 108 111 102 138 143 137 164 168 167 147 147 147 156 156 156 169 168 166 179 178 176 190 186 183 201 196 192 213 208 204 222 217 213 217 212 208 227 219 216 233 223 221 233 223 222 231 225 225 230 229 227 222 226 225 213 222 219 209 220 226 145 199 209 30 145 163 0 159 187 0 160 198 11 182 226 6 164 209 10 159 202 0 167 203 0 167 203 0 168 204 0 168 204 0 169 204 0 170 205 0 171 205 0 171 205 0 173 207 0 173 207 0 173 207 0 173 207 0 173 207 0 173 207 0 173 207 0 173 207 0 173 207 0 173 207 0 173 207 0 173 207 0 173 207 0 173 207 0 173 207 0 173 207 0 172 210 0 172 210 0 172 210 0 172 210 0 172 210 0 172 210 0 172 210 0 172 210 0 172 210 0 172 210 0 172 210 0 172 210 0 172 210 0 172 210 0 172 210 0 172 210 0 173 210 0 173 210 0 173 210 0 173 210 0 173 210 0 173 210 0 173 210 0 173 210 0 173 210 
0 173 210 0 173 210 0 173 210 0 173 210 0 173 210 0 173 210 0 173 210 0 174 208 0 174 208 0 174 208 0 174 208 0 174 208 0 174 208 0 174 208 0 174 208 0 174 208 0 174 208 0 174 208 0 174 208 0 174 208 0 174 208 0 174 208 0 174 208 0 173 207 0 173 207 0 173 207 0 173 207 0 173 207 0 173 207 0 173 207 0 173 207 1 174 208 1 174 208 1 174 208 1 174 208 1 174 208 1 174 208 1 174 208 1 174 208 0 173 207 0 173 207 0 173 207 0 173 207 0 173 207 0 173 207 0 173 207 0 173 207 0 174 208 0 174 208 0 174 208 0 174 208 0 174 208 0 174 208 0 174 208 0 174 208 0 174 208 0 174 208 0 174 208 0 174 208 0 174 208 0 174 208 0 174 208 0 174 208 2 172 207 2 172 207 2 172 207 2 172 207 2 172 207 2 172 207 2 172 207 2 172 207 2 172 207 2 172 207 2 172 207 2 172 207 2 172 207 2 172 207 2 172 207 2 172 207 3 173 208 3 173 208 3 173 208 3 173 208 3 173 208 3 173 208 3 173 208 3 173 208 2 172 207 2 172 207 2 172 207 2 172 207 
1 134 167 0 133 166 0 133 166 0 133 166 0 132 165 0 132 165 0 132 165 0 131 164 0 128 163 0 128 163 0 128 163 0 128 163 0 128 163 0 128 163 0 128 163 0 128 163 0 127 160 0 127 160 0 126 159 0 126 159 0 126 159 0 125 158 0 125 158 0 125 158 3 123 158 2 122 157 2 122 157 2 122 157 1 121 156 1 121 156 1 121 156 1 121 156 0 118 148 0 118 148 1 116 145 1 114 144 0 114 141 2 113 140 1 112 139 2 112 139 2 112 139 2 112 139 2 112 139 2 112 139 2 112 139 2 112 139 2 112 139 2 112 139 3 112 143 3 112 143 3 112 143 3 112 143 3 112 143 3 112 143 3 112 143 3 112 143 0 122 150 0 117 144 0 111 134 0 106 126 0 107 126 0 106 131 3 101 136 10 97 140 2 88 111 45 117 132 105 152 158 149 174 170 172 180 169 185 187 174 200 203 192 212 218 208 224 217 211 222 215 209 217 212 208 214 209 205 211 207 204 209 205 202 205 204 202 205 204 202 203 207 206 186 185 183 186 176 175 192 176 176 190 172 170 182 167 160 175 165 155 191 183 172 185 169 169 198 180 180 197 177 178 194 174 173 189 174 171 155 148 140 106 109 98 81 92 76 44 42 47 18 13 17 58 54 55 70 64 64 69 64 61 83 76 70 150 143 135 200 191 184 197 185 185 206 194 194 177 165 165 156 145 143 179 168 164 187 176 172 170 159 153 169 158 152 146 125 120 119 106 98 106 103 96 102 107 101 107 118 114 109 119 120 115 123 126 151 156 162 146 156 155 149 155 155 162 162 162 178 172 172 188 178 176 192 181 177 200 191 184 210 201 194 214 211 204 212 209 202 211 210 205 217 216 212 223 224 219 225 227 224 221 223 220 216 218 217 183 202 200 154 222 225 44 170 185 0 146 178 4 165 211 6 163 206 0 168 197 0 172 186 0 168 204 0 168 204 0 168 204 0 168 204 0 168 204 0 168 204 0 168 204 0 168 204 0 173 207 0 173 207 0 173 207 0 173 207 0 173 207 0 173 207 0 173 207 0 173 207 0 173 207 0 173 207 0 173 207 0 173 207 0 173 207 0 173 207 0 173 207 0 173 207 0 174 208 0 174 208 0 174 208 0 174 208 0 174 208 0 174 208 0 174 208 0 174 208 0 173 207 0 173 207 0 173 207 0 173 207 0 173 207 0 173 207 0 173 207 0 173 207 0 174 208 0 174 208 0 174 208 0 174 208 0 174 208 0 174 208 0 174 208 0 174 208 
0 174 208 0 174 208 0 174 208 0 174 208 0 174 208 0 174 208 0 174 208 0 174 208 0 174 208 0 174 208 0 174 208 0 174 208 0 174 208 0 174 208 0 174 208 0 174 208 0 174 208 0 174 208 0 174 208 0 174 208 0 174 208 0 174 208 0 174 208 0 174 208 0 174 208 0 174 208 0 174 208 0 174 208 0 174 208 0 174 208 0 174 208 0 174 208 0 174 208 0 174 208 0 174 208 0 174 208 0 174 208 0 174 208 0 174 208 0 174 208 0 174 208 0 174 208 0 174 208 0 174 208 0 174 208 0 174 208 0 174 208 0 174 208 0 174 208 0 174 208 0 174 208 0 174 208 0 174 208 0 174 208 0 174 208 0 174 208 0 174 208 0 174 208 0 174 208 0 174 208 0 174 208 0 174 208 0 174 208 0 174 208 0 174 208 0 174 208 0 174 208 0 174 208 0 174 208 0 174 208 0 174 208 0 174 208 0 174 208 0 174 208 0 174 208 0 174 208 0 174 208 0 174 208 0 174 208 0 174 208 0 174 208 0 174 208 0 174 208 0 174 208 0 174 208 0 174 208 0 174 208 0 174 208 0 174 208 0 174 208 0 174 208 0 174 208 
1 134 167 0 133 166 0 133 166 0 133 166 0 132 165 0 132 165 0 132 165 0 131 164 0 128 163 0 128 163 0 128 163 0 128 163 0 128 163 0 128 163 0 128 163 0 128 163 0 127 160 0 127 160 0 127 160 0 126 159 0 126 159 0 126 159 0 125 158 0 125 158 1 124 158 1 124 158 1 124 158 0 123 157 0 123 157 0 122 156 0 122 156 0 122 156 0 118 148 0 118 148 0 118 148 1 116 145 1 115 142 0 114 141 2 113 140 1 112 139 2 112 139 2 112 139 2 112 139 2 112 139 2 112 139 2 112 139 2 112 139 2 112 139 3 112 143 3 112 143 3 112 143 3 112 143 3 112 143 3 112 143 3 112 143 3 112 143 0 108 138 0 105 138 1 108 140 5 116 144 2 120 146 0 116 141 5 106 136 10 99 133 45 111 133 88 139 156 143 173 181 179 189 188 193 190 185 198 189 182 205 200 194 216 212 209 227 220 214 221 214 208 211 206 202 207 202 198 205 201 198 207 203 200 206 205 203 207 206 204 202 206 205 189 188 186 187 179 177 192 178 177 191 173 171 169 154 147 177 164 155 190 182 171 188 177 175 200 186 185 203 185 185 198 180 178 195 181 178 172 165 159 123 123 113 80 86 74 51 52 56 23 23 25 15 13 14 36 32 31 74 69 66 147 137 135 174 163 159 185 174 168 208 196 196 191 179 179 169 158 156 179 168 166 188 177 173 187 176 170 189 178 172 173 162 156 156 137 131 131 118 110 115 110 104 102 107 101 105 114 111 109 119 120 114 124 126 145 152 158 136 146 145 145 151 151 161 161 161 178 170 168 187 176 174 190 179 175 196 185 179 201 192 183 215 210 204 215 212 205 218 215 210 220 219 214 223 224 219 224 224 222 222 224 221 220 222 219 218 222 223 174 217 224 81 180 199 10 150 183 6 165 207 11 174 217 1 165 200 13 177 204 0 168 204 0 168 204 0 168 204 0 168 204 0 168 204 0 168 204 0 168 204 0 168 204 0 173 207 0 173 207 0 173 207 0 173 207 0 173 207 0 173 207 0 173 207 0 173 207 0 173 207 0 173 207 0 173 207 0 173 207 0 173 207 0 173 207 0 173 207 0 173 207 0 174 208 0 174 208 0 174 208 0 174 208 0 174 208 0 174 208 0 174 208 0 174 208 0 173 207 0 173 207 0 173 207 0 173 207 0 173 207 0 173 207 0 173 207 0 173 207 0 174 208 0 174 208 0 174 208 0 174 208 0 174 208 0 174 208 0 174 208 
0 174 208 0 174 208 0 174 208 0 174 208 0 174 208 0 174 208 0 174 208 0 174 208 0 174 208 0 174 208 0 174 208 0 174 208 0 174 208 0 174 208 0 174 208 0 174 208 0 174 208 0 174 208 0 174 208 0 174 208 0 174 208 0 174 208 0 174 208 0 174 208 0 174 208 0 174 208 0 174 208 0 174 208 0 174 208 0 174 208 0 174 208 0 174 208 0 174 208 0 174 208 0 174 208 0 174 208 0 174 208 0 174 208 0 174 208 0 174 208 0 174 208 0 174 208 0 174 208 0 174 208 0 174 208 0 174 208 0 174 208 0 174 208 0 174 208 0 174 208 0 174 208 0 174 208 0 174 208 0 174 208 0 174 208 0 174 208 0 174 208 0 174 208 0 174 208 0 174 208 0 174 208 0 174 208 0 174 208 0 174 208 0 174 208 0 174 208 0 174 208 0 174 208 0 174 208 0 174 208 0 174 208 0 174 208 0 174 208 0 174 208 0 174 208 0 174 208 0 174 208 0 174 208 0 174 208 0 174 208 0 174 208 0 174 208 0 174 208 0 174 208 0 174 208 0 174 208 0 174 208 0 174 208 0 174 208 0 174 208 0 174 208 0 174 208 0 174 208 
1 134 167 0 133 166 0 133 166 0 133 166 0 132 165 0 132 165 0 132 165 0 131 164 1 129 164 1 129 164 1 129 164 1 129 164 1 129 164 1 129 164 1 129 164 1 129 164 0 129 161 0 129 161 0 128 160 0 128 160 0 128 160 0 127 159 0 127 159 0 127 159 2 125 159 2 125 159 1 124 158 1 124 158 0 123 157 0 123 157 0 123 157 0 123 157 1 120 152 0 119 151 0 119 149 0 118 146 1 116 145 0 115 142 1 115 142 0 114 140 2 113 141 2 113 141 2 113 141 2 113 141 2 113 141 2 113 141 2 113 141 2 113 141 2 113 143 2 113 143 2 113 143 2 113 143 2 113 143 2 113 143 2 113 143 2 113 143 26 127 157 14 114 150 4 107 148 0 113 153 0 118 152 0 112 140 5 105 129 19 103 127 99 136 154 130 158 170 171 182 188 196 190 192 200 184 184 200 182 182 203 188 191 209 198 202 222 215 209 215 208 202 205 200 196 203 198 194 204 200 197 207 203 200 204 203 201 203 202 200 196 198 197 189 188 186 189 181 179 193 182 180 195 180 177 156 141 134 185 172 163 198 188 178 195 185 183 200 189 187 202 188 187 194 180 179 190 179 177 180 172 169 134 131 124 76 76 68 48 56 58 24 29 32 0 2 3 8 6 7 87 79 77 167 156 154 184 169 166 185 167 165 197 185 185 174 163 161 173 162 160 201 190 186 200 189 185 201 190 184 210 200 191 173 163 154 165 148 141 157 144 136 147 142 136 124 126 121 110 116 114 105 115 116 112 122 124 142 151 156 138 148 147 151 157 155 166 165 163 177 169 167 184 173 171 193 180 174 199 189 180 203 193 184 210 203 195 212 207 201 216 211 205 218 215 210 217 216 212 217 216 212 216 216 214 216 216 214 238 228 229 199 213 224 134 194 218 36 150 184 0 154 190 5 178 218 0 163 206 20 169 212 1 169 205 1 169 205 1 169 205 1 169 205 1 169 205 1 169 205 1 169 205 1 169 205 0 173 207 0 173 207 0 173 207 0 173 207 0 173 207 0 173 207 0 173 207 0 173 207 0 173 207 0 173 207 0 173 207 0 173 207 0 173 207 0 173 207 0 173 207 0 173 207 0 174 208 0 174 208 0 174 208 0 174 208 0 174 208 0 174 208 0 174 208 0 174 208 0 173 207 0 173 207 0 173 207 0 173 207 0 173 207 0 173 207 0 173 207 0 173 207 0 174 208 0 174 208 0 174 208 0 174 208 0 174 208 0 174 208 0 174 208 
0 174 208 0 174 208 0 174 208 0 174 208 0 174 208 0 174 208 0 174 208 0 174 208 0 174 208 0 174 208 0 174 208 0 174 208 0 174 208 0 174 208 0 174 208 0 174 208 0 174 208 0 174 208 0 174 208 0 174 208 0 174 208 0 174 208 0 174 208 0 174 208 0 174 208 0 174 208 0 174 208 0 174 208 0 174 208 0 174 208 0 174 208 0 174 208 0 174 208 0 174 208 0 174 208 0 174 208 0 174 208 0 174 208 0 174 208 0 174 208 0 174 208 0 174 208 0 174 208 0 174 208 0 174 208 0 174 208 0 174 208 0 174 208 0 174 208 0 174 208 0 174 208 0 174 208 0 174 208 0 174 208 0 174 208 0 174 208 0 174 208 0 174 208 0 174 208 0 174 208 0 174 208 0 174 208 0 174 208 0 174 208 0 174 208 0 174 208 0 174 208 0 174 208 0 174 208 0 174 208 0 174 208 0 174 208 0 174 208 0 174 208 0 174 208 0 174 208 0 174 208 0 174 208 0 174 208 0 174 208 0 174 208 0 174 208 0 174 208 0 174 208 0 174 208 0 174 208 0 174 208 0 174 208 0 174 208 0 174 208 0 174 208 0 174 208 0 174 208 
1 134 167 0 133 166 0 133 166 0 133 166 0 132 165 0 132 165 0 132 165 0 131 164 1 129 164 1 129 164 1 129 164 1 129 164 1 129 164 1 129 164 1 129 164 1 129 164 1 130 162 1 130 162 0 129 161 0 129 161 0 129 161 0 128 160 0 128 160 0 128 160 2 126 160 1 125 159 1 125 159 1 125 159 0 124 158 0 124 158 0 124 158 0 123 157 0 122 153 1 122 153 0 121 152 0 119 149 0 118 146 0 118 146 1 116 143 1 116 143 2 116 143 2 116 143 2 116 143 2 116 143 2 116 143 2 116 143 2 116 143 2 116 143 3 114 144 3 114 144 3 114 144 3 114 144 3 114 144 3 114 144 3 114 144 3 114 144 0 111 131 0 110 138 3 116 156 3 124 167 0 119 156 0 109 136 29 114 134 65 128 143 149 169 176 167 178 184 187 187 189 199 189 190 204 188 188 205 189 190 207 196 200 211 205 209 210 203 197 207 200 194 203 198 194 205 200 196 208 204 201 208 204 201 201 200 198 195 194 192 189 187 188 190 186 185 190 185 182 197 187 185 201 190 186 153 140 132 198 184 175 211 197 188 211 204 198 207 198 193 207 197 195 200 190 188 189 179 177 178 170 168 137 132 129 81 77 74 34 48 49 11 22 24 11 16 19 10 10 10 109 103 103 142 128 128 160 142 142 170 150 149 167 156 154 163 152 150 187 176 172 202 191 187 205 194 188 217 207 198 206 196 187 171 161 152 186 171 164 184 174 165 179 172 166 146 145 141 123 127 126 113 121 123 107 118 120 126 137 141 148 157 154 161 165 164 171 170 168 175 165 163 180 166 163 192 179 173 204 191 183 207 197 187 210 201 194 212 203 196 214 207 201 215 210 204 216 211 207 215 211 208 214 210 207 211 210 206 227 215 215 221 220 228 179 211 232 71 165 190 0 151 176 0 174 206 2 170 215 13 158 213 1 169 205 1 169 205 1 169 205 1 169 205 1 169 205 1 169 205 1 169 205 1 169 205 0 173 207 0 173 207 0 173 207 0 173 207 0 173 207 0 173 207 0 173 207 0 173 207 1 174 208 1 174 208 1 174 208 1 174 208 1 174 208 1 174 208 1 174 208 1 174 208 0 174 208 0 174 208 0 174 208 0 174 208 0 174 208 0 174 208 0 174 208 0 174 208 0 174 208 0 174 208 0 174 208 0 174 208 0 174 208 0 174 208 0 174 208 0 174 208 0 174 208 0 174 208 0 174 208 0 174 208 0 174 208 0 174 208 
0 174 208 0 174 208 0 174 208 0 174 208 0 174 208 0 174 208 0 174 208 0 174 208 0 174 208 0 174 208 0 174 208 0 174 208 0 174 208 0 174 208 0 174 208 0 174 208 0 174 208 0 174 208 0 174 208 0 174 208 0 174 208 0 174 208 0 174 208 0 174 208 0 174 208 0 174 208 0 174 208 0 174 208 0 174 208 0 174 208 0 174 208 0 174 208 0 174 208 0 174 208 0 174 208 0 174 208 0 174 208 0 174 208 0 174 208 0 174 208 0 174 208 0 174 208 0 174 208 0 174 208 0 174 208 0 174 208 0 174 208 0 174 208 0 174 208 0 174 208 0 174 208 0 174 208 0 174 208 0 174 208 0 174 208 0 174 208 0 174 208 0 174 208 0 174 208 0 174 208 0 174 208 0 174 208 0 174 208 0 174 208 0 174 208 0 174 208 0 174 208 0 174 208 0 174 208 0 174 208 0 174 208 0 174 208 0 174 208 0 174 208 0 174 208 0 174 208 0 174 208 0 174 208 0 174 208 0 174 208 0 174 208 0 174 208 0 174 208 0 174 208 0 174 208 0 174 208 0 174 208 0 174 208 0 174 208 0 174 208 0 174 208 0 174 208 0 174 208 0 174 208 
1 134 167 0 133 166 0 133 166 0 133 166 0 132 165 0 132 165 0 132 165 0 131 164 2 130 165 2 130 165 2 130 165 2 130 165 2 130 165 2 130 165 2 130 165 2 130 165 1 131 163 1 131 163 0 130 162 0 130 162 0 130 162 0 129 161 0 129 161 0 129 161 3 127 161 2 126 160 2 126 160 2 126 160 1 125 159 1 125 159 1 125 159 0 124 158 0 124 156 0 124 156 0 122 153 0 122 153 0 121 150 0 120 147 0 119 146 0 118 146 0 118 146 0 118 146 0 118 146 0 118 146 0 118 146 0 118 146 0 118 146 0 118 146 1 114 144 1 114 144 1 114 144 1 114 144 1 114 144 1 114 144 1 114 144 1 114 144 0 129 138 0 126 145 4 125 154 3 120 155 2 109 141 25 111 134 87 145 159 149 183 192 172 187 184 177 186 183 187 187 185 199 191 188 207 197 195 211 203 201 210 206 205 207 207 207 203 196 190 203 196 190 202 197 193 205 200 196 208 204 201 208 204 201 201 200 198 197 196 194 193 189 190 195 191 190 198 193 190 203 195 192 206 197 192 158 145 137 199 185 176 209 192 184 214 203 199 207 196 192 208 200 197 204 199 195 183 179 176 158 154 153 120 116 117 76 72 73 26 41 44 4 18 19 6 14 16 14 15 17 105 99 101 126 114 114 132 116 116 145 125 126 163 152 148 167 156 152 198 187 183 197 186 180 211 201 192 218 208 199 180 170 160 189 179 169 211 201 192 204 194 185 187 180 174 149 145 142 126 128 127 113 121 123 100 111 113 108 123 126 155 161 157 170 172 169 181 177 174 181 171 169 182 169 163 191 176 169 202 188 179 206 194 182 213 203 194 214 204 195 215 206 199 218 209 204 219 212 206 217 212 208 215 210 206 212 207 204 213 208 204 227 225 228 199 219 230 127 200 215 34 171 187 0 162 186 4 176 216 9 166 221 2 170 206 2 170 206 2 170 206 2 170 206 2 170 206 2 170 206 2 170 206 2 170 206 0 173 207 0 173 207 0 173 207 0 173 207 0 173 207 0 173 207 0 173 207 0 173 207 1 174 208 1 174 208 1 174 208 1 174 208 1 174 208 1 174 208 1 174 208 1 174 208 0 174 208 0 174 208 0 174 208 0 174 208 0 174 208 0 174 208 0 174 208 0 174 208 0 174 208 0 174 208 0 174 208 0 174 208 0 174 208 0 174 208 0 174 208 0 174 208 0 174 208 0 174 208 0 174 208 0 174 208 0 174 208 0 174 208 
0 174 208 0 174 208 0 174 208 0 174 208 0 174 208 0 174 208 0 174 208 0 174 208 0 174 208 0 174 208 0 174 208 0 174 208 0 174 208 0 174 208 0 174 208 0 174 208 0 174 208 0 174 208 0 174 208 0 174 208 0 174 208 0 174 208 0 174 208 0 174 208 0 174 208 0 174 208 0 174 208 0 174 208 0 174 208 0 174 208 0 174 208 0 174 208 0 174 208 0 174 208 0 174 208 0 174 208 0 174 208 0 174 208 0 174 208 0 174 208 0 174 208 0 174 208 0 174 208 0 174 208 0 174 208 0 174 208 0 174 208 0 174 208 0 174 208 0 174 208 0 174 208 0 174 208 0 174 208 0 174 208 0 174 208 0 174 208 0 174 208 0 174 208 0 174 208 0 174 208 0 174 208 0 174 208 0 174 208 0 174 208 0 174 208 0 174 208 0 174 208 0 174 208 0 174 208 0 174 208 0 174 208 0 174 208 0 174 208 0 174 208 0 174 208 0 174 208 0 174 208 0 174 208 0 174 208 0 174 208 0 174 208 0 174 208 0 174 208 0 174 208 0 174 208 0 174 208 0 174 208 0 174 208 0 174 208 0 174 208 0 174 208 0 174 208 0 174 208 0 174 208 
1 134 167 0 133 166 0 133 166 0 133 166 0 132 165 0 132 165 0 132 165 0 131 164 2 130 165 2 130 165 2 130 165 2 130 165 2 130 165 2 130 165 2 130 165 2 130 165 2 132 164 2 132 164 1 131 163 1 131 163 0 130 162 0 130 162 0 130 162 0 130 162 1 128 161 1 128 161 1 128 161 1 128 161 0 127 160 0 127 160 0 126 159 0 126 159 0 126 159 0 125 157 0 125 157 0 124 154 0 122 153 0 121 150 0 121 148 0 120 147 0 119 149 0 119 149 0 119 149 0 119 149 0 119 149 0 119 149 0 119 149 0 119 149 1 116 145 1 116 145 1 116 145 1 116 145 1 116 145 1 116 145 1 116 145 1 116 145 0 131 136 0 113 125 0 100 121 16 104 128 44 119 140 86 139 153 138 165 174 179 186 194 178 188 179 182 187 180 190 189 184 202 197 193 212 204 201 212 207 203 205 204 199 199 200 194 202 195 189 203 196 190 202 197 193 203 198 194 203 199 196 205 201 198 205 204 202 206 205 203 204 195 198 204 198 198 205 201 198 205 202 197 204 197 191 163 153 144 187 170 162 190 170 163 204 185 181 201 186 181 204 195 190 198 194 191 173 173 171 137 139 138 96 97 99 63 64 68 26 37 41 17 26 31 0 2 5 3 4 8 44 40 41 118 109 110 131 119 119 152 138 138 184 173 169 176 165 161 190 179 173 195 185 176 218 208 199 202 192 182 168 158 148 223 213 201 212 203 194 212 203 194 198 189 184 145 140 137 102 100 101 85 90 93 87 101 102 117 135 137 161 167 163 178 180 175 196 191 187 200 189 185 197 182 177 196 179 171 197 183 172 201 187 176 204 191 183 207 194 186 211 198 190 210 199 193 208 199 194 206 197 192 204 196 193 205 197 194 205 205 197 210 211 206 191 207 207 173 222 227 99 195 207 17 153 175 8 168 204 4 172 217 2 170 206 2 170 206 2 170 206 2 170 206 2 170 206 2 170 206 2 170 206 2 170 206 0 173 207 0 173 207 0 173 207 0 173 207 0 173 207 0 173 207 0 173 207 0 173 207 1 174 208 1 174 208 1 174 208 1 174 208 1 174 208 1 174 208 1 174 208 1 174 208 0 174 208 0 174 208 0 174 208 0 174 208 0 174 208 0 174 208 0 174 208 0 174 208 0 174 208 0 174 208 0 174 208 0 174 208 0 174 208 0 174 208 0 174 208 0 174 208 0 174 208 0 174 208 0 174 208 0 174 208 0 174 208 0 174 208 0 174 208 
0 174 208 0 174 208 0 174 208 0 174 208 0 174 208 0 174 208 0 174 208 0 174 208 0 174 208 0 174 208 0 174 208 0 174 208 0 174 208 0 174 208 0 174 208 0 174 208 0 174 208 0 174 208 0 174 208 0 174 208 0 174 208 0 174 208 0 174 208 0 174 208 0 174 208 0 174 208 0 174 208 0 174 208 0 174 208 0 174 208 0 174 208 0 174 208 0 174 208 0 174 208 0 174 208 0 174 208 0 174 208 0 174 208 0 174 208 0 174 208 0 174 208 0 174 208 0 174 208 0 174 208 0 174 208 0 174 208 0 174 208 0 174 208 0 174 208 0 174 208 0 174 208 0 174 208 0 174 208 0 174 208 0 174 208 0 174 208 0 174 208 0 174 208 0 174 208 0 174 208 0 174 208 0 174 208 0 174 208 0 174 208 0 174 208 0 174 208 0 174 208 0 174 208 0 174 208 0 174 208 0 174 208 0 174 208 0 174 208 0 174 208 0 174 208 0 174 208 0 174 208 0 174 208 0 174 208 0 174 208 0 174 208 0 174 208 0 174 208 0 174 208 0 174 208 0 174 208 0 174 208 0 174 208 0 174 208 0 174 208 0 174 208 0 174 208 0 174 208 
1 134 167 0 133 166 0 133 166 0 133 166 0 132 165 0 132 165 0 132 165 0 131 164 2 130 165 2 130 165 2 130 165 2 130 165 2 130 165 2 130 165 2 130 165 2 130 165 0 133 164 0 133 164 0 133 164 0 133 164 0 132 163 0 132 163 0 131 162 0 131 162 2 129 162 2 129 162 2 129 162 1 128 161 1 128 161 0 127 160 0 127 160 0 127 160 0 128 160 0 127 159 0 126 158 0 125 157 0 124 154 0 123 151 0 123 151 0 123 151 0 121 150 0 121 150 0 121 150 0 121 150 0 121 150 0 121 150 0 121 150 0 121 150 1 116 145 1 116 145 1 116 145 1 116 145 1 116 145 1 116 145 1 116 145 1 116 145 0 111 123 31 123 138 82 147 165 136 179 195 173 203 213 191 210 216 200 203 208 205 196 201 193 193 185 199 196 189 207 199 196 212 202 200 214 203 199 211 200 194 207 197 188 203 195 184 197 190 184 203 196 190 207 202 198 207 202 198 204 200 197 204 200 197 207 206 204 212 211 209 206 195 199 203 197 197 206 202 199 202 201 196 196 191 185 174 164 155 170 153 145 169 146 140 185 155 155 190 169 166 182 171 167 162 161 157 142 148 146 113 122 121 74 82 85 47 55 58 18 25 33 15 20 26 0 0 5 1 2 6 8 6 9 108 104 105 137 131 131 153 148 145 166 155 149 157 146 140 145 134 128 173 163 154 198 188 178 171 161 151 171 161 149 224 214 202 204 197 187 209 200 191 198 189 184 142 134 132 89 85 86 68 73 76 85 99 100 132 152 153 163 168 162 178 179 174 197 192 188 204 193 187 199 182 175 187 170 162 186 169 159 189 175 162 184 170 161 195 181 172 205 190 183 201 188 180 189 178 172 183 172 168 188 179 174 196 186 184 209 204 200 196 197 191 189 199 191 194 214 213 161 205 216 87 173 198 25 162 196 0 168 205 3 171 207 3 171 207 3 171 207 3 171 207 3 171 207 3 171 207 3 171 207 3 171 207 0 173 207 0 173 207 0 173 207 0 173 207 0 173 207 0 173 207 0 173 207 0 173 207 2 175 209 2 175 209 2 175 209 2 175 209 2 175 209 2 175 209 2 175 209 2 175 209 0 174 208 0 174 208 0 174 208 0 174 208 0 174 208 0 174 208 0 174 208 0 174 208 1 175 209 1 175 209 1 175 209 1 175 209 1 175 209 1 175 209 1 175 209 1 175 209 0 174 208 0 174 208 0 174 208 0 174 208 0 174 208 0 174 208 0 174 208 
0 174 208 0 174 208 0 174 208 0 174 208 0 174 208 0 174 208 0 174 208 0 174 208 0 174 208 0 174 208 0 174 208 0 174 208 0 174 208 0 174 208 0 174 208 0 174 208 0 174 208 0 174 208 0 174 208 0 174 208 0 174 208 0 174 208 0 174 208 0 174 208 0 174 208 0 174 208 0 174 208 0 174 208 0 174 208 0 174 208 0 174 208 0 174 208 0 174 208 0 174 208 0 174 208 0 174 208 0 174 208 0 174 208 0 174 208 0 174 208 0 174 208 0 174 208 0 174 208 0 174 208 0 174 208 0 174 208 0 174 208 0 174 208 0 174 208 0 174 208 0 174 208 0 174 208 0 174 208 0 174 208 0 174 208 0 174 208 0 174 208 0 174 208 0 174 208 0 174 208 0 174 208 0 174 208 0 174 208 0 174 208 0 174 208 0 174 208 0 174 208 0 174 208 0 174 208 0 174 208 0 174 208 0 174 208 0 174 208 0 174 208 0 174 208 0 174 208 0 174 208 0 174 208 0 174 208 0 174 208 0 174 208 0 174 208 0 174 208 0 174 208 0 174 208 0 174 208 0 174 208 0 174 208 0 174 208 0 174 208 0 174 208 0 174 208 0 174 208 
1 134 167 0 133 166 0 133 166 0 133 166 0 132 165 0 132 165 0 132 165 0 131 164 3 131 166 3 131 166 3 131 166 3 131 166 3 131 166 3 131 166 3 131 166 3 131 166 1 134 165 1 134 165 0 133 164 0 133 164 0 132 163 0 132 163 0 132 163 0 132 163 1 130 162 1 130 162 1 130 162 1 130 162 0 129 161 0 129 161 0 129 161 0 128 160 0 128 160 0 128 160 0 127 159 0 126 158 0 126 155 0 124 154 0 123 151 0 123 151 1 122 151 1 122 151 1 122 151 1 122 151 1 122 151 1 122 151 1 122 151 1 122 151 1 116 145 1 116 145 1 116 145 1 116 145 1 116 145 1 116 145 1 116 145 1 116 145 23 105 127 88 149 170 165 194 212 195 203 214 183 184 188 171 167 166 181 171 172 198 183 186 197 188 183 203 192 188 209 195 194 208 190 190 201 181 180 197 176 171 197 177 168 199 181 169 190 183 177 202 195 189 212 207 203 215 210 206 209 205 202 205 201 198 206 205 203 211 210 208 200 189 193 198 189 190 202 198 195 198 197 192 190 187 180 181 172 163 162 145 137 158 135 129 152 116 116 163 135 134 139 125 122 104 103 99 90 99 96 76 88 88 41 55 56 18 29 33 8 11 20 0 0 9 0 0 8 16 17 21 34 34 36 110 110 110 135 134 132 124 123 119 115 104 98 119 108 102 91 81 72 137 127 118 162 152 142 139 129 117 173 163 151 194 184 172 211 207 196 200 193 183 179 170 165 135 125 124 100 96 97 86 90 93 91 105 106 124 145 146 156 161 155 167 168 162 182 177 171 191 178 172 181 164 157 167 150 142 167 150 140 175 161 148 175 158 150 194 177 169 207 192 185 201 186 179 182 169 163 171 160 156 182 171 167 196 187 182 219 208 206 201 198 191 203 206 195 199 199 197 202 208 222 161 208 236 53 170 203 0 163 195 3 171 207 3 171 207 3 171 207 3 171 207 3 171 207 3 171 207 3 171 207 3 171 207 0 173 207 0 173 207 0 173 207 0 173 207 0 173 207 0 173 207 0 173 207 0 173 207 2 175 209 2 175 209 2 175 209 2 175 209 2 175 209 2 175 209 2 175 209 2 175 209 0 174 208 0 174 208 0 174 208 0 174 208 0 174 208 0 174 208 0 174 208 0 174 208 1 175 209 1 175 209 1 175 209 1 175 209 1 175 209 1 175 209 1 175 209 1 175 209 0 174 208 0 174 208 0 174 208 0 174 208 0 174 208 0 174 208 0 174 208 0 174 208 
0 174 208 0 174 208 0 174 208 0 174 208 0 174 208 0 174 208 0 174 208 0 174 208 0 174 208 0 174 208 0 174 208 0 174 208 0 174 208 0 174 208 0 174 208 0 174 208 0 174 208 0 174 208 0 174 208 0 174 208 0 174 208 0 174 208 0 174 208 0 174 208 0 174 208 0 174 208 0 174 208 0 174 208 0 174 208 0 174 208 0 174 208 0 174 208 0 174 208 0 174 208 0 174 208 0 174 208 0 174 208 0 174 208 0 174 208 0 174 208 0 174 208 0 174 208 0 174 208 0 174 208 0 174 208 0 174 208 0 174 208 0 174 208 0 174 208 0 174 208 0 174 208 0 174 208 0 174 208 0 174 208 0 174 208 0 174 208 0 174 208 0 174 208 0 174 208 0 174 208 0 174 208 0 174 208 0 174 208 0 174 208 0 174 208 0 174 208 0 174 208 0 174 208 0 174 208 0 174 208 0 174 208 0 174 208 0 174 208 0 174 208 0 174 208 0 174 208 0 174 208 0 174 208 0 174 208 0 174 208 0 174 208 0 174 208 0 174 208 0 174 208 0 174 208 0 174 208 0 174 208 0 174 208 0 174 208 0 174 208 0 174 208 0 174 208 
0 134 169 1 135 170 1 135 170 1 135 170 2 136 171 2 136 171 2 136 171 3 137 172 0 139 172 0 139 172 0 139 172 0 139 172 0 139 172 0 139 172 0 139 172 0 139 172 0 137 170 0 137 170 0 137 170 0 137 170 0 137 170 0 137 170 0 137 170 0 137 170 0 136 165 0 136 165 0 136 165 0 136 165 0 136 165 0 136 165 0 136 165 0 136 165 0 133 164 0 133 164 0 133 164 0 132 163 0 132 163 0 131 162 0 131 162 0 131 162 0 126 158 0 126 158 0 126 158 0 126 158 0 125 157 0 125 157 0 124 156 0 124 156 0 122 149 0 108 135 15 113 138 14 107 138 4 102 141 2 109 145 0 109 138 8 117 137 63 122 116 151 190 187 195 207 205 190 186 183 164 161 152 181 183 170 195 197 184 205 205 193 201 191 189 197 186 180 192 178 169 173 159 148 173 159 148 194 184 174 195 191 182 201 198 193 216 192 182 207 184 176 220 201 194 219 206 198 215 204 200 210 200 198 194 184 183 204 192 194 199 191 202 167 160 168 210 201 206 204 195 198 198 188 187 194 183 179 172 162 153 143 133 124 131 101 91 127 107 98 111 106 100 81 92 88 46 65 63 18 38 39 6 21 24 2 16 17 1 25 25 0 13 13 0 9 9 5 29 29 41 65 65 72 96 96 83 107 107 82 106 106 94 97 90 116 117 109 124 121 114 125 118 110 136 123 117 145 128 121 160 140 133 183 160 154 192 187 168 187 184 169 151 153 142 102 107 103 86 92 92 76 80 81 85 86 88 142 142 142 169 160 161 193 181 181 200 182 182 212 188 188 186 160 159 128 103 98 172 149 141 186 166 157 184 170 161 200 183 175 195 177 167 216 193 185 228 201 192 169 141 130 185 152 143 208 174 164 212 184 183 210 200 198 212 215 208 210 202 199 217 205 207 197 217 228 102 195 210 12 168 183 0 173 207 0 173 207 0 173 207 0 173 207 0 173 207 0 173 207 0 173 207 0 173 207 0 174 208 0 174 208 0 174 208 0 174 208 0 174 208 0 174 208 0 174 208 0 174 208 0 174 208 0 174 208 0 174 208 0 174 208 0 174 208 0 174 208 0 174 208 0 174 208 0 174 208 0 174 208 0 174 208 0 174 208 0 174 208 0 174 208 0 174 208 0 174 208 0 174 208 0 174 208 0 174 208 0 174 208 0 174 208 0 174 208 0 174 208 0 174 208 0 174 208 0 174 208 0 174 208 0 174 208 0 174 208 0 174 208 0 174 208 0 174 208 
0 174 208 0 174 208 0 174 208 0 174 208 0 174 208 0 174 208 0 174 208 0 174 208 0 174 208 0 174 208 0 174 208 0 174 208 0 174 208 0 174 208 0 174 208 0 174 208 0 174 208 0 174 208 0 174 208 0 174 208 0 174 208 0 174 208 0 174 208 0 174 208 0 174 208 0 174 208 0 174 208 0 174 208 0 174 208 0 174 208 0 174 208 0 174 208 0 174 208 0 174 208 0 174 208 0 174 208 0 174 208 0 174 208 0 174 208 0 174 208 0 174 208 0 174 208 0 174 208 0 174 208 0 174 208 0 174 208 0 174 208 0 174 208 0 174 208 0 174 208 0 174 208 0 174 208 0 174 208 0 174 208 0 174 208 0 174 208 0 174 208 0 174 208 0 174 208 0 174 208 0 174 208 0 174 208 0 174 208 0 174 208 0 174 208 0 174 208 0 174 208 0 174 208 0 174 208 0 174 208 0 174 208 0 174 208 0 174 208 0 174 208 0 174 208 0 174 208 0 174 208 0 174 208 0 174 208 0 174 208 0 174 208 0 174 208 0 174 208 0 174 208 0 174 208 0 174 208 0 174 208 0 174 208 0 174 208 0 174 208 0 174 208 0 174 208 
0 136 170 0 136 170 0 137 171 0 137 171 0 137 171 1 138 172 1 138 172 1 138 172 0 139 172 0 139 172 0 139 172 0 139 172 0 139 172 0 139 172 0 139 172 0 139 172 0 138 171 0 138 171 0 138 171 0 138 171 0 138 171 0 138 171 0 138 171 0 138 171 0 137 168 0 137 168 0 137 168 0 137 168 0 137 168 0 137 168 0 137 168 0 137 168 1 134 167 1 134 167 1 134 167 0 133 166 0 133 166 0 132 165 0 132 165 0 132 165 0 129 160 0 129 160 0 128 159 0 128 159 0 127 158 0 127 158 0 127 158 0 127 158 0 132 159 0 122 146 12 124 146 8 116 144 1 111 144 0 110 140 2 107 129 26 123 139 135 168 173 180 195 202 197 187 196 172 151 156 196 176 177 193 179 176 222 208 205 209 195 192 224 199 203 216 190 193 206 176 176 187 157 155 198 168 166 224 198 197 219 199 200 218 199 201 207 205 192 201 199 187 209 206 197 202 199 194 198 194 193 198 189 192 181 170 176 180 169 177 178 169 174 129 123 125 166 160 162 179 173 173 177 173 170 170 167 162 165 162 155 164 164 156 135 134 130 105 111 109 60 81 82 21 56 60 1 44 50 0 43 49 2 42 50 4 43 50 0 33 42 3 40 48 12 46 55 15 48 55 16 49 54 28 59 64 47 76 80 62 91 95 96 93 86 104 100 91 117 108 101 129 116 108 131 114 107 127 107 100 142 117 110 171 144 137 186 165 160 183 168 165 144 134 133 82 80 81 62 66 67 62 68 68 77 83 81 129 134 130 156 160 161 176 176 176 186 180 180 211 199 199 178 164 161 124 111 105 159 149 140 171 162 153 170 167 158 177 173 164 193 186 176 202 192 183 216 203 194 191 174 164 169 151 141 186 166 155 199 189 180 212 215 206 207 218 210 204 203 201 215 204 210 198 215 231 121 203 225 28 166 192 0 173 207 0 173 207 0 173 207 0 173 207 0 173 207 0 173 207 0 173 207 0 173 207 0 174 208 0 174 208 0 174 208 0 174 208 0 174 208 0 174 208 0 174 208 0 174 208 0 174 208 0 174 208 0 174 208 0 174 208 0 174 208 0 174 208 0 174 208 0 174 208 0 174 208 0 174 208 0 174 208 0 174 208 0 174 208 0 174 208 0 174 208 0 174 208 0 174 208 0 174 208 0 174 208 0 174 208 0 174 208 0 174 208 0 174 208 0 174 208 0 174 208 0 174 208 0 174 208 0 174 208 0 174 208 0 174 208 0 174 208 0 174 208 0 174 208 
0 174 208 0 174 208 0 174 208 0 174 208 0 174 208 0 174 208 0 174 208 0 174 208 0 174 208 0 174 208 0 174 208 0 174 208 0 174 208 0 174 208 0 174 208 0 174 208 0 174 208 0 174 208 0 174 208 0 174 208 0 174 208 0 174 208 0 174 208 0 174 208 0 174 208 0 174 208 0 174 208 0 174 208 0 174 208 0 174 208 0 174 208 0 174 208 0 174 208 0 174 208 0 174 208 0 174 208 0 174 208 0 174 208 0 174 208 0 174 208 0 174 208 0 174 208 0 174 208 0 174 208 0 174 208 0 174 208 0 174 208 0 174 208 0 174 208 0 174 208 0 174 208 0 174 208 0 174 208 0 174 208 0 174 208 0 174 208 0 174 208 0 174 208 0 174 208 0 174 208 0 174 208 0 174 208 0 174 208 0 174 208 0 174 208 0 174 208 0 174 208 0 174 208 0 174 208 0 174 208 0 174 208 0 174 208 0 174 208 0 174 208 0 174 208 0 174 208 0 174 208 0 174 208 0 174 208 0 174 208 0 174 208 0 174 208 0 174 208 0 174 208 0 174 208 0 174 208 0 174 208 0 174 208 0 174 208 0 174 208 0 174 208 
0 139 172 0 139 172 0 139 172 0 139 172 1 140 173 1 140 173 2 141 174 2 141 174 1 141 174 1 141 174 1 141 174 1 141 174 1 141 174 1 141 174 1 141 174 1 141 174 0 140 173 0 140 173 0 140 173 0 140 173 0 140 173 0 140 173 0 140 173 0 140 173 0 140 170 0 140 170 0 140 170 0 140 170 0 140 170 0 140 170 0 140 170 0 140 170 0 137 169 0 137 169 0 137 169 0 136 168 0 136 168 0 136 168 0 135 167 0 135 167 1 131 163 1 131 163 1 131 163 0 130 162 0 130 162 0 129 161 0 129 161 0 129 161 0 133 162 0 128 153 1 127 149 0 122 145 0 120 146 0 109 136 11 102 121 57 131 144 175 195 204 193 197 206 170 154 164 160 137 143 207 189 189 201 190 186 228 218 216 211 200 198 222 201 206 214 192 194 201 175 176 180 152 149 202 177 173 229 208 207 224 206 206 214 199 202 201 213 199 201 211 200 204 211 203 192 194 191 188 188 190 191 188 195 173 167 177 158 150 163 157 161 162 96 100 101 109 117 119 117 129 129 98 114 114 70 88 88 67 88 89 87 111 111 75 122 130 49 101 112 12 78 90 0 65 79 0 68 84 0 76 94 0 80 99 2 81 98 0 62 84 0 64 84 3 64 83 2 59 76 1 54 68 2 54 65 11 59 69 18 65 73 63 69 65 75 80 76 100 101 96 115 112 107 110 102 99 107 96 92 121 107 104 134 119 114 157 137 146 156 143 152 117 111 121 52 55 64 35 44 49 52 64 64 79 91 87 130 143 134 143 153 154 154 160 160 167 167 167 205 201 200 164 156 153 119 112 106 144 140 131 150 147 138 162 163 155 163 164 156 193 193 185 185 182 173 199 192 182 211 202 193 152 142 132 159 146 137 187 184 169 210 218 205 198 209 201 199 198 196 208 198 207 192 205 224 136 203 232 46 160 194 0 173 207 0 173 207 0 173 207 0 173 207 0 173 207 0 173 207 0 173 207 0 173 207 0 174 208 0 174 208 0 174 208 0 174 208 0 174 208 0 174 208 0 174 208 0 174 208 0 174 208 0 174 208 0 174 208 0 174 208 0 174 208 0 174 208 0 174 208 0 174 208 0 174 208 0 174 208 0 174 208 0 174 208 0 174 208 0 174 208 0 174 208 0 174 208 0 174 208 0 174 208 0 174 208 0 174 208 0 174 208 0 174 208 0 174 208 0 174 208 0 174 208 0 174 208 0 174 208 0 174 208 0 174 208 0 174 208 0 174 208 0 174 208 0 174 208 0 174 208 0 174 208 
0 174 208 0 174 208 0 174 208 0 174 208 0 174 208 0 174 208 0 174 208 0 174 208 0 174 208 0 174 208 0 174 208 0 174 208 0 174 208 0 174 208 0 174 208 0 174 208 0 174 208 0 174 208 0 174 208 0 174 208 0 174 208 0 174 208 0 174 208 0 174 208 0 174 208 0 174 208 0 174 208 0 174 208 0 174 208 0 174 208 0 174 208 0 174 208 0 174 208 0 174 208 0 174 208 0 174 208 0 174 208 0 174 208 0 174 208 0 174 208 0 174 208 0 174 208 0 174 208 0 174 208 0 174 208 0 174 208 0 174 208 0 174 208 0 174 208 0 174 208 0 174 208 0 174 208 0 174 208 0 174 208 0 174 208 0 174 208 0 174 208 0 174 208 0 174 208 0 174 208 0 174 208 0 174 208 0 174 208 0 174 208 0 174 208 0 174 208 0 174 208 0 174 208 0 174 208 0 174 208 0 174 208 0 174 208 0 174 208 0 174 208 0 174 208 0 174 208 0 174 208 0 174 208 0 174 208 0 174 208 0 174 208 0 174 208 0 174 208 0 174 208 0 174 208 0 174 208 0 174 208 0 174 208 0 174 208 
0 140 173 1 141 174 1 141 174 1 141 174 2 142 175 2 142 175 2 142 175 2 142 175 1 144 178 1 144 178 1 144 178 1 144 178 1 144 178 1 144 178 1 144 178 1 144 178 0 143 177 0 143 177 0 143 177 0 143 177 0 143 177 0 143 177 0 143 177 0 143 177 0 142 174 0 142 174 0 142 174 0 142 174 0 142 174 0 142 174 0 142 174 0 142 174 1 141 174 1 141 174 0 140 173 0 140 173 0 140 173 0 139 172 0 139 172 0 139 172 1 136 166 1 136 166 1 136 166 0 135 165 0 135 165 0 135 165 0 134 164 0 134 164 0 129 164 0 130 159 0 130 152 0 125 150 0 128 155 7 113 137 31 104 123 92 142 153 157 181 181 184 194 195 127 121 121 171 160 156 190 186 175 202 206 192 205 211 199 205 208 199 209 204 200 208 201 195 198 189 180 168 158 146 192 184 171 214 210 199 212 212 204 209 212 205 207 205 193 214 211 202 211 208 203 192 191 189 187 186 191 186 189 196 160 169 178 130 140 150 81 114 121 34 71 79 40 80 88 41 88 98 17 69 82 0 52 64 0 56 71 13 79 95 11 108 127 12 114 136 11 123 147 9 129 156 6 130 158 5 130 158 6 130 158 8 129 156 7 114 146 0 104 134 0 94 122 0 91 115 1 94 112 4 91 108 0 80 94 0 71 82 23 68 73 48 91 97 79 120 124 81 118 124 68 103 107 78 109 112 86 115 119 72 101 105 77 100 114 78 104 119 54 83 99 7 41 53 1 34 43 24 55 58 57 86 84 110 137 132 139 143 146 140 140 142 152 146 148 199 189 190 156 142 141 124 110 107 143 132 126 146 137 130 159 151 148 165 157 154 186 177 172 168 157 153 172 159 153 205 190 183 142 127 120 136 119 111 188 170 156 209 203 191 192 191 186 204 195 196 206 196 205 175 191 207 135 196 224 59 159 191 1 174 208 1 174 208 1 174 208 1 174 208 1 174 208 1 174 208 1 174 208 1 174 208 0 174 208 0 174 208 0 174 208 0 174 208 0 174 208 0 174 208 0 174 208 0 174 208 0 174 208 0 174 208 0 174 208 0 174 208 0 174 208 0 174 208 0 174 208 0 174 208 0 174 208 0 174 208 0 174 208 0 174 208 0 174 208 0 174 208 0 174 208 0 174 208 0 174 208 0 174 208 0 174 208 0 174 208 0 174 208 0 174 208 0 174 208 0 174 208 0 174 208 0 174 208 0 174 208 0 174 208 0 174 208 0 174 208 0 174 208 0 174 208 0 174 208 0 174 208 0 174 208 0 174 208 
0 174 208 0 174 208 0 174 208 0 174 208 0 174 208 0 174 208 0 174 208 0 174 208 0 174 208 0 174 208 0 174 208 0 174 208 0 174 208 0 174 208 0 174 208 0 174 208 0 174 208 0 174 208 0 174 208 0 174 208 0 174 208 0 174 208 0 174 208 0 174 208 0 174 208 0 174 208 0 174 208 0 174 208 0 174 208 0 174 208 0 174 208 0 174 208 0 174 208 0 174 208 0 174 208 0 174 208 0 174 208 0 174 208 0 174 208 0 174 208 0 174 208 0 174 208 0 174 208 0 174 208 0 174 208 0 174 208 0 174 208 0 174 208 0 174 208 0 174 208 0 174 208 0 174 208 0 174 208 0 174 208 0 174 208 0 174 208 0 174 208 0 174 208 0 174 208 0 174 208 0 174 208 0 174 208 0 174 208 0 174 208 0 174 208 0 174 208 0 174 208 0 174 208 0 174 208 0 174 208 0 174 208 0 174 208 0 174 208 0 174 208 0 174 208 0 174 208 0 174 208 0 174 208 0 174 208 0 174 208 0 174 208 0 174 208 0 174 208 0 174 208 0 174 208 0 174 208 0 174 208 0 174 208 
0 143 175 0 143 175 1 144 176 1 144 176 2 145 177 2 145 177 2 145 177 2 145 177 0 146 180 0 146 180 0 146 180 0 146 180 0 146 180 0 146 180 0 146 180 0 146 180 0 147 181 0 147 181 0 147 181 0 147 181 0 147 181 0 147 181 0 147 181 0 147 181 0 147 177 0 147 177 0 147 177 0 147 177 0 147 177 0 147 177 0 147 177 0 147 177 1 146 177 1 146 177 0 145 176 0 145 176 0 144 175 0 144 175 0 144 175 0 144 175 2 141 172 1 140 171 1 140 171 1 140 171 0 139 170 0 139 170 0 139 170 0 139 170 4 132 171 4 132 167 3 134 164 0 130 161 8 133 165 16 117 147 41 108 127 105 145 157 138 150 148 166 164 165 108 94 93 182 167 162 183 177 165 203 203 191 196 196 186 207 202 196 204 195 190 211 200 194 210 196 187 171 157 146 191 177 166 200 190 180 203 199 190 214 211 204 216 196 195 225 207 207 215 200 203 193 188 194 175 184 191 157 182 187 123 162 167 82 129 135 38 116 136 29 110 131 40 127 147 40 132 155 24 124 150 28 133 162 29 140 170 33 146 178 7 147 174 14 158 185 22 169 202 21 174 208 16 170 208 10 167 202 12 169 202 17 172 203 14 162 198 13 160 194 12 155 187 10 150 177 7 142 164 4 133 154 1 126 144 0 122 137 0 100 117 15 116 134 35 134 153 29 126 143 13 109 125 19 112 129 23 115 130 6 98 113 13 105 120 14 106 121 13 102 120 0 80 98 0 72 86 7 73 85 29 86 93 75 126 130 125 129 138 116 119 126 127 124 131 177 167 175 144 133 137 127 117 118 147 139 137 149 144 141 159 150 155 175 166 169 174 165 168 157 147 148 152 142 143 183 173 172 154 143 141 138 127 125 177 157 148 188 177 173 174 169 173 193 192 198 186 195 202 143 177 189 109 184 205 55 163 189 1 174 208 1 174 208 1 174 208 1 174 208 1 174 208 1 174 208 1 174 208 1 174 208 0 174 208 0 174 208 0 174 208 0 174 208 0 174 208 0 174 208 0 174 208 0 174 208 0 174 208 0 174 208 0 174 208 0 174 208 0 174 208 0 174 208 0 174 208 0 174 208 0 174 208 0 174 208 0 174 208 0 174 208 0 174 208 0 174 208 0 174 208 0 174 208 0 174 208 0 174 208 0 174 208 0 174 208 0 174 208 0 174 208 0 174 208 0 174 208 0 174 208 0 174 208 0 174 208 0 174 208 0 174 208 0 174 208 0 174 208 0 174 208 
0 174 208 0 174 208 0 174 208 0 174 208 0 174 208 0 174 208 0 174 208 0 174 208 0 174 208 0 174 208 0 174 208 0 174 208 0 174 208 0 174 208 0 174 208 0 174 208 0 174 208 0 174 208 0 174 208 0 174 208 0 174 208 0 174 208 0 174 208 0 174 208 0 174 208 0 174 208 0 174 208 0 174 208 0 174 208 0 174 208 0 174 208 0 174 208 0 174 208 0 174 208 0 174 208 0 174 208 0 174 208 0 174 208 0 174 208 0 174 208 0 174 208 0 174 208 0 174 208 0 174 208 0 174 208 0 174 208 0 174 208 0 174 208 0 174 208 0 174 208 0 174 208 0 174 208 0 174 208 0 174 208 0 174 208 0 174 208 0 174 208 0 174 208 0 174 208 0 174 208 0 174 208 0 174 208 0 174 208 0 174 208 0 174 208 0 174 208 0 174 208 0 174 208 0 174 208 0 174 208 0 174 208 0 174 208 0 174 208 0 174 208 0 174 208 0 174 208 0 174 208 0 174 208 0 174 208 0 174 208 0 174 208 0 174 208 0 174 208 0 174 208 0 174 208 0 174 208 0 174 208 0 174 208 0 174 208 0 174 208 0 174 208 0 174 208 
0 147 177 0 147 177 0 148 178 0 148 178 0 148 178 1 149 179 1 149 179 1 149 179 0 149 182 0 149 182 0 149 182 0 149 182 0 149 182 0 149 182 0 149 182 0 149 182 1 150 183 1 150 183 1 150 183 1 150 183 1 150 183 1 150 183 1 150 183 1 150 183 0 149 181 0 149 181 0 149 181 0 149 181 0 149 181 0 149 181 0 149 181 0 149 181 0 149 181 0 149 181 0 149 181 0 149 181 0 148 180 0 148 180 0 147 179 0 147 179 2 145 177 2 145 177 1 144 176 1 144 176 0 143 175 0 143 175 0 143 175 0 143 175 5 139 176 2 135 170 3 136 171 0 130 167 0 128 167 7 116 149 26 107 128 75 133 144 114 121 131 123 117 127 97 80 90 162 145 151 178 168 169 189 185 186 201 192 197 208 195 204 205 189 200 213 196 204 212 193 197 169 149 151 187 168 170 181 166 169 188 177 183 206 199 207 198 197 203 206 206 214 189 197 208 171 190 204 144 184 196 111 173 186 76 160 170 37 134 141 13 134 163 27 150 181 32 161 192 26 161 193 11 151 186 22 168 205 17 169 206 5 159 197 9 177 206 9 176 208 8 176 213 7 176 217 7 176 217 6 178 216 6 178 214 6 179 213 6 178 214 8 180 216 13 182 215 12 177 207 9 170 198 6 166 192 9 165 188 12 167 189 22 173 202 16 167 196 19 169 196 21 171 198 14 162 188 9 154 181 13 159 184 17 163 188 5 152 170 6 153 173 19 161 183 19 153 178 20 142 166 15 125 148 15 114 133 42 135 152 76 122 137 66 109 125 76 113 129 115 147 160 104 134 145 97 127 137 116 149 156 119 152 157 123 152 166 141 170 184 132 162 173 120 150 161 115 145 155 133 163 171 137 167 175 123 153 161 126 147 150 126 153 162 119 152 167 137 179 193 128 182 194 83 163 174 56 167 186 31 163 188 1 174 208 1 174 208 1 174 208 1 174 208 1 174 208 1 174 208 1 174 208 1 174 208 0 174 208 0 174 208 0 174 208 0 174 208 0 174 208 0 174 208 0 174 208 0 174 208 0 174 208 0 174 208 0 174 208 0 174 208 0 174 208 0 174 208 0 174 208 0 174 208 0 174 208 0 174 208 0 174 208 0 174 208 0 174 208 0 174 208 0 174 208 0 174 208 0 174 208 0 174 208 0 174 208 0 174 208 0 174 208 0 174 208 0 174 208 0 174 208 0 174 208 0 174 208 0 174 208 0 174 208 0 174 208 0 174 208 0 174 208 0 174 208 0 174 208 
0 174 208 0 174 208 0 174 208 0 174 208 0 174 208 0 174 208 0 174 208 0 174 208 0 174 208 0 174 208 0 174 208 0 174 208 0 174 208 0 174 208 0 174 208 0 174 208 0 174 208 0 174 208 0 174 208 0 174 208 0 174 208 0 174 208 0 174 208 0 174 208 0 174 208 0 174 208 0 174 208 0 174 208 0 174 208 0 174 208 0 174 208 0 174 208 0 174 208 0 174 208 0 174 208 0 174 208 0 174 208 0 174 208 0 174 208 0 174 208 0 174 208 0 174 208 0 174 208 0 174 208 0 174 208 0 174 208 0 174 208 0 174 208 0 174 208 0 174 208 0 174 208 0 174 208 0 174 208 0 174 208 0 174 208 0 174 208 0 174 208 0 174 208 0 174 208 0 174 208 0 174 208 0 174 208 0 174 208 0 174 208 0 174 208 0 174 208 0 174 208 0 174 208 0 174 208 0 174 208 0 174 208 0 174 208 0 174 208 0 174 208 0 174 208 0 174 208 0 174 208 0 174 208 0 174 208 0 174 208 0 174 208 0 174 208 0 174 208 0 174 208 0 174 208 0 174 208 0 174 208 0 174 208 0 174 208 0 174 208 0 174 208 
0 148 178 0 149 179 0 149 179 0 149 179 1 150 180 1 150 180 1 150 180 2 151 181 1 151 186 1 151 186 1 151 186 1 151 186 1 151 186 1 151 186 1 151 186 1 151 186 2 152 187 2 152 187 2 152 187 2 152 187 2 152 187 2 152 187 2 152 187 2 152 187 1 152 183 1 152 183 1 152 183 1 152 183 1 152 183 1 152 183 1 152 183 1 152 183 1 152 183 1 152 183 1 152 183 1 152 183 0 151 182 0 151 182 0 151 182 0 150 181 1 149 179 1 149 179 1 149 179 0 148 178 0 148 178 0 147 177 0 147 177 0 147 177 0 150 181 0 139 173 3 143 179 0 136 179 0 131 177 0 126 163 10 121 140 41 136 142 68 117 132 61 100 117 66 95 111 111 139 151 121 153 164 125 159 171 150 179 195 164 184 208 168 193 213 166 189 207 158 180 194 118 137 151 141 163 176 126 152 165 127 156 172 147 178 196 121 179 191 126 184 198 113 174 193 108 178 203 89 177 201 54 164 189 34 166 189 9 156 176 8 159 190 18 171 203 13 170 201 16 176 210 0 166 200 8 178 213 0 174 209 0 168 202 0 174 204 0 171 204 0 169 206 0 171 213 2 175 217 0 176 215 0 173 210 0 171 203 0 172 211 0 172 211 0 172 209 0 173 208 1 173 209 5 175 210 7 177 210 9 178 211 7 181 216 0 172 207 0 166 200 0 172 206 5 178 210 0 171 201 0 169 199 10 181 211 5 174 203 7 176 207 18 187 220 13 180 216 13 173 207 11 164 196 4 149 178 14 155 182 23 144 165 16 132 155 24 134 157 45 150 172 51 154 173 42 145 162 55 161 175 52 160 172 51 153 176 56 158 180 61 163 185 50 153 172 46 151 170 51 157 173 63 169 183 58 164 178 51 157 170 48 155 175 49 157 183 59 169 196 51 170 190 26 161 180 9 163 187 1 168 200 2 175 209 2 175 209 2 175 209 2 175 209 2 175 209 2 175 209 2 175 209 2 175 209 0 174 208 0 174 208 0 174 208 0 174 208 0 174 208 0 174 208 0 174 208 0 174 208 0 174 208 0 174 208 0 174 208 0 174 208 0 174 208 0 174 208 0 174 208 0 174 208 0 174 208 0 174 208 0 174 208 0 174 208 0 174 208 0 174 208 0 174 208 0 174 208 0 174 208 0 174 208 0 174 208 0 174 208 0 174 208 0 174 208 0 174 208 0 174 208 0 174 208 0 174 208 0 174 208 0 174 208 0 174 208 0 174 208 0 174 208 0 174 208 0 174 208 0 174 208 0 174 208 0 174 208 0 174 208 
0 174 208 0 174 208 0 174 208 0 174 208 0 174 208 0 174 208 0 174 208 0 174 208 0 174 208 0 174 208 0 174 208 0 174 208 0 174 208 0 174 208 0 174 208 0 174 208 0 174 208 0 174 208 0 174 208 0 174 208 0 174 208 0 174 208 0 174 208 0 174 208 0 174 208 0 174 208 0 174 208 0 174 208 0 174 208 0 174 208 0 174 208 0 174 208 0 174 208 0 174 208 0 174 208 0 174 208 0 174 208 0 174 208 0 174 208 0 174 208 0 174 208 0 174 208 0 174 208 0 174 208 0 174 208 0 174 208 0 174 208 0 174 208 0 174 208 0 174 208 0 174 208 0 174 208 0 174 208 0 174 208 0 174 208 0 174 208 0 174 208 0 174 208 0 174 208 0 174 208 0 174 208 0 174 208 0 174 208 0 174 208 0 174 208 0 174 208 0 174 208 0 174 208 0 174 208 0 174 208 0 174 208 0 174 208 0 174 208 0 174 208 0 174 208 0 174 208 0 174 208 0 174 208 0 174 208 0 174 208 0 174 208 0 174 208 0 174 208 0 174 208 0 174 208 0 174 208 0 174 208 
0 149 179 0 149 179 1 150 180 1 150 180 1 150 180 2 151 181 2 151 181 2 151 181 1 151 186 1 151 186 1 151 186 1 151 186 1 151 186 1 151 186 1 151 186 1 151 186 3 153 188 3 153 188 3 153 188 3 153 188 3 153 188 3 153 188 3 153 188 3 153 188 1 151 184 1 151 184 1 151 184 1 151 184 1 151 184 1 151 184 1 151 184 1 151 184 1 154 186 0 153 185 0 153 185 0 153 185 0 152 184 0 152 184 0 152 184 0 151 183 2 150 180 2 150 180 2 150 180 2 150 180 1 149 179 1 149 179 0 148 178 0 148 178 0 164 190 0 151 180 7 157 192 4 153 196 0 147 192 3 149 186 12 148 164 29 154 156 21 133 145 16 118 132 33 125 138 69 159 168 45 138 146 46 140 152 69 155 172 94 170 194 98 180 201 84 165 184 71 148 164 31 109 122 65 143 156 45 127 141 37 124 141 54 143 161 34 146 160 38 147 167 31 139 165 43 156 186 36 160 194 9 153 188 5 169 204 0 172 205 13 176 207 12 177 207 0 168 197 13 184 214 0 172 201 0 175 205 0 172 201 0 178 206 0 176 204 0 177 208 1 177 214 4 177 219 3 176 218 0 173 213 0 173 207 0 172 202 0 168 209 2 174 214 4 176 216 0 172 212 0 164 204 0 163 203 0 169 209 5 177 217 0 177 215 3 181 219 0 172 208 0 171 204 5 184 217 5 184 216 0 172 204 0 171 201 3 171 210 4 173 214 4 179 222 0 169 212 0 170 211 5 182 223 1 178 212 4 178 212 1 181 208 0 170 197 1 171 197 6 172 198 21 183 208 5 167 188 11 176 195 3 170 188 10 169 198 0 161 189 21 182 210 5 169 194 6 171 193 2 168 190 6 173 192 9 176 195 5 182 198 2 176 201 11 178 212 10 174 209 5 173 200 0 175 202 0 175 206 0 182 222 2 175 209 2 175 209 2 175 209 2 175 209 2 175 209 2 175 209 2 175 209 2 175 209 0 174 208 0 174 208 0 174 208 0 174 208 0 174 208 0 174 208 0 174 208 0 174 208 0 174 208 0 174 208 0 174 208 0 174 208 0 174 208 0 174 208 0 174 208 0 174 208 0 174 208 0 174 208 0 174 208 0 174 208 0 174 208 0 174 208 0 174 208 0 174 208 0 174 208 0 174 208 0 174 208 0 174 208 0 174 208 0 174 208 0 174 208 0 174 208 0 174 208 0 174 208 0 174 208 0 174 208 0 174 208 0 174 208 0 174 208 0 174 208 0 174 208 0 174 208 0 174 208 0 174 208 0 174 208 0 174 208 0 174 208 0 174 208 0 174 208 
0 174 208 0 174 208 0 174 208 0 174 208 0 174 208 0 174 208 0 174 208 0 174 208 0 174 208 0 174 208 0 174 208 0 174 208 0 174 208 0 174 208 0 174 208 0 174 208 0 174 208 0 174 208 0 174 208 0 174 208 0 174 208 0 174 208 0 174 208 0 174 208 0 174 208 0 174 208 0 174 208 0 174 208 0 174 208 0 174 208 0 174 208 0 174 208 0 174 208 0 174 208 0 174 208 0 174 208 0 174 208 0 174 208 0 174 208 0 174 208 0 174 208 0 174 208 0 174 208 0 174 208 0 174 208 0 174 208 0 174 208 0 174 208 0 174 208 0 174 208 0 174 208 0 174 208 0 174 208 0 174 208 0 174 208 0 174 208 0 174 208 0 174 208 0 174 208 0 174 208 0 174 208 0 174 208 0 174 208 0 174 208 0 174 208 0 174 208 0 174 208 0 174 208 0 174 208 0 174 208 0 174 208 0 174 208 0 174 208 0 174 208 0 174 208 0 174 208 0 174 208 0 174 208 0 174 208 0 174 208 0 174 208 0 174 208 0 174 208 
0 156 185 0 156 185 0 156 185 0 156 185 0 156 185 0 156 185 0 156 185 0 156 185 1 158 193 1 158 193 1 158 193 1 158 193 1 158 193 1 158 193 1 158 193 1 158 193 1 158 193 1 158 193 1 158 193 1 158 193 1 158 193 1 158 193 1 158 193 1 158 193 0 155 190 0 155 190 0 155 190 0 155 190 0 155 190 0 155 190 0 155 190 0 155 190 3 153 188 3 153 188 3 153 188 3 153 188 3 153 188 3 153 188 3 153 188 3 153 188 0 153 185 0 153 185 0 153 185 1 154 186 1 154 186 2 155 187 2 155 187 2 155 187 0 156 193 0 157 194 1 159 196 2 162 198 2 165 200 4 167 202 5 169 204 6 170 205 7 166 195 7 166 195 7 166 195 7 166 195 7 166 195 7 166 195 7 166 195 7 166 195 7 166 195 7 166 195 7 166 195 7 166 195 7 166 195 7 166 195 7 166 195 7 166 195 4 171 205 4 171 205 4 171 205 4 171 205 4 171 205 4 171 205 4 171 205 4 171 205 2 170 206 2 170 206 2 170 206 3 171 207 3 171 207 3 171 207 4 172 208 4 172 208 1 174 208 1 174 208 1 174 208 1 174 208 1 174 208 1 174 208 1 174 208 1 174 208 1 174 208 1 174 208 1 174 208 1 174 208 1 174 208 1 174 208 1 174 208 1 174 208 1 174 208 1 174 208 1 174 208 1 174 208 1 174 208 1 174 208 1 174 208 1 174 208 0 174 208 0 174 208 0 174 208 0 174 208 0 174 208 0 174 208 0 174 208 0 174 208 1 175 209 1 175 209 1 175 209 1 175 209 1 175 209 1 175 209 1 175 209 1 175 209 1 174 208 1 174 208 1 174 208 1 174 208 1 174 208 1 174 208 1 174 208 1 174 208 2 175 209 2 175 209 2 175 209 2 175 209 2 175 209 2 175 209 2 175 209 2 175 209 0 174 208 0 174 208 0 174 208 0 174 208 0 174 208 0 174 208 0 174 208 0 174 208 0 174 208 0 174 208 0 174 208 0 174 208 0 174 208 0 174 208 0 174 208 0 174 208 0 174 208 0 174 208 0 174 208 0 174 208 0 174 208 0 174 208 0 174 208 0 174 208 0 174 208 0 174 208 0 174 208 0 174 208 0 174 208 0 174 208 0 174 208 0 174 208 0 174 208 0 174 208 0 174 208 0 174 208 0 174 208 0 174 208 0 174 208 0 174 208 0 174 208 0 174 208 0 174 208 0 174 208 0 174 208 0 174 208 0 174 208 0 174 208 0 174 208 0 174 208 0 174 208 0 174 208 0 174 208 0 174 208 0 174 208 0 174 208 0 174 208 0 174 208 0 174 208 0 174 208 
0 174 208 0 174 208 0 174 208 0 174 208 0 174 208 0 174 208 0 174 208 0 174 208 0 174 208 0 174 208 0 174 208 0 174 208 0 174 208 0 174 208 0 174 208 0 174 208 0 174 208 0 174 208 0 174 208 0 174 208 0 174 208 0 174 208 0 174 208 0 174 208 0 174 208 0 174 208 0 174 208 0 174 208 0 174 208 0 174 208 0 174 208 0 174 208 0 174 208 0 174 208 0 174 208 0 174 208 0 174 208 0 174 208 0 174 208 0 174 208 0 174 208 0 174 208 0 174 208 0 174 208 0 174 208 0 174 208 0 174 208 0 174 208 0 174 208 0 174 208 0 174 208 0 174 208 0 174 208 0 174 208 0 174 208 0 174 208 0 174 208 0 174 208 0 174 208 0 174 208 0 174 208 0 174 208 0 174 208 0 174 208 0 174 208 0 174 208 0 174 208 0 174 208 0 174 208 0 174 208 0 174 208 0 174 208 0 174 208 0 174 208 0 174 208 0 174 208 0 174 208 0 174 208 0 174 208 0 174 208 
0 156 185 0 156 185 0 156 185 0 156 185 0 156 185 0 156 185 0 156 185 0 156 185 1 158 193 1 158 193 1 158 193 1 158 193 1 158 193 1 158 193 1 158 193 1 158 193 1 158 193 1 158 193 1 158 193 1 158 193 1 158 193 1 158 193 1 158 193 1 158 193 0 155 190 0 155 190 0 155 190 0 155 190 0 155 190 0 155 190 0 155 190 0 155 190 1 154 188 1 154 188 1 154 188 1 154 188 1 154 188 1 154 188 1 154 188 1 154 188 0 154 185 0 155 186 0 155 186 0 155 186 1 156 187 1 156 187 1 156 187 2 157 188 0 157 194 0 158 195 0 160 196 2 162 198 2 165 200 3 167 202 4 168 203 5 169 204 4 167 198 4 167 198 4 167 198 4 167 198 4 167 198 4 167 198 4 167 198 4 167 198 4 167 198 4 167 198 4 167 198 4 167 198 4 167 198 4 167 198 4 167 198 4 167 198 4 171 205 4 171 205 4 171 205 4 171 205 4 171 205 4 171 205 4 171 205 4 171 205 1 169 205 2 170 206 2 170 206 2 170 206 3 171 207 3 171 207 3 171 207 4 172 208 1 174 208 1 174 208 1 174 208 1 174 208 1 174 208 1 174 208 1 174 208 1 174 208 1 174 208 1 174 208 1 174 208 1 174 208 1 174 208 1 174 208 1 174 208 1 174 208 1 174 208 1 174 208 1 174 208 1 174 208 1 174 208 1 174 208 1 174 208 1 174 208 0 174 208 0 174 208 0 174 208 0 174 208 0 174 208 0 174 208 0 174 208 0 174 208 1 175 209 1 175 209 1 175 209 1 175 209 1 175 209 1 175 209 1 175 209 1 175 209 1 174 208 1 174 208 1 174 208 1 174 208 1 174 208 1 174 208 1 174 208 1 174 208 2 175 209 2 175 209 2 175 209 2 175 209 2 175 209 2 175 209 2 175 209 2 175 209 0 174 208 0 174 208 0 174 208 0 174 208 0 174 208 0 174 208 0 174 208 0 174 208 0 174 208 0 174 208 0 174 208 0 174 208 0 174 208 0 174 208 0 174 208 0 174 208 0 174 208 0 174 208 0 174 208 0 174 208 0 174 208 0 174 208 0 174 208 0 174 208 0 174 208 0 174 208 0 174 208 0 174 208 0 174 208 0 174 208 0 174 208 0 174 208 0 174 208 0 174 208 0 174 208 0 174 208 0 174 208 0 174 208 0 174 208 0 174 208 0 174 208 0 174 208 0 174 208 0 174 208 0 174 208 0 174 208 0 174 208 0 174 208 0 174 208 0 174 208 0 174 208 0 174 208 0 174 208 0 174 208 0 174 208 0 174 208 0 174 208 0 174 208 0 174 208 0 174 208 
0 174 208 0 174 208 0 174 208 0 174 208 0 174 208 0 174 208 0 174 208 0 174 208 0 174 208 0 174 208 0 174 208 0 174 208 0 174 208 0 174 208 0 174 208 0 174 208 0 174 208 0 174 208 0 174 208 0 174 208 0 174 208 0 174 208 0 174 208 0 174 208 0 174 208 0 174 208 0 174 208 0 174 208 0 174 208 0 174 208 0 174 208 0 174 208 0 174 208 0 174 208 0 174 208 0 174 208 0 174 208 0 174 208 0 174 208 0 174 208 0 174 208 0 174 208 0 174 208 0 174 208 0 174 208 0 174 208 0 174 208 0 174 208 0 174 208 0 174 208 0 174 208 0 174 208 0 174 208 0 174 208 0 174 208 0 174 208 0 174 208 0 174 208 0 174 208 0 174 208 0 174 208 0 174 208 0 174 208 0 174 208 0 174 208 0 174 208 0 174 208 0 174 208 0 174 208 0 174 208 0 174 208 0 174 208 0 174 208 0 174 208 0 174 208 0 174 208 0 174 208 0 174 208 0 174 208 0 174 208 
0 156 187 0 156 187 0 156 187 0 156 187 0 156 187 0 156 187 0 156 187 0 156 187 1 158 193 1 158 193 1 158 193 1 158 193 1 158 193 1 158 193 1 158 193 1 158 193 1 158 193 1 158 193 1 158 193 1 158 193 1 158 193 1 158 193 1 158 193 1 158 193 0 156 191 0 156 191 0 156 191 0 156 191 0 156 191 0 156 191 0 156 191 0 156 191 2 155 189 2 155 189 2 155 189 2 155 189 2 155 189 2 155 189 2 155 189 2 155 189 0 156 189 0 156 189 0 156 189 0 156 189 0 157 190 0 157 190 0 157 190 1 158 191 0 158 195 0 160 196 1 161 197 1 164 199 2 165 200 3 167 202 2 169 203 3 170 204 1 168 202 1 168 202 1 168 202 1 168 202 1 168 202 1 168 202 1 168 202 1 168 202 1 168 202 1 168 202 1 168 202 1 168 202 1 168 202 1 168 202 1 168 202 1 168 202 3 170 204 3 170 204 3 170 204 3 170 204 3 170 204 3 170 204 3 170 204 3 170 204 1 169 205 1 169 205 2 170 206 2 170 206 2 170 206 3 171 207 3 171 207 3 171 207 1 174 208 1 174 208 1 174 208 1 174 208 1 174 208 1 174 208 1 174 208 1 174 208 1 174 208 1 174 208 1 174 208 1 174 208 1 174 208 1 174 208 1 174 208 1 174 208 1 174 208 1 174 208 1 174 208 1 174 208 1 174 208 1 174 208 1 174 208 1 174 208 0 174 208 0 174 208 0 174 208 0 174 208 0 174 208 0 174 208 0 174 208 0 174 208 1 175 209 1 175 209 1 175 209 1 175 209 1 175 209 1 175 209 1 175 209 1 175 209 1 174 208 1 174 208 1 174 208 1 174 208 1 174 208 1 174 208 1 174 208 1 174 208 2 175 209 2 175 209 2 175 209 2 175 209 2 175 209 2 175 209 2 175 209 2 175 209 0 174 208 0 174 208 0 174 208 0 174 208 0 174 208 0 174 208 0 174 208 0 174 208 0 174 208 0 174 208 0 174 208 0 174 208 0 174 208 0 174 208 0 174 208 0 174 208 0 174 208 0 174 208 0 174 208 0 174 208 0 174 208 0 174 208 0 174 208 0 174 208 0 174 208 0 174 208 0 174 208 0 174 208 0 174 208 0 174 208 0 174 208 0 174 208 0 174 208 0 174 208 0 174 208 0 174 208 0 174 208 0 174 208 0 174 208 0 174 208 0 174 208 0 174 208 0 174 208 0 174 208 0 174 208 0 174 208 0 174 208 0 174 208 0 174 208 0 174 208 0 174 208 0 174 208 0 174 208 0 174 208 0 174 208 0 174 208 0 174 208 0 174 208 0 174 208 0 174 208 
0 174 208 0 174 208 0 174 208 0 174 208 0 174 208 0 174 208 0 174 208 0 174 208 0 174 208 0 174 208 0 174 208 0 174 208 0 174 208 0 174 208 0 174 208 0 174 208 0 174 208 0 174 208 0 174 208 0 174 208 0 174 208 0 174 208 0 174 208 0 174 208 0 174 208 0 174 208 0 174 208 0 174 208 0 174 208 0 174 208 0 174 208 0 174 208 0 174 208 0 174 208 0 174 208 0 174 208 0 174 208 0 174 208 0 174 208 0 174 208 0 174 208 0 174 208 0 174 208 0 174 208 0 174 208 0 174 208 0 174 208 0 174 208 0 174 208 0 174 208 0 174 208 0 174 208 0 174 208 0 174 208 0 174 208 0 174 208 0 174 208 0 174 208 0 174 208 0 174 208 0 174 208 0 174 208 0 174 208 0 174 208 0 174 208 0 174 208 0 174 208 0 174 208 0 174 208 0 174 208 0 174 208 0 174 208 0 174 208 0 174 208 0 174 208 0 174 208 0 174 208 0 174 208 0 174 208 0 174 208 
0 156 187 0 156 187 0 156 187 0 156 187 0 156 187 0 156 187 0 156 187 0 156 187 1 158 193 1 158 193 1 158 193 1 158 193 1 158 193 1 158 193 1 158 193 1 158 193 1 158 193 1 158 193 1 158 193 1 158 193 1 158 193 1 158 193 1 158 193 1 158 193 0 156 191 0 156 191 0 156 191 0 156 191 0 156 191 0 156 191 0 156 191 0 156 191 1 155 189 1 155 189 1 155 189 1 155 189 1 155 189 1 155 189 1 155 189 1 155 189 0 158 190 0 158 190 0 158 190 0 159 191 0 159 191 0 159 191 1 160 192 1 160 192 1 161 197 1 161 197 0 163 198 1 164 199 1 165 200 0 167 201 1 168 202 2 169 203 0 169 205 0 169 205 0 169 205 0 169 205 0 169 205 0 169 205 0 169 205 0 169 205 0 169 205 0 169 205 0 169 205 0 169 205 0 169 205 0 169 205 0 169 205 0 169 205 3 170 204 3 170 204 3 170 204 3 170 204 3 170 204 3 170 204 3 170 204 3 170 204 1 169 205 1 169 205 1 169 205 2 170 206 2 170 206 2 170 206 3 171 207 3 171 207 1 174 208 1 174 208 1 174 208 1 174 208 1 174 208 1 174 208 1 174 208 1 174 208 1 174 208 1 174 208 1 174 208 1 174 208 1 174 208 1 174 208 1 174 208 1 174 208 1 174 208 1 174 208 1 174 208 1 174 208 1 174 208 1 174 208 1 174 208 1 174 208 0 174 208 0 174 208 0 174 208 0 174 208 0 174 208 0 174 208 0 174 208 0 174 208 1 175 209 1 175 209 1 175 209 1 175 209 1 175 209 1 175 209 1 175 209 1 175 209 1 174 208 1 174 208 1 174 208 1 174 208 1 174 208 1 174 208 1 174 208 1 174 208 2 175 209 2 175 209 2 175 209 2 175 209 2 175 209 2 175 209 2 175 209 2 175 209 0 174 208 0 174 208 0 174 208 0 174 208 0 174 208 0 174 208 0 174 208 0 174 208 0 174 208 0 174 208 0 174 208 0 174 208 0 174 208 0 174 208 0 174 208 0 174 208 0 174 208 0 174 208 0 174 208 0 174 208 0 174 208 0 174 208 0 174 208 0 174 208 0 174 208 0 174 208 0 174 208 0 174 208 0 174 208 0 174 208 0 174 208 0 174 208 0 174 208 0 174 208 0 174 208 0 174 208 0 174 208 0 174 208 0 174 208 0 174 208 0 174 208 0 174 208 0 174 208 0 174 208 0 174 208 0 174 208 0 174 208 0 174 208 0 174 208 0 174 208 0 174 208 0 174 208 0 174 208 0 174 208 0 174 208 0 174 208 0 174 208 0 174 208 0 174 208 0 174 208 
0 174 208 0 174 208 0 174 208 0 174 208 0 174 208 0 174 208 0 174 208 0 174 208 0 174 208 0 174 208 0 174 208 0 174 208 0 174 208 0 174 208 0 174 208 0 174 208 0 174 208 0 174 208 0 174 208 0 174 208 0 174 208 0 174 208 0 174 208 0 174 208 0 174 208 0 174 208 0 174 208 0 174 208 0 174 208 0 174 208 0 174 208 0 174 208 0 174 208 0 174 208 0 174 208 0 174 208 0 174 208 0 174 208 0 174 208 0 174 208 0 174 208 0 174 208 0 174 208 0 174 208 0 174 208 0 174 208 0 174 208 0 174 208 0 174 208 0 174 208 0 174 208 0 174 208 0 174 208 0 174 208 0 174 208 0 174 208 0 174 208 0 174 208 0 174 208 0 174 208 0 174 208 0 174 208 0 174 208 0 174 208 0 174 208 0 174 208 0 174 208 0 174 208 0 174 208 0 174 208 0 174 208 0 174 208 0 174 208 0 174 208 0 174 208 0 174 208 0 174 208 0 174 208 0 174 208 0 174 208 
0 157 190 0 157 190 0 157 190 0 157 190 0 157 190 0 157 190 0 157 190 0 157 190 1 158 193 1 158 193 1 158 193 1 158 193 1 158 193 1 158 193 1 158 193 1 158 193 1 158 193 1 158 193 1 158 193 1 158 193 1 158 193 1 158 193 1 158 193 1 158 193 0 157 192 0 157 192 0 157 192 0 157 192 0 157 192 0 157 192 0 157 192 0 157 192 2 156 190 2 156 190 2 156 190 2 156 190 2 156 190 2 156 190 2 156 190 2 156 190 0 159 193 0 159 193 0 160 194 0 160 194 1 161 195 1 161 195 1 161 195 1 161 195 1 164 199 1 164 199 2 165 200 1 165 200 0 167 201 0 167 201 0 169 202 0 169 202 0 169 207 0 169 207 0 169 207 0 169 207 0 169 207 0 169 207 0 169 207 0 169 207 0 169 207 0 169 207 0 169 207 0 169 207 0 169 207 0 169 207 0 169 207 0 169 207 2 169 203 2 169 203 2 169 203 2 169 203 2 169 203 2 169 203 2 169 203 2 169 203 0 168 204 0 168 204 1 169 205 1 169 205 1 169 205 2 170 206 2 170 206 2 170 206 1 174 208 1 174 208 1 174 208 1 174 208 1 174 208 1 174 208 1 174 208 1 174 208 1 174 208 1 174 208 1 174 208 1 174 208 1 174 208 1 174 208 1 174 208 1 174 208 1 174 208 1 174 208 1 174 208 1 174 208 1 174 208 1 174 208 1 174 208 1 174 208 0 174 208 0 174 208 0 174 208 0 174 208 0 174 208 0 174 208 0 174 208 0 174 208 1 175 209 1 175 209 1 175 209 1 175 209 1 175 209 1 175 209 1 175 209 1 175 209 1 174 208 1 174 208 1 174 208 1 174 208 1 174 208 1 174 208 1 174 208 1 174 208 2 175 209 2 175 209 2 175 209 2 175 209 2 175 209 2 175 209 2 175 209 2 175 209 0 174 208 0 174 208 0 174 208 0 174 208 0 174 208 0 174 208 0 174 208 0 174 208 0 174 208 0 174 208 0 174 208 0 174 208 0 174 208 0 174 208 0 174 208 0 174 208 0 174 208 0 174 208 0 174 208 0 174 208 0 174 208 0 174 208 0 174 208 0 174 208 0 174 208 0 174 208 0 174 208 0 174 208 0 174 208 0 174 208 0 174 208 0 174 208 0 174 208 0 174 208 0 174 208 0 174 208 0 174 208 0 174 208 0 174 208 0 174 208 0 174 208 0 174 208 0 174 208 0 174 208 0 174 208 0 174 208 0 174 208 0 174 208 0 174 208 0 174 208 0 174 208 0 174 208 0 174 208 0 174 208 0 174 208 0 174 208 0 174 208 0 174 208 0 174 208 0 174 208 
0 174 208 0 174 208 0 174 208 0 174 208 0 174 208 0 174 208 0 174 208 0 174 208 0 174 208 0 174 208 0 174 208 0 174 208 0 174 208 0 174 208 0 174 208 0 174 208 0 174 208 0 174 208 0 174 208 0 174 208 0 174 208 0 174 208 0 174 208 0 174 208 0 174 208 0 174 208 0 174 208 0 174 208 0 174 208 0 174 208 0 174 208 0 174 208 0 174 208 0 174 208 0 174 208 0 174 208 0 174 208 0 174 208 0 174 208 0 174 208 0 174 208 0 174 208 0 174 208 0 174 208 0 174 208 0 174 208 0 174 208 0 174 208 0 174 208 0 174 208 0 174 208 0 174 208 0 174 208 0 174 208 0 174 208 0 174 208 0 174 208 0 174 208 0 174 208 0 174 208 0 174 208 0 174 208 0 174 208 0 174 208 0 174 208 0 174 208 0 174 208 0 174 208 0 174 208 0 174 208 0 174 208 0 174 208 0 174 208 0 174 208 0 174 208 0 174 208 0 174 208 0 174 208 0 174 208 0 174 208 
0 157 190 0 157 190 0 157 190 0 157 190 0 157 190 0 157 190 0 157 190 0 157 190 1 158 193 1 158 193 1 158 193 1 158 193 1 158 193 1 158 193 1 158 193 1 158 193 1 158 193 1 158 193 1 158 193 1 158 193 1 158 193 1 158 193 1 158 193 1 158 193 0 157 192 0 157 192 0 157 192 0 157 192 0 157 192 0 157 192 0 157 192 0 157 192 0 157 190 0 157 190 0 157 190 0 157 190 0 157 190 0 157 190 0 157 190 0 157 190 0 162 197 0 162 197 0 162 197 0 162 197 0 163 198 0 163 198 1 164 199 1 164 199 3 166 201 3 166 201 2 166 201 0 167 201 0 167 201 0 168 201 0 168 201 0 168 201 0 169 205 0 169 205 0 169 205 0 169 205 0 169 205 0 169 205 0 169 205 0 169 205 0 169 205 0 169 205 0 169 205 0 169 205 0 169 205 0 169 205 0 169 205 0 169 205 2 169 203 2 169 203 2 169 203 2 169 203 2 169 203 2 169 203 2 169 203 2 169 203 0 168 204 0 168 204 0 168 204 1 169 205 1 169 205 1 169 205 2 170 206 2 170 206 1 174 208 1 174 208 1 174 208 1 174 208 1 174 208 1 174 208 1 174 208 1 174 208 1 174 208 1 174 208 1 174 208 1 174 208 1 174 208 1 174 208 1 174 208 1 174 208 1 174 208 1 174 208 1 174 208 1 174 208 1 174 208 1 174 208 1 174 208 1 174 208 0 174 208 0 174 208 0 174 208 0 174 208 0 174 208 0 174 208 0 174 208 0 174 208 1 175 209 1 175 209 1 175 209 1 175 209 1 175 209 1 175 209 1 175 209 1 175 209 1 174 208 1 174 208 1 174 208 1 174 208 1 174 208 1 174 208 1 174 208 1 174 208 2 175 209 2 175 209 2 175 209 2 175 209 2 175 209 2 175 209 2 175 209 2 175 209 0 174 208 0 174 208 0 174 208 0 174 208 0 174 208 0 174 208 0 174 208 0 174 208 0 174 208 0 174 208 0 174 208 0 174 208 0 174 208 0 174 208 0 174 208 0 174 208 0 174 208 0 174 208 0 174 208 0 174 208 0 174 208 0 174 208 0 174 208 0 174 208 0 174 208 0 174 208 0 174 208 0 174 208 0 174 208 0 174 208 0 174 208 0 174 208 0 174 208 0 174 208 0 174 208 0 174 208 0 174 208 0 174 208 0 174 208 0 174 208 0 174 208 0 174 208 0 174 208 0 174 208 0 174 208 0 174 208 0 174 208 0 174 208 0 174 208 0 174 208 0 174 208 0 174 208 0 174 208 0 174 208 0 174 208 0 174 208 0 174 208 0 174 208 0 174 208 0 174 208 
0 174 208 0 174 208 0 174 208 0 174 208 0 174 208 0 174 208 0 174 208 0 174 208 0 174 208 0 174 208 0 174 208 0 174 208 0 174 208 0 174 208 0 174 208 0 174 208 0 174 208 0 174 208 0 174 208 0 174 208 0 174 208 0 174 208 0 174 208 0 174 208 0 174 208 0 174 208 0 174 208 0 174 208 0 174 208 0 174 208 0 174 208 0 174 208 0 174 208 0 174 208 0 174 208 0 174 208 0 174 208 0 174 208 0 174 208 0 174 208 0 174 208 0 174 208 0 174 208 0 174 208 0 174 208 0 174 208 0 174 208 0 174 208 0 174 208 0 174 208 0 174 208 0 174 208 0 174 208 0 174 208 0 174 208 0 174 208 0 174 208 0 174 208 0 174 208 0 174 208 0 174 208 0 174 208 0 174 208 0 174 208 0 174 208 0 174 208 0 174 208 0 174 208 0 174 208 0 174 208 0 174 208 0 174 208 0 174 208 0 174 208 0 174 208 0 174 208 0 174 208 0 174 208 0 174 208 0 174 208 
0 157 192 0 157 192 0 157 192 0 157 192 0 157 192 0 157 192 0 157 192 0 157 192 1 158 193 1 158 193 1 158 193 1 158 193 1 158 193 1 158 193 1 158 193 1 158 193 1 158 193 1 158 193 1 158 193 1 158 193 1 158 193 1 158 193 1 158 193 1 158 193 0 157 192 0 157 192 0 157 192 0 157 192 0 157 192 0 157 192 0 157 192 0 157 192 0 157 190 0 157 190 0 157 190 0 157 190 0 157 190 0 157 190 0 157 190 0 157 190 0 163 198 0 163 198 0 163 198 0 164 199 0 164 199 0 164 199 1 165 200 1 165 200 3 167 202 3 167 202 3 167 202 0 167 201 0 168 201 0 168 201 0 167 200 0 167 200 0 168 204 0 168 204 0 168 204 0 168 204 0 168 204 0 168 204 0 168 204 0 168 204 0 168 204 0 168 204 0 168 204 0 168 204 0 168 204 0 168 204 0 168 204 0 168 204 1 168 202 1 168 202 1 168 202 1 168 202 1 168 202 1 168 202 1 168 202 1 168 202 0 167 203 0 168 204 0 168 204 0 168 204 1 169 205 1 169 205 1 169 205 2 170 206 1 174 208 1 174 208 1 174 208 1 174 208 1 174 208 1 174 208 1 174 208 1 174 208 1 174 208 1 174 208 1 174 208 1 174 208 1 174 208 1 174 208 1 174 208 1 174 208 1 174 208 1 174 208 1 174 208 1 174 208 1 174 208 1 174 208 1 174 208 1 174 208 0 174 208 0 174 208 0 174 208 0 174 208 0 174 208 0 174 208 0 174 208 0 174 208 1 175 209 1 175 209 1 175 209 1 175 209 1 175 209 1 175 209 1 175 209 1 175 209 1 174 208 1 174 208 1 174 208 1 174 208 1 174 208 1 174 208 1 174 208 1 174 208 2 175 209 2 175 209 2 175 209 2 175 209 2 175 209 2 175 209 2 175 209 2 175 209 0 174 208 0 174 208 0 174 208 0 174 208 0 174 208 0 174 208 0 174 208 0 174 208 0 174 208 0 174 208 0 174 208 0 174 208 0 174 208 0 174 208 0 174 208 0 174 208 0 174 208 0 174 208 0 174 208 0 174 208 0 174 208 0 174 208 0 174 208 0 174 208 0 174 208 0 174 208 0 174 208 0 174 208 0 174 208 0 174 208 0 174 208 0 174 208 0 174 208 0 174 208 0 174 208 0 174 208 0 174 208 0 174 208 0 174 208 0 174 208 0 174 208 0 174 208 0 174 208 0 174 208 0 174 208 0 174 208 0 174 208 0 174 208 0 174 208 0 174 208 0 174 208 0 174 208 0 174 208 0 174 208 0 174 208 0 174 208 0 174 208 0 174 208 0 174 208 0 174 208 
0 174 208 0 174 208 0 174 208 0 174 208 0 174 208 0 174 208 0 174 208 0 174 208 0 174 208 0 174 208 0 174 208 0 174 208 0 174 208 0 174 208 0 174 208 0 174 208 0 174 208 0 174 208 0 174 208 0 174 208 0 174 208 0 174 208 0 174 208 0 174 208 0 174 208 0 174 208 0 174 208 0 174 208 0 174 208 0 174 208 0 174 208 0 174 208 0 174 208 0 174 208 0 174 208 0 174 208 0 174 208 0 174 208 0 174 208 0 174 208 0 174 208 0 174 208 0 174 208 0 174 208 0 174 208 0 174 208 0 174 208 0 174 208 0 174 208 0 174 208 0 174 208 0 174 208 0 174 208 0 174 208 0 174 208 0 174 208 0 174 208 0 174 208 0 174 208 0 174 208 0 174 208 0 174 208 0 174 208 0 174 208 0 174 208 0 174 208 0 174 208 0 174 208 0 174 208 0 174 208 0 174 208 0 174 208 0 174 208 0 174 208 0 174 208 0 174 208 0 174 208 0 174 208 0 174 208 0 174 208 
1 158 193 1 158 193 1 158 193 1 158 193 1 158 193 1 158 193 1 158 193 1 158 193 1 158 193 1 158 193 1 158 193 1 158 193 1 158 193 1 158 193 1 158 193 1 158 193 1 158 193 1 158 193 1 158 193 1 158 193 1 158 193 1 158 193 1 158 193 1 158 193 1 158 193 1 158 193 1 158 193 1 158 193 1 158 193 1 158 193 1 158 193 1 158 193 0 159 191 0 159 191 0 159 191 0 159 191 0 159 191 0 159 191 0 159 191 0 159 191 0 164 198 0 164 198 0 165 199 0 165 199 0 165 199 0 166 200 0 166 200 0 166 200 4 168 203 4 168 203 1 168 202 1 168 202 0 168 201 0 167 200 0 167 200 0 167 200 1 168 200 1 168 200 1 168 200 1 168 200 1 168 200 1 168 200 1 168 200 1 168 200 1 168 200 1 168 200 1 168 200 1 168 200 1 168 200 1 168 200 1 168 200 1 168 200 1 168 202 1 168 202 1 168 202 1 168 202 1 168 202 1 168 202 1 168 202 1 168 202 0 167 203 0 167 203 0 168 204 0 168 204 0 168 204 1 169 205 1 169 205 1 169 205 1 174 208 1 174 208 1 174 208 1 174 208 1 174 208 1 174 208 1 174 208 1 174 208 1 174 208 1 174 208 1 174 208 1 174 208 1 174 208 1 174 208 1 174 208 1 174 208 1 174 208 1 174 208 1 174 208 1 174 208 1 174 208 1 174 208 1 174 208 1 174 208 0 174 208 0 174 208 0 174 208 0 174 208 0 174 208 0 174 208 0 174 208 0 174 208 1 175 209 1 175 209 1 175 209 1 175 209 1 175 209 1 175 209 1 175 209 1 175 209 1 174 208 1 174 208 1 174 208 1 174 208 1 174 208 1 174 208 1 174 208 1 174 208 2 175 209 2 175 209 2 175 209 2 175 209 2 175 209 2 175 209 2 175 209 2 175 209 0 174 208 0 174 208 0 174 208 0 174 208 0 174 208 0 174 208 0 174 208 0 174 208 0 174 208 0 174 208 0 174 208 0 174 208 0 174 208 0 174 208 0 174 208 0 174 208 0 174 208 0 174 208 0 174 208 0 174 208 0 174 208 0 174 208 0 174 208 0 174 208 0 174 208 0 174 208 0 174 208 0 174 208 0 174 208 0 174 208 0 174 208 0 174 208 0 174 208 0 174 208 0 174 208 0 174 208 0 174 208 0 174 208 0 174 208 0 174 208 0 174 208 0 174 208 0 174 208 0 174 208 0 174 208 0 174 208 0 174 208 0 174 208 0 174 208 0 174 208 0 174 208 0 174 208 0 174 208 0 174 208 0 174 208 0 174 208 0 174 208 0 174 208 0 174 208 0 174 208 
0 174 208 0 174 208 0 174 208 0 174 208 0 174 208 0 174 208 0 174 208 0 174 208 0 174 208 0 174 208 0 174 208 0 174 208 0 174 208 0 174 208 0 174 208 0 174 208 0 174 208 0 174 208 0 174 208 0 174 208 0 174 208 0 174 208 0 174 208 0 174 208 0 174 208 0 174 208 0 174 208 0 174 208 0 174 208 0 174 208 0 174 208 0 174 208 0 174 208 0 174 208 0 174 208 0 174 208 0 174 208 0 174 208 0 174 208 0 174 208 0 174 208 0 174 208 0 174 208 0 174 208 0 174 208 0 174 208 0 174 208 0 174 208 0 174 208 0 174 208 0 174 208 0 174 208 0 174 208 0 174 208 0 174 208 0 174 208 0 174 208 0 174 208 0 174 208 0 174 208 0 174 208 0 174 208 0 174 208 0 174 208 0 174 208 0 174 208 0 174 208 0 174 208 0 174 208 0 174 208 0 174 208 0 174 208 0 174 208 0 174 208 0 174 208 0 174 208 0 174 208 0 174 208 0 174 208 0 174 208 
1 157 195 1 157 195 1 157 195 1 157 195 1 157 195 1 157 195 1 157 195 1 157 195 1 158 193 1 158 193 1 158 193 1 158 193 1 158 193 1 158 193 1 158 193 1 158 193 1 158 193 1 158 193 1 158 193 1 158 193 1 158 193 1 158 193 1 158 193 1 158 193 1 158 193 1 158 193 1 158 193 1 158 193 1 158 193 1 158 193 1 158 193 1 158 193 0 158 195 0 158 195 0 160 196 1 161 197 0 163 198 1 165 200 2 166 201 2 166 201 1 168 204 1 168 204 1 168 204 1 168 204 1 168 204 1 168 204 1 168 204 1 168 204 0 168 204 0 168 204 0 168 204 0 168 204 0 168 204 0 168 204 0 168 204 0 168 204 0 168 204 0 168 204 0 168 204 0 168 204 0 168 204 0 168 204 0 168 204 0 168 204 0 168 204 0 168 204 0 168 204 0 168 204 0 168 204 0 168 204 0 168 204 0 168 204 0 168 204 0 168 204 0 168 204 0 168 204 0 168 204 0 168 204 0 168 204 0 168 204 0 167 203 0 167 203 0 168 204 0 168 204 1 169 205 1 169 205 1 169 205 1 169 205 0 174 208 0 174 208 0 174 208 0 174 208 0 174 208 0 174 208 0 174 208 0 174 208 0 174 208 0 174 208 0 174 208 0 174 208 0 174 208 0 174 208 0 174 208 0 174 208 0 174 208 0 174 208 0 174 208 0 174 208 0 174 208 0 174 208 0 174 208 0 174 208 0 174 208 0 174 208 0 174 208 0 174 208 0 174 208 0 174 208 0 174 208 0 174 208 0 174 208 0 174 208 0 174 208 0 174 208 0 174 208 0 174 208 0 174 208 0 174 208 0 174 208 0 174 208 0 174 208 0 174 208 0 174 208 0 174 208 0 174 208 0 174 208 1 174 208 1 174 208 1 174 208 1 174 208 1 174 208 1 174 208 1 174 208 1 174 208 0 174 208 0 174 208 0 174 208 0 174 208 0 174 208 0 174 208 0 174 208 0 174 208 0 174 208 0 174 208 0 174 208 0 174 208 0 174 208 0 174 208 0 174 208 0 174 208 0 174 208 0 174 208 0 174 208 0 174 208 0 174 208 0 174 208 0 174 208 0 174 208 0 174 208 0 174 208 0 174 208 0 174 208 0 174 208 0 174 208 0 174 208 0 174 208 0 174 208 0 174 208 0 174 208 0 174 208 0 174 208 0 174 208 0 174 208 0 174 208 0 174 208 0 174 208 0 174 208 0 174 208 0 174 208 0 174 208 0 174 208 0 174 208 0 174 208 0 174 208 0 174 208 0 174 208 0 174 208 0 174 208 0 174 208 0 174 208 0 174 208 0 174 208 0 174 208 0 174 208 
0 174 208 0 174 208 0 174 208 0 174 208 0 174 208 0 174 208 0 174 208 0 174 208 0 174 208 0 174 208 0 174 208 0 174 208 0 174 208 0 174 208 0 174 208 0 174 208 0 174 208 0 174 208 0 174 208 0 174 208 0 174 208 0 174 208 0 174 208 0 174 208 0 174 208 0 174 208 0 174 208 0 174 208 0 174 208 0 174 208 0 174 208 0 174 208 0 174 208 0 174 208 0 174 208 0 174 208 0 174 208 0 174 208 0 174 208 0 174 208 0 174 208 0 174 208 0 174 208 0 174 208 0 174 208 0 174 208 0 174 208 0 174 208 0 174 208 0 174 208 0 174 208 0 174 208 0 174 208 0 174 208 0 174 208 0 174 208 0 174 208 0 174 208 0 174 208 0 174 208 0 174 208 0 174 208 0 174 208 0 174 208 0 174 208 0 174 208 0 174 208 0 174 208 0 174 208 0 174 208 0 174 208 0 174 208 0 174 208 0 174 208 0 174 208 0 174 208 0 174 208 0 174 208 0 174 208 0 174 208 
1 157 195 1 157 195 1 157 195 1 157 195 1 157 195 1 157 195 1 157 195 1 157 195 1 158 193 1 158 193 1 158 193 1 158 193 1 158 193 1 158 193 1 158 193 1 158 193 1 158 193 1 158 193 1 158 193 1 158 193 1 158 193 1 158 193 1 158 193 1 158 193 1 158 193 1 158 193 1 158 193 1 158 193 1 158 193 1 158 193 1 158 193 1 158 193 0 158 195 0 158 195 0 160 196 1 161 197 0 163 198 1 165 200 2 166 201 2 166 201 1 168 204 1 168 204 1 168 204 1 168 204 1 168 204 1 168 204 1 168 204 1 168 204 0 168 204 0 168 204 0 168 204 0 168 204 0 168 204 0 168 204 0 168 204 0 168 204 0 168 204 0 168 204 0 168 204 0 168 204 0 168 204 0 168 204 0 168 204 0 168 204 0 168 204 0 168 204 0 168 204 0 168 204 0 168 204 0 168 204 0 168 204 0 168 204 0 168 204 0 168 204 0 168 204 0 168 204 0 168 204 0 168 204 0 168 204 0 168 204 0 167 203 0 167 203 0 168 204 0 168 204 1 169 205 1 169 205 1 169 205 1 169 205 0 174 208 0 174 208 0 174 208 0 174 208 0 174 208 0 174 208 0 174 208 0 174 208 0 174 208 0 174 208 0 174 208 0 174 208 0 174 208 0 174 208 0 174 208 0 174 208 0 174 208 0 174 208 0 174 208 0 174 208 0 174 208 0 174 208 0 174 208 0 174 208 0 174 208 0 174 208 0 174 208 0 174 208 0 174 208 0 174 208 0 174 208 0 174 208 0 174 208 0 174 208 0 174 208 0 174 208 0 174 208 0 174 208 0 174 208 0 174 208 0 174 208 0 174 208 0 174 208 0 174 208 0 174 208 0 174 208 0 174 208 0 174 208 1 174 208 1 174 208 1 174 208 1 174 208 1 174 208 1 174 208 1 174 208 1 174 208 0 174 208 0 174 208 0 174 208 0 174 208 0 174 208 0 174 208 0 174 208 0 174 208 0 174 208 0 174 208 0 174 208 0 174 208 0 174 208 0 174 208 0 174 208 0 174 208 0 174 208 0 174 208 0 174 208 0 174 208 0 174 208 0 174 208 0 174 208 0 174 208 0 174 208 0 174 208 0 174 208 0 174 208 0 174 208 0 174 208 0 174 208 0 174 208 0 174 208 0 174 208 0 174 208 0 174 208 0 174 208 0 174 208 0 174 208 0 174 208 0 174 208 0 174 208 0 174 208 0 174 208 0 174 208 0 174 208 0 174 208 0 174 208 0 174 208 0 174 208 0 174 208 0 174 208 0 174 208 0 174 208 0 174 208 0 174 208 0 174 208 0 174 208 0 174 208 0 174 208 
0 174 208 0 174 208 0 174 208 0 174 208 0 174 208 0 174 208 0 174 208 0 174 208 0 174 208 0 174 208 0 174 208 0 174 208 0 174 208 0 174 208 0 174 208 0 174 208 0 174 208 0 174 208 0 174 208 0 174 208 0 174 208 0 174 208 0 174 208 0 174 208 0 174 208 0 174 208 0 174 208 0 174 208 0 174 208 0 174 208 0 174 208 0 174 208 0 174 208 0 174 208 0 174 208 0 174 208 0 174 208 0 174 208 0 174 208 0 174 208 0 174 208 0 174 208 0 174 208 0 174 208 0 174 208 0 174 208 0 174 208 0 174 208 0 174 208 0 174 208 0 174 208 0 174 208 0 174 208 0 174 208 0 174 208 0 174 208 0 174 208 0 174 208 0 174 208 0 174 208 0 174 208 0 174 208 0 174 208 0 174 208 0 174 208 0 174 208 0 174 208 0 174 208 0 174 208 0 174 208 0 174 208 0 174 208 0 174 208 0 174 208 0 174 208 0 174 208 0 174 208 0 174 208 0 174 208 0 174 208 
