P2
284 178
255
127 127 127 127 127 127 127 127 127 127 127 127 127 127 127 
127 127 127 127 127 127 127 127 127 129 129 129 129 129 129 
129 129 128 128 128 128 128 128 128 128 128 128 128 128 128 
128 128 128 128 128 128 128 128 128 128 128 129 129 129 129 
129 129 129 129 129 129 129 129 129 129 129 129 129 129 129 
129 129 129 129 129 129 129 129 129 129 129 129 129 131 131 
131 131 131 131 131 131 133 133 133 134 135 135 136 136 134 
134 134 134 134 134 134 134 134 134 134 134 134 134 134 134 
135 135 135 135 135 135 135 135 135 135 135 135 135 135 135 
135 136 136 136 137 137 138 138 138 137 137 137 137 137 137 
137 137 137 137 137 137 137 137 137 137 137 137 137 137 137 
137 137 137 137 137 137 137 137 137 137 137 136 136 136 136 
136 136 136 136 136 136 136 136 136 136 136 136 137 137 137 
137 137 137 137 137 136 136 136 137 137 138 138 138 138 137 
138 139 139 139 141 141 140 141 141 142 142 142 142 143 144 
144 144 144 144 144 144 144 142 142 141 140 139 138 138 138 
139 141 143 145 144 144 142 141 143 144 144 145 145 144 145 
145 145 145 145 145 145 145 145 145 145 145 145 145 145 145 
145 145 144 144 144 145 145 145 146 146 145 145 145 145 127 
127 127 127 127 127 127 127 127 127 127 127 127 127 127 127 
127 127 127 127 127 127 127 127 129 129 129 129 129 129 129 
129 128 128 128 128 128 128 128 128 128 128 128 128 128 128 
128 128 128 128 128 128 128 128 128 128 129 129 129 129 129 
129 129 129 129 129 129 129 129 129 129 129 129 129 129 129 
129 129 129 129 129 129 129 129 129 129 129 129 131 131 131 
131 131 131 131 131 133 133 133 134 135 135 136 136 134 134 
134 134 134 134 134 134 134 134 134 134 134 134 134 134 135 
135 135 135 135 135 135 135 135 135 135 135 135 135 135 135 
136 136 136 137 137 138 138 138 137 137 137 137 137 137 137 
137 137 137 137 137 137 137 137 137 137 137 137 137 137 137 
137 137 137 137 137 137 137 137 137 137 136 136 136 136 136 
136 136 136 136 136 136 136 136 136 136 136 137 137 137 137 
137 137 137 137 136 136 137 137 137 138 138 138 137 138 137 
138 140 141 141 140 142 142 142 143 142 142 143 143 144 144 
144 144 144 144 144 144 142 141 142 141 140 138 138 139 139 
141 143 144 146 144 143 141 144 144 143 144 144 144 145 145 
145 145 145 145 145 145 145 145 145 145 145 145 145 145 145 
145 144 144 144 145 145 146 146 146 145 145 145 145 127 127 
127 127 127 127 127 127 127 127 127 127 127 127 127 127 127 
127 127 127 127 127 127 127 129 129 129 129 129 129 129 129 
128 128 128 128 128 128 128 128 128 128 128 128 128 128 128 
128 128 128 128 128 128 128 128 128 129 129 129 129 129 129 
129 129 129 129 129 129 129 129 129 129 129 129 129 129 129 
129 129 129 129 129 129 129 129 129 129 129 131 131 131 131 
131 131 131 131 133 133 133 134 135 135 136 136 134 134 134 
134 134 134 134 134 134 134 134 134 134 134 134 134 135 135 
135 135 135 135 135 135 135 135 135 135 135 135 135 135 136 
136 136 137 137 138 138 138 137 137 137 137 137 137 137 137 
137 137 137 137 137 137 137 137 137 137 137 137 137 137 137 
137 137 137 137 137 137 137 137 137 136 136 136 136 136 136 
136 136 136 136 136 136 136 136 136 136 138 138 138 138 138 
138 138 138 137 137 137 137 138 138 138 139 138 138 139 138 
140 141 141 142 142 142 142 142 142 143 144 144 143 143 143 
143 143 143 143 143 143 142 142 142 141 141 140 139 138 140 
143 145 146 145 142 140 144 144 143 145 145 145 145 146 146 
146 146 146 146 146 146 146 146 146 146 146 146 146 146 146 
143 143 144 144 145 145 145 145 146 146 146 146 127 127 127 
127 127 127 127 127 127 127 127 127 127 127 127 127 127 127 
127 127 127 127 127 127 129 129 129 129 129 129 129 129 128 
128 128 128 128 128 128 128 128 128 128 128 128 128 128 128 
128 128 128 128 128 128 128 128 129 129 129 129 129 129 129 
129 129 129 129 129 129 129 129 129 129 129 129 129 129 129 
129 129 129 129 129 129 129 129 129 129 131 131 131 131 131 
131 131 131 133 133 133 134 135 135 136 136 134 134 134 134 
134 134 134 134 134 134 134 134 134 134 134 134 135 135 135 
135 135 135 135 135 135 135 135 135 135 135 135 135 136 136 
136 137 137 138 138 138 137 137 137 137 137 137 137 137 137 
137 137 137 137 137 137 137 137 137 137 137 137 137 137 137 
137 137 137 137 137 137 137 137 137 137 137 137 137 137 137 
137 136 136 136 136 136 136 136 136 138 138 138 138 138 138 
138 138 137 137 137 138 138 139 139 139 137 138 139 140 140 
140 141 141 141 142 143 143 144 143 143 144 144 144 144 144 
144 144 144 144 144 144 144 143 143 141 140 140 140 142 144 
146 145 144 142 141 143 144 144 144 144 145 145 146 146 146 
146 146 146 146 146 146 146 146 146 146 146 146 146 146 145 
145 145 146 146 146 147 147 147 147 147 147 127 127 127 127 
127 127 127 127 127 127 127 127 127 127 127 127 127 127 127 
127 127 127 127 127 129 129 129 129 129 129 129 129 128 128 
128 128 128 128 128 128 128 128 128 128 128 128 128 128 128 
128 128 128 128 128 128 128 129 129 129 129 129 129 129 129 
129 129 129 129 129 129 129 129 129 129 129 129 129 129 129 
129 129 129 129 129 129 129 129 129 131 131 131 131 131 131 
131 131 133 133 133 134 135 135 136 136 134 134 134 134 134 
134 134 134 134 134 134 134 134 134 134 134 135 135 135 135 
135 135 135 135 135 135 135 135 135 135 135 135 136 136 136 
137 137 138 138 138 137 137 137 137 137 137 137 137 137 137 
137 137 137 137 137 137 137 137 137 137 137 137 137 137 137 
137 137 137 137 137 137 137 137 137 137 137 137 137 137 137 
136 136 136 136 136 136 136 136 137 137 137 137 137 137 137 
137 137 138 138 138 139 139 139 140 139 139 139 139 140 141 
141 143 143 143 143 144 143 144 144 144 145 145 145 145 145 
145 145 145 146 145 145 144 144 143 143 142 140 142 143 145 
146 146 144 141 143 144 144 145 144 144 145 146 146 146 146 
146 146 146 146 146 146 146 146 146 146 146 146 146 144 144 
145 145 145 146 146 146 147 147 147 147 127 127 127 127 127 
127 127 127 127 127 127 127 127 127 127 127 127 127 127 127 
127 127 127 127 129 129 129 129 129 129 129 129 128 128 128 
128 128 128 128 128 128 128 128 128 128 128 128 128 128 128 
128 128 128 128 128 128 129 129 129 129 129 129 129 129 129 
129 129 129 129 129 129 129 129 129 129 129 129 129 129 129 
129 129 129 129 129 129 129 129 131 131 131 131 131 131 131 
131 133 133 133 134 135 135 136 136 134 134 134 134 134 134 
134 134 134 134 134 134 134 134 134 134 135 135 135 135 135 
135 135 135 135 135 135 135 135 135 135 135 136 136 136 137 
137 138 138 138 137 137 137 137 137 137 137 137 137 137 137 
137 137 137 137 137 137 137 137 137 137 137 137 137 137 137 
137 137 137 137 137 137 138 138 138 138 138 138 138 138 136 
136 136 136 136 136 136 136 137 137 137 137 137 137 137 137 
138 138 138 139 139 140 140 140 138 139 140 141 140 141 142 
142 142 143 143 143 144 145 145 145 145 145 145 145 145 145 
145 145 147 148 147 146 145 144 143 143 140 141 144 147 146 
145 143 142 143 144 143 144 145 145 145 145 146 146 146 146 
146 146 146 146 146 146 146 146 146 146 146 146 146 146 146 
146 147 147 148 148 148 148 148 148 127 127 127 127 127 127 
127 127 127 127 127 127 127 127 127 127 127 127 127 127 127 
127 127 127 129 129 129 129 129 129 129 129 128 128 128 128 
128 128 128 128 128 128 128 128 128 128 128 128 128 128 128 
128 128 128 128 128 129 129 129 129 129 129 129 129 129 129 
129 129 129 129 129 129 129 129 129 129 129 129 129 129 129 
129 129 129 129 129 129 129 131 131 131 131 131 131 131 131 
133 133 133 134 135 135 136 136 134 134 134 134 134 134 134 
134 134 134 134 134 134 134 134 134 135 135 135 135 135 135 
135 135 135 135 135 135 135 135 135 135 136 136 136 137 137 
138 138 138 137 137 137 137 137 137 137 137 137 137 137 137 
137 137 137 137 137 137 137 137 137 137 137 137 137 137 137 
137 137 137 137 137 138 138 138 138 138 138 138 138 136 136 
136 136 136 136 136 136 137 137 137 137 137 137 137 137 138 
138 139 139 139 140 140 140 139 140 139 140 142 143 143 142 
143 143 143 144 145 145 146 146 145 145 145 145 145 145 145 
145 149 148 147 147 146 146 144 144 140 143 145 146 147 145 
145 143 143 144 144 145 145 145 145 145 145 145 145 145 145 
145 145 145 145 145 145 145 145 145 145 145 146 146 146 147 
147 148 148 148 147 147 147 147 127 127 127 127 127 127 127 
127 127 127 127 127 127 127 127 127 127 127 127 127 127 127 
127 127 129 129 129 129 129 129 129 129 128 128 128 128 128 
128 128 128 128 128 128 128 128 128 128 128 128 128 128 128 
128 128 128 128 129 129 129 129 129 129 129 129 129 129 129 
129 129 129 129 129 129 129 129 129 129 129 129 129 129 129 
129 129 129 129 129 129 131 131 131 131 131 131 131 131 133 
133 133 134 135 135 136 136 134 134 134 134 134 134 134 134 
134 134 134 134 134 134 134 134 135 135 135 135 135 135 135 
135 135 135 135 135 135 135 135 135 136 136 136 137 137 138 
138 138 137 137 137 137 137 137 137 137 137 137 137 137 137 
137 137 137 137 137 137 137 137 137 137 137 137 137 137 137 
137 137 137 137 138 138 138 138 138 138 138 138 136 136 136 
136 136 136 136 136 137 137 137 137 137 137 137 137 138 139 
139 139 140 140 140 141 140 140 140 141 141 143 143 144 143 
143 144 145 145 145 145 145 146 146 146 146 146 146 146 146 
149 149 149 148 146 146 146 145 141 143 144 146 147 147 145 
143 143 144 144 144 144 145 145 146 145 145 145 145 145 145 
145 145 145 145 145 145 145 145 145 145 146 146 147 147 147 
148 148 148 147 147 147 147 127 127 127 127 127 127 127 127 
127 127 127 127 127 127 127 127 127 127 127 127 127 127 127 
127 128 128 128 128 128 128 128 128 128 128 128 128 128 128 
128 128 128 128 128 128 128 128 128 128 128 128 128 128 128 
128 128 128 129 129 129 129 129 129 129 129 129 129 129 129 
129 129 129 129 129 129 129 129 129 129 129 129 128 128 129 
129 129 130 130 130 131 131 131 131 131 131 131 131 132 132 
132 132 133 133 134 134 134 134 134 134 134 134 134 134 134 
134 134 134 134 134 134 134 136 136 136 136 136 136 136 136 
136 136 136 136 136 136 136 136 137 137 137 137 137 137 137 
137 137 137 137 137 137 137 137 137 137 137 137 137 137 137 
137 137 137 137 137 137 137 137 137 137 137 137 137 137 138 
139 139 139 139 139 140 140 140 141 141 141 138 138 138 138 
138 138 138 138 138 138 138 138 138 138 138 138 138 138 138 
138 138 138 138 138 138 138 140 140 140 140 140 140 142 142 
143 144 144 145 146 146 145 145 145 145 145 145 145 145 148 
147 147 146 147 146 146 146 145 145 145 146 147 147 147 148 
147 147 147 147 146 146 146 147 147 147 147 147 147 147 147 
147 147 147 147 147 147 147 147 147 146 146 146 146 146 146 
146 146 148 148 148 148 127 127 127 127 127 127 127 127 127 
127 127 127 127 127 127 127 127 127 127 127 127 127 127 127 
128 128 128 128 128 128 128 128 128 128 128 128 128 128 128 
128 128 128 128 128 128 128 128 128 128 128 128 128 128 128 
128 128 129 129 129 129 129 129 129 129 129 129 129 129 129 
129 129 129 129 129 129 129 129 129 129 129 128 128 129 129 
129 130 130 130 131 131 131 131 131 131 131 131 132 132 132 
132 133 133 134 134 134 134 134 134 134 134 134 134 134 134 
134 134 134 134 134 134 136 136 136 136 136 136 136 136 136 
136 136 136 136 136 136 136 137 137 137 137 137 137 137 137 
137 137 137 137 137 137 137 137 137 137 137 137 137 137 137 
137 137 137 137 137 137 137 137 137 137 137 137 137 138 139 
139 139 139 140 140 140 141 141 141 142 138 138 138 138 138 
138 138 138 138 138 138 138 138 138 138 138 138 138 138 138 
138 138 138 138 139 140 140 140 141 140 140 141 142 142 144 
145 144 145 146 146 145 145 145 145 145 145 145 145 148 148 
147 146 146 147 146 146 145 146 146 146 147 147 148 148 147 
147 147 146 146 146 147 147 147 147 147 147 147 147 147 147 
147 147 147 147 147 147 147 147 146 146 146 146 146 146 146 
146 148 148 148 148 127 127 127 127 127 127 127 127 127 127 
127 127 127 127 127 127 127 127 127 127 127 127 127 127 128 
128 128 128 128 128 128 128 128 128 128 128 128 128 128 128 
128 128 128 128 128 128 128 128 128 128 128 128 128 128 128 
128 129 129 129 129 129 129 129 129 129 129 129 129 129 129 
129 129 129 129 129 129 129 129 129 129 128 128 129 129 129 
130 130 130 131 131 131 131 131 131 131 131 132 132 132 132 
133 133 134 134 134 134 134 134 134 134 134 134 134 134 134 
134 134 134 134 134 136 136 136 136 136 136 136 136 136 136 
136 136 136 136 136 136 137 137 137 137 137 137 137 137 137 
137 137 137 137 137 137 137 137 137 137 137 137 137 137 137 
137 137 137 137 137 137 137 137 137 138 138 137 138 138 139 
140 139 139 139 140 140 140 141 141 139 139 139 139 139 139 
139 139 139 139 139 139 139 139 139 139 139 139 139 139 139 
139 139 139 139 139 140 141 141 141 141 141 142 144 144 144 
145 145 147 147 146 146 146 146 146 146 146 146 149 148 148 
147 146 146 147 147 146 146 146 147 147 148 148 149 148 148 
147 147 147 148 148 148 147 147 147 147 147 147 147 147 147 
147 147 147 147 147 147 147 147 147 147 147 147 147 147 147 
148 148 148 148 127 127 127 127 127 127 127 127 127 127 127 
127 127 127 127 127 127 127 127 127 127 127 127 127 128 128 
128 128 128 128 128 128 128 128 128 128 128 128 128 128 128 
128 128 128 128 128 128 128 128 128 128 128 128 128 128 128 
129 129 129 129 129 129 129 129 129 129 129 129 129 129 129 
129 129 129 129 129 129 129 129 129 128 128 129 129 129 130 
130 130 131 131 131 131 131 131 131 131 132 132 132 132 133 
133 134 134 134 134 134 134 134 134 134 134 134 134 134 134 
134 134 134 134 136 136 136 136 136 136 136 136 136 136 136 
136 136 136 136 136 137 137 137 137 137 137 137 137 137 137 
137 137 137 137 137 137 137 137 137 137 137 137 137 137 137 
137 137 137 137 137 137 137 138 138 137 138 138 140 140 140 
140 140 141 141 141 142 142 142 140 140 140 140 140 140 140 
140 140 140 140 140 140 140 140 140 140 140 140 140 140 140 
140 140 141 141 142 141 141 142 142 142 144 144 144 144 146 
147 148 148 146 146 146 146 146 146 146 146 148 148 149 148 
147 146 146 147 146 146 147 147 148 149 149 148 148 147 147 
147 148 148 147 147 147 147 147 147 147 147 147 147 147 147 
147 147 147 147 147 147 147 147 147 147 147 147 147 147 148 
148 148 148 127 127 127 127 127 127 127 127 127 127 127 127 
127 127 127 127 127 127 127 127 127 127 127 127 128 128 128 
128 128 128 128 128 128 128 128 128 128 128 128 128 128 128 
128 128 128 128 128 128 128 128 128 128 128 128 128 128 129 
129 129 129 129 129 129 129 129 129 129 129 129 129 129 129 
129 129 129 129 129 129 129 129 128 128 129 129 129 130 130 
130 131 131 131 131 131 131 131 131 132 132 132 132 133 133 
134 134 134 134 134 134 134 134 134 134 134 134 134 134 134 
134 134 134 136 136 136 136 136 136 136 136 136 136 136 136 
136 136 136 136 137 137 137 137 137 137 137 137 137 137 137 
137 137 137 137 137 137 137 137 137 137 137 137 137 137 137 
137 137 137 137 137 137 137 138 138 139 139 139 139 140 141 
141 141 142 142 142 143 143 142 142 142 142 142 142 142 142 
142 142 142 142 142 142 142 142 142 142 142 142 142 142 142 
142 141 141 142 142 143 144 144 144 144 144 145 146 146 146 
147 147 148 148 148 148 148 148 148 148 149 148 148 149 147 
147 147 146 147 148 147 147 149 148 148 150 148 148 148 148 
149 148 148 148 148 148 148 148 148 148 148 148 148 148 148 
148 148 148 148 148 149 149 149 149 149 149 149 149 148 148 
148 148 127 127 127 127 127 127 127 127 127 127 127 127 127 
127 127 127 127 127 127 127 127 127 127 127 128 128 128 128 
128 128 128 128 128 128 128 128 128 128 128 128 128 128 128 
128 128 128 128 128 128 128 128 128 128 128 128 128 129 129 
129 129 129 129 129 129 129 129 129 129 129 129 129 129 129 
129 129 129 129 129 129 129 128 128 129 129 129 130 130 130 
131 131 131 131 131 131 131 131 132 132 132 132 133 133 134 
134 134 134 134 134 134 134 134 134 134 134 134 134 134 134 
134 134 136 136 136 136 136 136 136 136 136 136 136 136 136 
136 136 136 137 137 137 137 137 137 137 137 137 137 137 137 
137 137 137 137 137 137 137 137 137 137 137 137 137 137 137 
137 137 137 137 137 138 138 139 139 139 140 140 141 140 140 
141 141 141 142 142 142 143 143 143 143 143 143 143 143 143 
143 143 143 143 143 143 143 143 143 143 143 143 143 143 143 
143 143 142 143 143 145 145 144 145 145 146 145 146 147 147 
149 149 149 149 149 149 149 149 149 149 149 149 148 149 147 
147 147 148 147 147 149 148 149 149 149 148 148 148 149 148 
148 148 148 148 148 148 148 148 148 148 148 148 148 148 148 
148 148 148 148 149 149 149 149 149 149 149 149 148 148 148 
148 127 127 127 127 127 127 127 127 127 127 127 127 127 127 
127 127 127 127 127 127 127 127 127 127 128 128 128 128 128 
128 128 128 128 128 128 128 128 128 128 128 128 128 128 128 
128 128 128 128 128 128 128 128 128 128 128 128 129 129 129 
129 129 129 129 129 129 129 129 129 129 129 129 129 129 129 
129 129 129 129 129 129 128 128 129 129 129 130 130 130 131 
131 131 131 131 131 131 131 132 132 132 132 133 133 134 134 
134 134 134 134 134 134 134 134 134 134 134 134 134 134 134 
134 136 136 136 136 136 136 136 136 136 136 136 136 136 136 
136 136 137 137 137 137 137 137 137 137 137 137 137 137 137 
137 137 137 137 137 137 137 137 137 137 137 137 137 137 137 
137 137 137 137 139 139 140 139 140 141 141 141 140 141 141 
141 142 142 142 143 144 144 144 144 144 144 144 144 144 144 
144 144 144 144 144 144 144 144 144 144 144 144 144 144 143 
143 143 144 145 144 145 145 144 144 145 147 147 148 148 148 
148 148 148 148 148 148 148 148 150 149 149 148 148 149 147 
147 147 147 149 149 148 149 149 149 148 148 149 148 148 148 
148 149 149 149 149 149 149 149 149 149 149 149 149 149 149 
149 149 149 148 148 148 148 148 148 148 148 148 148 148 148 
127 127 127 127 127 127 127 127 127 127 127 127 127 127 127 
127 127 127 127 127 127 127 127 127 128 128 128 128 128 128 
128 128 128 128 128 128 128 128 128 128 128 128 128 128 128 
128 128 128 128 128 128 128 128 128 128 128 129 129 129 129 
129 129 129 129 129 129 129 129 129 129 129 129 129 129 129 
129 129 129 129 129 128 128 129 129 129 130 130 130 131 131 
131 131 131 131 131 131 132 132 132 132 133 133 134 134 134 
134 134 134 134 134 134 134 134 134 134 134 134 134 134 134 
136 136 136 136 136 136 136 136 136 136 136 136 136 136 136 
136 137 137 137 137 137 137 137 137 137 137 137 137 137 137 
137 137 137 137 137 137 137 137 137 137 137 137 137 137 137 
137 137 137 139 140 139 139 141 141 141 142 142 142 142 143 
143 143 144 144 143 143 143 143 143 143 143 143 143 143 143 
143 143 143 143 143 143 143 143 143 143 143 143 143 143 143 
143 145 144 145 145 145 144 144 146 147 148 147 148 148 149 
149 149 149 149 149 149 149 151 150 149 149 148 149 149 147 
147 149 149 148 150 149 149 151 148 149 149 148 148 148 149 
149 149 149 149 149 149 149 149 149 149 149 149 149 149 149 
149 149 148 148 148 148 148 148 148 148 148 148 148 148 127 
127 127 127 127 127 127 127 127 127 127 127 127 127 127 127 
127 127 127 127 127 127 127 127 126 126 126 127 127 128 128 
128 128 128 128 128 128 128 128 128 128 128 128 128 128 128 
128 128 128 128 128 128 128 128 128 128 128 128 128 128 128 
128 128 128 129 129 129 129 129 129 129 129 129 129 129 129 
129 129 129 129 131 130 130 129 129 130 130 130 131 130 128 
127 129 132 136 138 130 132 134 136 136 135 134 133 135 135 
135 135 135 135 134 134 136 136 136 136 136 136 136 136 135 
135 135 135 135 135 135 135 136 136 136 136 136 136 136 136 
137 137 137 137 137 137 137 137 137 137 137 137 137 137 137 
137 136 136 137 137 137 138 138 138 136 136 136 136 136 136 
136 136 138 139 139 139 140 141 142 142 144 144 144 144 143 
143 143 144 144 144 144 144 144 144 144 144 143 143 144 144 
145 144 145 146 145 145 145 145 145 145 145 145 146 146 146 
146 146 146 146 146 146 146 146 147 147 147 148 148 148 148 
148 148 148 148 148 148 149 149 149 149 149 149 149 149 147 
147 147 147 147 147 147 147 147 147 148 148 148 149 149 149 
150 150 150 150 150 150 150 150 149 149 149 149 149 149 149 
149 149 149 150 150 151 151 151 151 149 149 149 149 127 127 
127 127 127 127 127 127 127 127 127 127 127 127 127 127 127 
127 127 127 127 127 127 127 126 126 126 127 127 128 128 128 
128 128 128 128 128 128 128 128 128 128 128 128 128 128 128 
128 128 128 128 128 128 128 128 128 128 128 128 128 128 128 
128 128 129 129 129 129 129 129 129 129 129 129 129 129 129 
129 129 129 129 129 129 129 129 129 130 131 134 134 132 132 
131 131 131 129 136 136 135 135 136 138 139 141 135 135 136 
136 136 136 137 137 136 136 136 136 136 136 136 136 135 135 
135 135 135 135 135 135 136 136 136 136 136 136 136 136 137 
137 137 137 137 137 137 137 137 137 137 137 137 137 137 137 
136 136 137 137 137 138 138 138 136 136 136 136 136 136 136 
136 138 139 139 139 140 141 142 143 144 144 144 143 143 143 
144 144 143 143 143 143 143 143 143 143 144 144 144 145 144 
145 146 146 146 146 146 146 146 146 146 146 146 146 146 146 
146 146 146 146 146 146 147 147 147 147 148 148 149 149 149 
149 149 149 149 149 150 150 150 150 150 150 150 150 147 147 
147 147 147 147 147 147 148 148 148 148 149 149 149 150 151 
151 151 151 151 151 151 151 150 150 150 150 150 150 150 150 
150 150 150 150 151 151 152 152 150 150 150 150 127 127 127 
127 127 127 127 127 127 127 127 127 127 127 127 127 127 127 
127 127 127 127 127 127 126 126 126 127 127 128 128 128 128 
128 128 128 128 128 128 128 128 128 128 128 128 128 128 128 
128 128 128 128 128 128 128 128 128 128 128 128 128 128 128 
128 129 129 129 129 129 129 129 129 129 129 129 129 129 129 
129 129 130 130 129 130 130 130 130 130 134 133 134 134 135 
134 135 136 134 132 131 130 132 134 137 138 135 135 135 135 
136 136 136 136 136 136 136 136 136 136 136 136 135 135 135 
135 135 135 135 135 136 136 136 136 136 136 136 136 137 137 
137 137 137 137 137 137 137 137 137 137 137 137 137 137 136 
136 137 137 137 138 138 138 136 136 136 136 136 136 136 136 
139 139 140 140 141 142 142 142 144 144 143 143 143 144 144 
144 144 144 144 144 144 144 144 144 144 144 144 146 146 146 
146 146 146 146 146 146 146 146 146 146 147 147 147 147 147 
147 147 147 147 147 147 148 147 149 149 149 150 150 150 150 
150 150 150 150 149 149 149 149 149 149 149 149 149 149 149 
149 149 149 149 149 149 149 150 150 150 151 151 151 150 150 
150 150 150 150 150 150 151 151 151 151 151 151 151 151 150 
150 151 151 152 152 152 152 151 151 151 151 127 127 127 127 
127 127 127 127 127 127 127 127 127 127 127 127 127 127 127 
127 127 127 127 127 126 126 126 127 127 128 128 128 128 128 
128 128 128 128 128 128 128 128 128 128 128 128 128 128 128 
128 128 128 128 128 128 128 128 128 128 128 128 128 128 128 
129 129 129 129 129 129 129 129 129 129 129 129 129 129 129 
129 129 130 130 130 130 130 130 130 136 133 130 130 130 130 
130 131 130 132 133 135 134 132 130 130 135 135 135 134 135 
134 134 135 136 136 136 136 136 136 136 136 135 135 135 135 
135 135 135 135 136 136 136 136 136 136 136 136 137 137 137 
137 137 137 137 137 137 137 137 137 137 137 137 137 136 136 
137 137 137 138 138 138 137 137 137 137 137 137 137 137 138 
138 140 141 142 142 143 143 145 144 144 144 145 145 144 144 
146 146 146 146 146 146 146 146 146 146 146 146 146 146 147 
147 147 147 147 147 147 147 147 147 147 147 147 147 147 147 
147 147 148 148 148 148 149 149 150 150 150 150 150 150 150 
150 150 150 150 150 150 150 150 150 150 150 149 149 149 149 
149 149 149 149 149 149 150 150 150 151 151 151 150 150 150 
150 150 150 150 150 151 151 151 151 151 151 151 151 151 151 
152 152 152 153 153 153 152 152 152 152 127 127 127 127 127 
127 127 127 127 127 127 127 127 127 127 127 127 127 127 127 
127 127 127 127 126 126 126 127 127 128 128 128 128 128 128 
128 128 128 128 128 128 128 128 128 128 128 128 128 128 128 
128 128 128 128 128 128 128 128 128 128 128 128 128 128 129 
129 129 129 129 129 129 129 129 129 129 129 129 129 129 129 
129 130 130 130 131 130 130 129 129 129 131 132 131 132 134 
135 124 125 128 129 130 132 132 133 136 135 135 134 135 135 
134 135 136 136 136 136 136 136 136 136 135 135 135 135 135 
135 135 135 136 136 136 136 136 136 136 136 137 137 137 137 
137 137 137 137 137 137 137 137 137 137 137 137 136 136 137 
137 137 138 138 138 137 137 137 137 137 137 137 137 139 139 
141 141 142 142 143 143 144 144 144 144 145 144 144 144 146 
146 146 146 146 146 146 146 146 146 147 147 148 147 147 148 
148 148 148 148 148 148 148 148 149 149 149 149 149 149 149 
149 149 148 148 150 150 150 150 150 152 152 152 152 152 152 
152 152 152 152 152 152 152 152 152 152 151 151 151 151 151 
151 151 151 151 151 152 152 152 153 153 153 152 152 152 152 
152 152 152 152 151 151 151 151 151 151 151 151 151 151 152 
152 152 153 153 153 153 153 153 153 127 127 127 127 127 127 
127 127 127 127 127 127 127 127 127 127 127 127 127 127 127 
127 127 127 126 126 126 127 127 128 128 128 128 128 128 128 
128 128 128 128 128 128 128 128 128 128 128 128 128 128 128 
128 128 128 128 128 128 128 128 128 128 128 128 128 129 129 
129 129 129 129 129 129 129 129 129 129 129 129 129 129 129 
129 130 131 130 130 130 130 133 131 131 131 131 127 125 123 
124 124 124 124 127 130 135 136 134 135 134 134 135 135 135 
136 136 136 136 136 136 136 136 136 135 135 135 135 135 135 
135 135 136 136 136 136 136 136 136 136 137 137 137 137 137 
137 137 137 137 137 137 137 137 137 137 137 136 136 137 137 
137 138 138 138 138 138 138 138 138 138 138 138 140 140 140 
142 142 142 144 144 145 145 145 146 145 145 145 145 146 146 
146 146 146 146 146 146 147 148 148 147 148 148 149 150 149 
149 149 149 149 149 149 149 149 149 149 149 149 149 149 149 
149 149 150 151 151 150 151 151 153 153 153 153 153 153 153 
153 152 152 152 152 152 152 152 152 152 152 152 152 152 152 
152 152 152 152 152 153 153 154 154 154 151 151 151 151 151 
151 151 151 152 152 152 152 152 152 152 152 152 152 153 153 
153 154 154 154 154 154 154 154 127 127 127 127 127 127 127 
127 127 127 127 127 127 127 127 127 127 127 127 127 127 127 
127 127 126 126 126 127 127 128 128 128 128 128 128 128 128 
128 128 128 128 128 128 128 128 128 128 128 128 128 128 128 
128 128 128 128 128 128 128 128 128 128 128 128 129 129 129 
129 129 129 129 129 129 129 129 129 129 129 129 129 129 130 
130 131 130 129 129 130 136 132 125 116 108 105 103 103 114 
113 110 108 107 109 110 112 135 134 134 135 134 135 134 135 
136 136 136 136 136 136 136 136 135 135 135 135 135 135 135 
135 136 136 136 136 136 136 136 136 137 137 137 137 137 137 
137 137 137 137 137 137 137 137 137 137 136 136 137 137 137 
138 138 138 138 138 138 138 138 138 138 138 140 141 140 142 
142 144 143 144 145 145 146 145 145 145 145 146 148 148 148 
148 148 148 148 148 148 147 148 149 149 150 149 149 150 150 
150 150 150 150 150 150 150 150 150 150 150 150 150 150 149 
151 151 151 151 151 152 152 153 153 153 153 153 153 153 153 
154 154 154 154 154 154 154 154 152 152 152 152 152 152 152 
152 152 152 152 152 153 153 154 154 153 153 153 153 153 153 
153 153 152 152 152 152 152 152 152 152 154 154 154 155 155 
155 156 156 154 154 154 154 127 127 127 127 127 127 127 127 
127 127 127 127 127 127 127 127 127 127 127 127 127 127 127 
127 126 126 126 127 127 128 128 128 128 128 128 128 128 128 
128 128 128 128 128 128 128 128 128 128 128 128 128 128 128 
128 128 128 128 128 128 128 128 128 128 128 129 129 129 129 
129 129 129 129 129 129 129 129 129 129 129 129 130 130 131 
131 130 130 129 130 117 112 105 103 110 125 143 154 185 184 
182 178 174 167 161 158 135 134 134 135 135 134 134 134 136 
136 136 136 136 136 136 136 135 135 135 135 135 135 135 135 
136 136 136 136 136 136 136 136 137 137 137 137 137 137 137 
137 137 137 137 137 137 137 137 137 136 136 137 137 137 138 
138 138 138 138 138 138 138 138 138 138 141 141 141 142 142 
144 143 145 145 146 146 145 145 145 146 146 148 148 148 148 
148 148 148 148 148 148 149 149 150 149 149 150 150 150 150 
150 150 150 150 150 151 151 151 151 151 151 151 151 151 151 
151 152 151 151 153 153 153 153 153 153 153 153 153 153 154 
154 154 154 154 154 154 154 152 152 152 152 152 152 152 152 
152 152 152 153 153 154 154 154 153 153 153 153 153 153 153 
153 152 152 152 152 152 152 152 152 154 154 155 155 155 156 
156 156 154 154 154 154 127 127 127 127 127 127 127 127 127 
127 127 127 127 127 127 127 127 127 127 127 127 127 127 127 
127 127 127 127 127 127 127 127 128 128 128 128 128 128 128 
128 128 128 128 128 128 128 128 128 128 128 128 128 128 128 
128 128 128 128 128 128 128 128 128 128 128 128 128 128 128 
128 128 128 125 126 128 128 127 126 128 129 135 134 132 127 
126 130 127 123 109 125 142 157 172 187 195 197 214 214 215 
215 213 209 206 203 199 203 197 179 152 135 134 139 137 139 
136 132 131 135 138 137 136 136 135 135 135 135 135 135 136 
136 136 136 136 136 136 136 137 137 137 137 137 137 137 137 
137 137 137 137 137 137 137 137 136 136 138 138 137 138 138 
138 139 139 139 139 139 139 139 139 142 141 141 142 143 142 
143 144 145 145 145 145 146 147 147 147 147 147 147 147 148 
149 149 149 151 151 151 150 152 152 153 153 152 152 152 152 
152 152 152 152 150 151 151 151 151 151 152 153 154 154 154 
154 154 154 154 154 153 153 153 153 153 153 153 153 154 154 
154 154 154 154 154 154 155 155 154 154 154 155 155 155 154 
154 154 154 154 154 154 154 155 155 155 155 155 155 155 155 
153 153 153 153 153 153 153 153 155 155 155 155 155 155 155 
155 156 156 156 156 127 127 127 127 127 127 127 127 127 127 
127 127 127 127 127 127 127 127 127 127 127 127 127 127 127 
127 127 127 127 127 127 127 128 128 128 128 128 128 128 128 
128 128 128 128 128 128 128 128 128 128 128 128 128 128 128 
128 128 128 128 128 128 128 128 128 128 128 128 128 128 128 
128 128 128 129 130 129 129 130 132 134 137 126 124 137 136 
125 133 157 166 178 189 196 200 207 208 207 215 216 217 217 
216 213 209 207 214 216 217 216 207 190 169 155 137 132 132 
140 141 136 133 135 136 136 136 135 135 135 136 136 136 136 
136 136 136 136 136 136 137 137 137 137 137 137 137 137 137 
137 137 137 137 137 137 137 136 136 138 138 137 138 138 138 
139 139 139 139 139 139 139 139 142 141 141 142 143 142 143 
144 145 145 144 145 145 147 147 147 147 147 147 147 149 149 
149 149 151 151 151 150 152 152 153 153 152 152 152 152 152 
152 152 152 151 151 151 152 151 151 153 153 154 154 154 154 
154 154 154 154 153 153 153 153 153 153 153 153 154 154 154 
154 154 154 154 154 155 155 154 154 154 155 155 155 154 154 
154 154 154 154 154 154 155 155 155 155 155 155 155 155 153 
153 153 153 153 153 153 153 155 155 155 155 155 155 155 155 
156 156 156 156 127 127 127 127 127 127 127 127 127 127 127 
127 127 127 127 127 127 127 127 127 127 127 127 127 127 127 
127 127 127 127 127 127 128 128 128 128 128 128 128 128 128 
128 128 128 128 128 128 128 128 128 128 128 128 128 128 128 
128 128 128 128 128 128 128 128 128 128 128 128 128 128 128 
128 128 127 126 127 129 130 131 131 127 132 137 136 131 132 
143 157 176 190 201 206 207 213 215 214 218 219 221 221 221 
218 216 214 231 225 221 225 230 223 205 187 167 143 129 135 
139 131 132 143 136 136 136 136 136 136 136 136 136 136 136 
136 136 136 136 136 137 137 137 137 137 137 137 137 137 137 
137 137 137 137 137 137 136 136 138 138 137 138 138 138 139 
139 139 139 139 139 139 139 142 141 141 142 143 142 143 144 
144 144 144 145 145 146 146 146 148 148 147 147 149 149 150 
150 151 151 151 150 152 152 153 153 152 152 152 152 152 152 
152 152 151 151 151 152 151 152 153 153 154 154 154 154 154 
154 154 154 153 153 153 153 153 153 153 153 154 154 154 154 
154 154 154 154 155 155 154 154 154 155 155 155 154 154 154 
154 154 154 154 154 155 155 155 155 155 155 155 155 153 153 
153 153 153 153 153 153 155 155 155 155 155 155 155 155 155 
155 155 155 127 127 127 127 127 127 127 127 127 127 127 127 
127 127 127 127 127 127 127 127 127 127 127 127 127 127 127 
127 127 127 127 127 128 128 128 128 128 128 128 128 128 128 
128 128 128 128 128 128 128 128 128 128 128 128 128 128 128 
128 128 128 128 128 128 128 128 128 128 128 128 128 128 128 
130 130 130 133 136 136 134 130 122 137 143 133 125 126 128 
129 150 168 185 195 201 209 215 216 220 221 224 225 226 224 
222 221 229 227 222 220 221 220 219 217 203 170 141 134 135 
134 134 138 135 135 136 136 137 136 136 136 136 136 136 136 
136 136 136 136 137 137 137 137 137 137 137 137 137 137 137 
137 137 137 137 137 136 136 138 138 137 138 138 138 139 139 
139 139 139 139 139 139 142 141 141 142 143 142 143 144 145 
145 145 145 145 146 147 147 148 148 148 148 149 150 150 150 
151 151 151 150 152 152 153 153 153 153 153 153 153 153 153 
153 151 152 152 152 152 152 153 154 154 154 154 154 154 154 
154 154 154 154 154 154 154 154 154 154 155 155 155 155 155 
155 155 155 155 155 154 154 154 155 155 155 155 155 155 155 
155 155 155 155 154 154 154 154 154 154 154 154 154 154 154 
154 154 154 154 154 155 155 155 155 155 155 155 155 155 155 
155 155 127 127 127 127 127 127 127 127 127 127 127 127 127 
127 127 127 127 127 127 127 127 127 127 127 127 127 127 127 
127 127 127 127 128 128 128 128 128 128 128 128 128 128 128 
128 128 128 128 128 128 128 128 128 128 128 128 128 128 128 
128 128 128 128 128 128 128 128 128 128 128 128 128 128 129 
127 129 134 135 132 126 122 128 119 120 129 119 98 94 109 
140 163 187 201 207 212 217 219 219 221 224 227 228 228 227 
226 225 229 232 230 226 224 224 225 216 196 166 144 142 147 
140 131 135 136 136 136 137 136 136 135 136 136 136 136 136 
136 136 136 137 137 137 137 137 137 137 137 137 137 137 137 
137 137 137 137 136 136 138 138 137 138 138 138 139 139 139 
139 139 139 139 139 142 141 141 142 143 142 143 144 144 145 
145 146 145 147 147 147 149 149 148 148 150 150 151 151 151 
151 151 150 152 152 153 153 153 153 153 153 153 153 153 153 
152 152 152 153 152 153 154 154 154 154 154 154 154 154 154 
154 154 154 154 154 154 154 154 154 155 155 155 155 155 155 
155 155 155 155 154 154 154 155 155 155 155 155 155 155 155 
155 155 155 154 154 154 154 154 154 154 154 154 154 154 154 
154 154 154 154 155 155 155 155 155 155 155 155 155 155 155 
155 127 127 127 127 127 127 127 127 127 127 127 127 127 127 
127 127 127 127 127 127 127 127 127 127 127 127 127 127 127 
127 127 127 128 128 128 128 128 128 128 128 128 128 128 128 
128 128 128 128 128 128 128 128 128 128 128 128 128 128 128 
128 128 128 128 128 128 128 128 128 128 128 128 128 131 128 
127 130 132 130 119 112 105 101 101 101 92 81 82 91 125 
152 183 200 207 211 213 213 217 219 223 227 230 230 230 229 
234 232 232 232 233 233 230 228 226 218 188 148 136 150 152 
137 135 135 136 136 136 136 135 136 136 136 136 136 136 136 
136 136 137 137 137 137 137 137 137 137 137 137 137 137 137 
137 137 137 136 136 138 138 137 138 138 138 139 139 139 139 
139 139 139 139 142 141 141 142 143 142 143 144 144 144 145 
146 145 147 147 147 149 149 148 149 150 151 151 151 151 151 
151 150 152 152 153 153 153 153 153 153 153 153 153 153 152 
153 153 153 153 153 154 154 154 154 154 154 154 154 154 154 
155 155 155 155 155 155 155 155 156 156 156 156 156 156 156 
156 155 155 154 154 154 155 155 155 156 156 156 156 156 156 
156 156 154 154 154 154 154 154 154 154 155 155 155 155 155 
155 155 155 155 155 155 155 155 155 155 155 156 156 156 156 
127 127 127 127 127 127 127 127 127 127 127 127 127 127 127 
127 127 127 127 127 127 127 127 127 127 127 127 127 127 127 
127 127 128 128 128 128 128 128 128 128 128 128 128 128 128 
128 128 128 128 128 128 128 128 128 128 128 128 128 128 128 
128 128 128 128 128 128 128 128 128 128 128 128 136 130 127 
130 133 127 116 104 70 85 91 79 69 73 78 77 89 123 
163 188 200 206 208 208 216 218 223 227 231 232 232 232 236 
233 229 229 231 234 235 236 231 235 208 155 125 134 148 150 
135 135 135 135 136 135 136 136 136 136 136 136 136 136 136 
136 137 137 137 137 137 137 137 137 137 137 137 137 137 137 
137 137 136 136 138 138 137 138 138 138 139 139 139 139 139 
139 139 139 142 141 141 142 143 142 143 144 144 144 144 146 
146 147 147 146 149 150 149 149 151 151 151 151 151 151 151 
150 152 152 153 153 154 154 154 154 154 154 154 154 153 153 
153 154 153 153 155 155 154 154 154 154 154 154 154 154 155 
155 155 155 155 155 155 155 156 156 156 156 156 156 156 156 
155 155 154 154 154 155 155 155 156 156 156 156 156 156 156 
156 155 155 155 155 155 155 155 155 155 155 155 155 155 155 
155 155 155 155 155 155 155 155 155 155 156 156 156 156 127 
127 127 127 127 127 127 127 127 127 127 127 127 127 127 127 
127 127 127 127 127 127 127 127 127 127 127 127 127 127 127 
127 128 128 128 128 128 128 128 128 128 128 128 128 128 128 
128 128 128 128 128 128 128 128 128 128 128 128 128 128 128 
128 128 128 128 128 128 128 128 128 128 128 119 114 110 111 
113 107 94 81 55 61 78 85 72 54 59 79 69 108 153 
183 197 204 206 207 214 217 222 226 230 232 233 232 226 231 
237 239 235 235 236 241 227 241 226 173 127 119 134 144 135 
136 135 136 135 136 135 135 136 136 136 136 136 136 136 136 
137 137 137 137 137 137 137 137 137 137 137 137 137 137 137 
137 136 136 138 138 137 138 138 138 139 139 139 139 139 139 
139 139 142 141 141 142 143 142 143 144 144 144 144 146 146 
147 146 147 150 150 149 149 151 151 151 152 151 151 151 150 
152 152 153 153 154 154 154 154 154 154 154 154 153 153 153 
154 153 154 155 155 154 154 154 154 154 154 154 154 155 155 
155 155 155 155 155 155 156 156 156 156 156 156 156 156 155 
155 154 154 154 155 155 155 156 156 156 156 156 156 156 156 
155 155 155 155 155 155 155 155 155 155 155 155 155 155 155 
155 155 155 155 155 155 155 155 155 156 156 156 156 127 127 
127 127 127 127 127 127 127 127 127 127 127 127 127 127 127 
127 127 127 127 127 127 127 128 128 128 128 128 128 128 128 
128 128 128 128 128 128 128 128 128 128 128 128 128 128 128 
128 128 128 128 128 128 128 128 128 129 129 129 129 129 129 
129 129 129 131 130 125 126 129 128 122 101 99 104 95 109 
92 80 64 49 61 64 57 56 65 62 50 80 113 142 168 
194 201 201 214 202 213 223 226 227 232 233 232 233 233 233 
233 233 233 233 233 235 230 227 212 169 119 103 115 138 134 
129 135 134 135 145 131 135 135 135 135 135 135 135 135 136 
136 136 136 136 136 136 136 137 137 137 137 137 137 137 137 
136 136 136 136 136 136 136 136 137 137 137 137 137 137 137 
137 139 140 139 140 142 142 143 144 143 143 145 146 146 147 
147 147 148 148 149 149 149 150 150 150 150 150 151 151 152 
152 152 152 154 154 154 154 154 154 154 154 155 155 155 155 
155 155 155 155 154 154 154 154 154 154 154 154 156 156 156 
156 156 156 156 156 156 156 156 156 156 156 156 156 156 156 
157 157 156 157 156 156 155 155 155 155 155 155 155 155 156 
156 156 156 156 156 156 156 156 156 156 156 156 156 156 156 
156 156 157 157 158 158 158 158 158 158 158 158 127 127 127 
127 127 127 127 127 127 127 127 127 127 127 127 127 127 127 
127 127 127 127 127 127 128 128 128 128 128 128 128 128 128 
128 128 128 128 128 128 128 128 128 128 128 128 128 128 128 
128 128 128 128 128 128 128 128 129 129 129 129 129 129 129 
129 131 129 128 129 130 127 120 110 96 85 81 79 82 70 
62 51 47 53 53 49 50 59 59 54 62 91 126 157 181 
192 199 207 212 217 221 224 224 226 227 226 230 231 231 232 
233 233 234 234 236 228 227 216 173 115 86 90 114 128 134 
143 135 129 140 135 135 135 135 135 135 135 135 135 136 136 
136 136 136 136 136 136 137 137 137 137 137 137 137 137 136 
136 136 136 136 136 136 136 137 137 137 137 137 137 137 137 
139 140 139 140 142 142 143 144 143 143 145 146 146 147 147 
147 148 148 149 149 149 150 150 150 150 150 151 151 152 152 
152 152 154 154 154 154 154 154 154 154 155 155 155 155 155 
155 155 155 154 154 154 154 154 154 154 154 156 156 156 156 
156 156 156 156 156 156 156 156 156 156 156 156 156 156 157 
157 156 157 156 156 155 155 155 155 155 155 155 155 156 156 
156 156 156 156 156 156 156 156 156 156 156 156 156 156 156 
156 157 157 158 158 158 158 158 158 158 158 127 127 127 127 
127 127 127 127 127 127 127 127 127 127 127 127 127 127 127 
127 127 127 127 127 128 128 128 128 128 128 128 128 128 128 
128 128 128 128 128 128 128 128 128 128 128 128 128 128 128 
128 128 128 128 128 128 128 128 128 128 128 128 128 128 128 
131 128 130 133 132 122 105 91 93 75 73 85 74 67 57 
45 46 46 44 43 46 53 58 61 63 86 125 159 176 189 
201 203 214 214 217 223 225 223 222 221 226 227 228 230 231 
233 234 235 238 228 228 221 178 114 77 74 89 111 125 142 
146 135 138 138 135 135 135 135 135 135 135 135 136 136 136 
136 136 136 136 136 137 137 137 137 137 137 137 137 136 136 
136 136 136 136 136 136 137 137 137 137 137 137 137 137 139 
140 139 140 142 142 143 144 143 143 145 146 146 147 147 147 
148 148 149 149 149 150 150 150 150 150 151 151 152 152 152 
152 154 154 154 154 154 154 154 154 155 155 155 155 155 155 
155 155 154 154 154 154 154 154 154 154 156 156 156 156 156 
156 156 156 156 156 156 156 156 156 156 156 156 156 157 157 
156 157 156 156 155 155 155 155 155 155 155 155 156 156 156 
156 156 156 156 156 156 156 156 156 156 156 156 156 156 156 
157 157 158 158 158 158 158 158 158 158 127 127 127 127 127 
127 127 127 127 127 127 127 127 127 127 127 127 127 127 127 
127 127 127 127 127 127 127 127 127 127 127 127 128 128 128 
128 128 128 128 128 128 128 128 128 128 128 128 128 127 127 
127 127 127 127 127 127 128 128 128 128 128 128 128 128 129 
128 131 132 126 109 89 77 74 62 72 102 83 76 55 38 
44 39 38 44 47 50 56 63 69 87 129 162 176 191 208 
206 204 205 211 221 227 225 221 220 222 223 225 227 230 232 
234 235 238 230 229 224 182 119 83 77 72 92 98 123 150 
143 137 134 135 135 135 135 135 135 135 135 136 136 136 136 
136 136 136 136 137 137 137 137 137 137 137 137 136 136 136 
136 136 136 136 136 137 137 137 137 137 137 137 137 139 140 
139 140 142 142 143 144 143 143 145 146 146 147 147 147 148 
148 149 149 149 150 150 150 150 150 151 151 152 152 152 152 
154 154 154 154 154 154 154 154 155 155 155 155 155 155 155 
155 154 154 154 154 154 154 154 154 156 156 156 156 156 156 
156 156 157 157 157 157 157 157 157 157 156 156 157 157 156 
157 156 156 155 155 155 155 155 155 155 155 156 156 156 156 
156 156 156 156 156 156 156 156 156 156 156 156 156 156 157 
157 158 158 158 158 158 158 158 158 127 127 127 127 127 127 
127 127 127 127 127 127 127 127 127 127 127 127 127 127 127 
127 127 127 127 127 127 127 127 127 127 127 128 128 128 128 
128 128 128 128 128 128 128 128 128 128 128 128 127 127 127 
127 127 127 127 127 127 127 127 127 127 127 127 127 123 128 
130 124 108 89 75 66 61 55 76 117 101 91 64 42 34 
30 33 42 48 48 53 63 67 82 121 154 166 184 203 206 
201 204 209 214 218 221 221 221 219 220 222 224 227 229 231 
232 231 230 233 225 185 126 87 76 60 76 78 105 140 142 
137 135 135 135 135 135 135 135 135 135 136 136 136 136 136 
136 136 136 137 137 137 137 137 137 137 137 136 136 136 136 
136 136 136 136 137 137 137 137 137 137 137 137 139 140 139 
140 142 142 143 144 143 143 145 146 146 147 147 147 148 148 
149 149 149 150 150 150 150 150 151 151 152 152 152 152 154 
154 154 154 154 154 154 154 155 155 155 155 155 155 155 155 
154 154 154 154 154 154 154 154 156 156 156 156 156 156 156 
156 157 157 157 157 157 157 157 157 156 156 157 157 156 157 
156 156 155 155 155 155 155 155 155 155 156 156 156 156 156 
156 156 156 157 157 157 157 157 157 157 157 156 156 157 157 
158 158 158 158 158 158 158 158 127 127 127 127 127 127 127 
127 127 127 127 127 127 127 127 127 127 127 127 127 127 127 
127 127 126 126 126 126 126 126 126 126 128 128 128 128 128 
128 128 128 128 128 128 128 128 128 128 128 126 126 126 126 
126 126 126 126 127 127 127 127 127 127 127 127 123 127 125 
107 85 73 65 60 56 58 83 117 113 100 74 50 20 18 
25 37 48 52 60 69 87 101 126 145 154 167 183 189 196 
207 212 208 207 214 220 220 219 220 221 223 224 226 227 228 
221 227 232 225 191 139 91 65 49 70 78 98 119 131 140 
137 135 135 135 135 135 135 135 135 136 136 136 136 136 136 
136 136 137 137 137 137 137 137 137 137 136 136 136 136 136 
136 136 136 137 137 137 137 137 137 137 137 139 140 139 140 
142 142 143 144 143 143 145 146 146 147 147 147 148 148 149 
149 149 150 150 150 150 150 151 151 152 152 152 152 154 154 
154 154 154 154 154 154 155 155 155 155 155 155 155 155 154 
154 154 154 154 154 154 154 156 156 156 156 156 156 156 156 
156 156 156 156 156 156 156 156 156 156 157 157 156 157 156 
156 155 155 155 155 155 155 155 155 156 156 156 156 156 156 
156 156 158 158 158 158 158 158 158 158 156 156 157 157 158 
158 158 158 158 158 158 158 127 127 127 127 127 127 127 127 
127 127 127 127 127 127 127 127 127 127 127 127 127 127 127 
127 126 126 126 126 126 126 126 126 128 128 128 128 128 128 
128 128 128 128 128 128 128 128 128 128 126 126 126 126 126 
126 126 126 127 127 127 127 127 127 127 127 126 128 113 83 
64 64 61 54 46 55 83 106 115 94 68 42 15 15 22 
36 52 66 82 93 116 129 136 141 145 148 154 165 178 201 
217 211 207 215 219 215 220 220 221 221 222 223 223 224 218 
223 225 218 199 161 108 67 45 71 86 98 107 127 147 137 
135 135 135 135 135 135 135 135 136 136 136 136 136 136 136 
136 137 137 137 137 137 137 137 137 136 136 136 136 136 136 
136 136 137 137 137 137 137 137 137 137 139 140 139 140 142 
142 143 144 143 143 145 146 146 147 147 147 148 148 149 149 
149 150 150 150 150 150 151 151 152 152 152 152 154 154 154 
154 154 154 154 154 155 155 155 155 155 155 155 155 154 154 
154 154 154 154 154 154 156 156 156 156 156 156 156 156 156 
156 156 156 156 156 156 156 156 156 157 157 156 157 156 156 
155 155 155 155 155 155 155 155 156 156 156 156 156 156 156 
156 158 158 158 158 158 158 158 158 156 156 157 157 158 158 
158 158 158 158 158 158 127 127 127 127 127 127 127 127 127 
127 127 127 127 127 127 127 127 127 127 127 127 127 127 127 
126 126 126 126 126 126 126 126 128 128 128 128 128 128 128 
128 128 128 128 128 128 128 128 128 126 126 126 126 126 126 
126 126 127 127 127 127 127 127 127 127 129 126 104 68 52 
61 62 50 47 63 95 108 128 99 69 39 16 19 25 39 
58 82 104 117 126 138 137 133 136 136 139 155 154 191 219 
219 215 222 221 210 221 221 221 221 221 221 221 221 221 221 
217 210 204 181 130 82 49 73 90 101 106 130 153 134 135 
135 135 135 135 135 135 135 136 136 136 136 136 136 136 136 
137 137 137 137 137 137 137 137 136 136 136 136 136 136 136 
136 137 137 137 137 137 137 137 137 139 140 139 140 142 142 
143 144 143 143 145 146 146 147 147 147 148 148 149 149 149 
150 150 150 150 150 151 151 152 152 152 152 154 154 154 154 
154 154 154 154 155 155 155 155 155 155 155 155 154 154 154 
154 154 154 154 154 156 156 156 156 156 156 156 156 157 157 
157 157 157 157 157 157 156 156 157 157 156 157 156 156 155 
155 155 155 155 155 155 155 156 156 156 156 156 156 156 156 
158 158 158 158 158 158 158 158 156 156 157 157 158 158 158 
158 158 158 158 158 126 126 126 126 126 126 126 126 127 127 
127 127 127 127 127 127 126 126 126 126 126 126 126 126 128 
128 128 128 128 128 128 128 127 127 127 127 127 127 127 127 
128 128 128 128 128 128 128 128 128 128 127 127 127 126 126 
126 133 130 129 126 122 121 123 127 128 104 74 53 47 49 
52 53 45 63 99 113 121 119 69 18 11 10 19 40 63 
86 109 127 142 134 143 146 125 131 144 137 143 182 202 203 
212 214 210 214 219 229 209 208 221 219 215 210 222 212 207 
204 192 190 164 126 74 70 113 109 120 133 152 157 138 132 
139 142 133 136 141 134 135 135 135 135 135 135 135 135 136 
136 136 136 136 136 136 136 136 136 136 136 136 136 136 136 
135 135 135 136 136 137 137 137 139 139 139 139 140 141 141 
142 143 144 144 144 144 144 146 146 148 148 149 148 150 150 
149 150 151 151 151 150 152 152 153 153 154 154 154 154 154 
154 154 154 153 153 153 154 154 155 155 155 154 154 155 155 
155 156 156 156 157 157 158 158 159 159 159 159 159 159 159 
159 159 159 159 159 158 158 158 159 158 157 156 156 158 158 
158 158 158 158 158 158 157 157 158 158 159 159 159 159 159 
159 159 159 159 159 159 159 159 159 159 159 159 159 159 159 
158 158 158 158 126 126 126 126 126 126 126 126 127 127 127 
127 127 127 127 127 126 126 126 126 126 126 126 126 127 127 
127 127 127 127 127 127 127 127 127 127 127 127 127 127 128 
128 128 128 128 128 128 128 128 128 127 127 127 126 126 126 
131 128 127 126 124 123 124 127 117 93 61 44 44 48 48 
45 47 64 100 114 119 116 65 16 19 11 22 53 85 105 
115 121 126 134 124 127 119 113 113 143 126 169 196 199 207 
213 212 213 216 226 210 209 221 218 217 212 211 207 182 192 
197 179 157 163 102 71 92 103 126 135 144 150 144 132 136 
139 134 136 141 134 135 135 135 135 135 135 135 135 136 136 
136 136 136 136 136 136 136 136 136 136 136 136 136 136 135 
135 135 136 136 137 137 137 139 138 139 139 139 141 141 141 
143 143 144 144 144 144 145 146 148 148 149 148 148 150 150 
149 151 151 151 150 152 152 153 153 154 154 154 154 154 154 
154 154 153 153 153 154 154 155 155 155 154 154 155 155 155 
156 156 156 157 157 158 158 159 159 159 159 159 159 159 159 
159 159 159 159 158 158 158 158 158 157 156 156 158 158 158 
158 158 158 158 158 157 157 158 158 159 159 159 159 159 159 
159 159 159 159 159 159 159 159 159 159 159 159 159 159 158 
158 158 157 125 125 125 125 125 125 125 125 126 126 126 126 
126 126 126 126 125 125 125 125 125 125 125 125 127 127 127 
127 127 127 127 127 127 127 127 127 127 127 127 127 128 128 
128 128 128 128 128 128 128 128 127 127 127 126 126 126 128 
127 127 125 125 127 128 127 101 76 47 34 39 46 45 39 
50 64 102 115 119 111 59 11 21 15 29 63 94 103 104 
106 117 120 99 90 86 82 77 101 100 148 183 193 202 213 
215 213 211 223 212 212 219 217 218 210 195 193 181 184 154 
160 178 156 126 84 87 106 125 124 135 157 150 134 133 136 
135 137 139 137 135 135 135 135 135 135 135 135 136 136 136 
136 136 136 136 136 136 136 136 136 136 136 136 136 135 135 
135 136 136 137 137 137 139 138 138 139 139 141 141 141 143 
143 143 145 144 144 145 145 148 148 147 149 148 149 150 150 
151 151 151 150 152 152 153 153 154 154 154 154 154 154 154 
154 153 153 153 154 154 155 155 155 154 154 155 155 155 156 
156 156 157 157 158 158 159 159 159 159 159 159 159 159 159 
159 159 159 159 158 158 158 158 158 156 156 158 158 158 158 
158 158 158 158 157 157 158 158 159 159 159 159 159 159 159 
159 159 159 159 159 159 159 159 159 159 159 159 159 159 159 
158 158 126 126 126 126 126 126 126 126 126 126 126 126 126 
126 126 126 125 125 125 125 125 125 125 125 126 126 126 126 
126 126 126 126 127 127 127 127 127 127 127 127 128 128 128 
128 128 128 128 128 128 128 127 127 127 126 126 126 125 126 
125 125 125 128 126 121 83 63 42 32 34 42 43 40 50 
64 102 118 119 107 53 8 14 18 40 72 91 88 87 94 
97 82 76 59 68 63 61 41 75 120 164 185 198 213 218 
215 213 226 218 217 218 215 215 201 204 184 125 129 137 129 
139 157 139 98 86 103 121 120 133 156 156 138 130 133 137 
137 138 137 135 135 135 135 135 135 135 135 136 136 136 136 
136 136 136 136 136 136 136 136 136 136 136 136 135 135 135 
136 136 137 137 137 138 138 138 138 139 140 140 141 143 143 
143 144 145 144 145 145 147 148 147 147 148 148 149 150 151 
151 151 150 152 152 153 153 154 154 154 154 154 154 154 154 
153 153 153 154 154 155 155 155 154 154 155 155 155 156 156 
156 157 157 158 158 159 159 159 159 159 159 159 159 159 159 
159 159 159 159 158 158 157 158 157 157 158 158 158 158 158 
158 158 158 157 157 158 158 159 159 159 159 159 159 159 159 
159 159 159 159 159 159 159 159 159 159 159 159 159 158 158 
158 126 126 126 126 126 126 126 126 126 126 126 126 126 126 
126 126 125 125 125 125 125 125 125 125 126 126 126 126 126 
126 126 126 127 127 127 127 127 127 127 127 128 128 128 128 
128 128 128 128 128 128 127 127 127 126 126 126 124 127 126 
124 125 128 119 109 67 55 41 33 32 37 42 45 48 64 
104 120 118 101 49 7 12 23 51 81 90 79 71 72 49 
33 22 2 44 25 35 37 54 94 143 175 196 212 220 216 
221 231 224 220 216 213 209 184 156 154 130 106 85 82 108 
104 133 103 75 88 112 128 133 136 156 142 130 132 138 138 
136 137 135 135 135 135 135 135 135 135 136 136 136 136 136 
136 136 136 136 136 136 136 136 136 136 136 135 135 135 136 
136 137 137 137 138 137 137 138 138 140 140 140 144 143 143 
144 145 145 145 145 147 147 146 147 147 148 149 149 151 151 
151 150 152 152 153 153 154 154 154 154 154 154 154 154 153 
153 153 154 154 155 155 155 154 154 155 155 155 156 156 156 
157 157 158 158 159 159 159 159 159 159 159 159 159 159 159 
159 158 158 159 158 157 157 156 157 158 158 158 158 158 158 
158 158 157 157 158 158 159 159 159 159 159 159 159 159 159 
159 159 159 159 159 159 159 159 159 159 159 159 159 159 159 
125 125 125 125 125 125 125 125 125 125 125 125 125 125 125 
125 125 125 125 125 125 125 125 125 126 126 126 126 126 126 
126 126 127 127 127 127 127 127 127 127 128 128 128 128 128 
128 128 128 128 128 127 127 127 126 126 126 124 127 128 124 
124 122 107 89 56 49 40 33 32 34 40 46 45 60 102 
121 119 99 47 6 22 34 55 76 77 61 39 27 0 17 
27 19 99 39 11 34 46 71 122 169 194 212 222 221 227 
233 227 222 216 215 206 172 139 117 80 22 27 18 38 48 
95 102 78 84 97 120 128 128 150 147 135 132 137 139 136 
134 135 135 135 135 135 135 135 135 136 136 136 136 136 136 
136 136 136 136 136 136 136 136 136 136 135 135 135 136 136 
137 137 137 138 137 137 137 138 139 139 140 144 144 143 144 
144 145 146 146 147 147 146 146 148 147 147 148 151 151 151 
150 152 152 153 153 154 154 154 154 154 154 154 154 153 153 
153 154 154 155 155 155 154 154 155 155 155 156 156 156 157 
157 158 158 159 159 159 159 159 159 159 159 159 159 159 159 
158 158 158 159 157 157 156 156 158 158 158 158 158 158 158 
158 157 157 158 158 159 159 159 159 159 159 159 159 159 159 
159 159 159 159 159 159 159 159 159 159 159 159 159 160 124 
124 124 124 124 124 124 124 125 125 125 125 125 125 125 125 
125 125 125 125 125 125 125 125 126 126 126 126 126 126 126 
126 127 127 127 127 127 127 127 127 128 128 128 128 128 128 
128 128 128 128 127 127 127 126 126 126 124 129 129 125 123 
118 95 68 50 43 35 30 31 34 37 40 40 57 101 122 
119 98 45 7 28 44 59 61 52 39 24 12 16 16 10 
2 33 22 30 41 44 56 104 162 195 212 224 224 227 231 
224 222 218 219 209 164 137 89 52 36 135 50 1 22 60 
98 92 96 94 111 128 137 142 152 144 132 137 140 135 132 
135 135 135 135 135 135 135 135 136 136 136 136 136 136 136 
136 136 136 136 136 136 136 136 136 135 135 135 136 136 137 
137 137 137 136 137 137 137 139 139 139 144 144 144 144 144 
144 146 146 145 146 147 146 147 148 147 147 151 151 151 150 
152 152 153 153 154 154 154 154 154 154 154 154 153 153 153 
154 154 155 155 155 154 154 155 155 155 156 156 156 157 157 
158 158 159 159 159 159 159 159 159 159 159 159 159 159 159 
159 158 158 158 157 156 156 158 158 158 158 158 158 158 158 
157 157 158 158 159 159 159 159 159 159 159 159 159 159 159 
159 159 159 159 159 159 159 159 159 160 160 161 160 124 124 
124 124 124 124 124 124 125 125 125 125 125 125 125 125 125 
125 125 125 125 125 125 125 126 126 126 126 126 126 126 126 
127 127 127 127 127 127 127 127 128 128 128 128 128 128 128 
128 128 128 127 127 127 126 126 126 124 128 132 126 122 113 
86 55 47 39 28 26 30 33 35 33 38 55 100 123 119 
98 46 8 23 47 63 52 36 31 37 41 38 14 34 33 
9 57 81 15 46 49 95 160 196 213 225 225 225 226 221 
221 220 224 212 162 103 26 98 34 2 8 64 19 53 96 
91 104 106 123 133 139 138 156 148 132 136 140 134 132 135 
135 135 135 135 135 135 135 136 136 136 136 136 136 136 136 
136 136 136 136 136 136 136 136 135 135 135 136 136 137 137 
137 137 136 136 137 137 139 139 139 144 144 144 145 144 144 
145 146 145 145 146 147 147 148 148 147 151 151 151 150 152 
152 153 153 154 154 154 154 154 154 154 154 153 153 153 154 
154 155 155 155 154 154 155 155 155 156 156 156 157 157 158 
158 159 159 159 159 159 159 159 159 159 159 159 159 159 159 
158 158 158 157 156 156 158 158 158 158 158 158 158 158 157 
157 158 158 159 159 159 159 159 159 159 159 159 159 159 159 
159 159 159 159 159 159 159 159 160 161 161 160 124 124 124 
124 124 124 124 124 124 124 124 124 124 124 124 124 124 124 
124 124 124 124 124 124 125 125 125 126 126 126 127 127 126 
126 126 126 126 126 126 126 126 126 126 126 126 126 126 126 
125 125 124 124 124 124 124 124 121 124 126 124 118 94 64 
48 44 35 26 21 26 31 37 38 32 57 106 119 127 98 
38 30 53 65 69 68 63 40 23 33 33 25 14 20 37 
41 40 45 35 74 123 174 208 218 212 214 218 218 220 225 
228 223 215 208 132 60 142 38 34 35 54 57 78 80 57 
113 129 116 131 143 134 143 145 138 135 132 134 138 134 134 
134 134 134 134 134 134 134 134 134 134 134 134 134 134 136 
136 136 136 136 136 136 136 137 137 137 137 137 137 137 137 
138 137 138 138 139 140 140 140 142 142 142 142 144 145 146 
146 144 144 145 146 145 147 146 146 149 149 150 150 152 152 
152 153 153 153 152 153 153 154 155 155 154 154 155 155 155 
156 156 156 156 156 157 157 157 158 158 158 158 158 158 157 
157 157 158 158 161 161 161 161 161 161 161 161 159 159 158 
158 157 158 157 157 158 158 158 158 158 158 158 158 157 157 
157 157 157 157 157 157 159 159 159 159 159 159 159 159 160 
160 160 160 160 160 160 160 161 161 161 161 124 124 124 124 
124 124 124 124 124 124 124 124 124 124 124 124 124 124 124 
124 124 124 124 124 125 125 125 125 126 126 127 127 126 126 
126 126 126 126 126 126 126 126 126 126 126 126 126 126 125 
125 124 124 124 124 124 124 123 125 121 115 104 79 54 50 
43 34 25 21 26 31 36 37 29 55 104 122 132 108 51 
47 71 79 77 76 73 51 35 41 31 32 29 36 46 40 
33 39 66 110 158 195 215 218 213 214 211 213 216 220 223 
223 219 217 182 114 94 41 23 23 20 54 96 69 41 78 
107 118 117 130 133 143 145 138 134 132 135 138 134 134 134 
134 134 134 134 134 134 134 134 134 134 134 134 134 136 136 
136 136 136 136 136 136 137 137 137 137 137 137 137 137 138 
137 138 138 138 140 140 140 142 142 142 142 144 145 145 146 
144 144 144 146 145 146 146 146 148 149 150 150 152 153 152 
153 153 153 153 153 153 153 155 155 154 154 155 155 155 156 
156 156 156 156 157 157 157 158 158 158 158 158 158 157 157 
157 158 158 161 161 161 161 161 161 161 161 159 159 158 158 
157 158 157 157 158 158 158 158 158 158 158 158 157 157 157 
157 157 157 157 157 159 159 159 159 159 159 159 159 160 160 
160 160 160 160 160 160 161 161 161 161 123 123 123 123 123 
123 123 123 123 123 123 123 123 123 123 123 123 123 123 123 
123 123 123 123 124 124 125 125 126 126 126 126 126 126 126 
126 126 126 126 126 125 125 125 125 125 125 125 125 125 125 
124 124 124 124 124 124 127 126 116 103 85 59 43 50 41 
32 24 22 24 30 35 35 34 58 105 127 134 114 58 57 
89 91 89 89 89 71 52 49 39 45 48 53 56 48 41 
48 101 147 189 209 217 217 214 216 207 209 214 218 220 222 
226 228 224 179 84 50 31 20 13 61 125 70 29 47 87 
123 109 123 134 142 145 139 134 132 135 138 134 134 134 134 
134 134 134 134 134 134 134 134 134 134 134 134 136 136 136 
136 136 136 136 136 137 137 137 137 137 137 137 137 138 137 
137 138 138 139 140 140 140 141 142 142 143 144 145 145 144 
144 144 146 145 146 147 146 148 148 150 150 151 152 153 152 
153 153 153 153 153 153 154 155 154 154 155 155 155 156 156 
156 156 156 157 157 157 158 158 158 158 158 158 157 157 157 
158 158 161 161 161 161 161 161 161 161 159 159 158 158 157 
158 157 157 158 158 158 158 158 158 158 158 157 157 157 157 
157 157 157 157 159 159 159 159 159 159 159 159 160 160 160 
160 160 160 160 160 161 161 161 161 123 123 123 123 123 123 
123 123 123 123 123 123 123 123 123 123 123 123 123 123 123 
123 123 123 124 124 124 125 125 125 126 126 126 126 126 126 
126 126 126 126 125 125 125 125 125 125 125 125 125 125 124 
124 124 124 124 124 129 131 115 92 70 50 38 42 37 32 
23 22 24 30 32 33 33 56 97 126 134 119 62 65 96 
95 95 100 103 92 74 64 63 66 65 68 74 71 70 82 
123 164 195 203 207 211 213 216 209 211 215 216 216 220 227 
234 227 214 143 74 61 43 54 84 140 81 22 33 73 110 
107 116 133 142 145 139 133 132 135 138 134 134 134 134 134 
134 134 134 134 134 134 134 134 134 134 134 136 136 136 136 
136 136 136 136 136 136 136 136 136 136 136 136 137 136 137 
137 138 139 139 139 140 140 141 142 142 143 145 145 144 144 
144 146 145 146 147 147 148 148 149 150 150 152 153 153 153 
153 153 154 153 153 154 154 154 154 155 155 155 156 156 156 
156 156 157 157 157 158 158 158 158 158 158 157 157 157 158 
158 161 161 161 161 161 161 161 161 159 159 158 158 157 158 
157 157 158 158 158 158 158 158 158 158 157 157 157 157 157 
157 157 157 159 159 159 159 159 159 159 159 160 160 160 160 
160 160 160 160 161 161 161 161 122 122 122 122 122 122 122 
122 122 122 122 122 122 122 122 122 122 122 122 122 122 122 
122 122 123 123 124 124 125 125 125 125 126 126 126 126 126 
126 126 126 125 125 125 125 125 125 125 125 125 125 124 124 
124 124 124 124 126 133 114 80 62 52 39 31 34 30 24 
21 24 28 30 30 26 44 81 119 132 126 68 76 96 94 
97 101 104 104 99 90 90 90 85 90 102 106 109 121 146 
174 189 188 196 205 208 210 213 214 215 215 213 216 223 230 
224 216 199 118 95 86 98 115 136 94 19 35 63 86 105 
110 134 142 146 138 132 133 135 137 134 134 134 134 134 134 
134 134 134 134 134 134 134 134 134 134 136 136 136 136 136 
136 136 136 136 136 136 136 136 136 136 136 137 136 136 137 
137 138 139 139 140 141 140 141 143 143 143 143 145 145 144 
145 146 146 147 147 148 148 148 149 151 151 152 152 152 152 
153 154 154 153 154 154 154 154 155 155 155 156 156 156 156 
156 157 157 157 158 158 158 158 158 158 157 157 157 158 158 
161 161 161 161 161 161 161 161 159 159 158 158 157 158 157 
157 158 158 158 158 158 158 158 158 157 157 157 157 157 157 
157 157 159 159 159 159 159 159 159 159 160 160 160 160 160 
160 160 160 161 161 161 161 122 122 122 122 122 122 122 122 
122 122 122 122 122 122 122 122 122 122 122 122 122 122 122 
122 123 123 123 124 124 125 125 125 126 126 126 126 126 126 
126 126 124 124 124 124 124 124 124 124 125 125 124 124 124 
124 124 124 125 124 100 68 59 53 37 25 33 28 23 21 
25 27 28 27 31 40 68 114 130 131 68 72 94 93 99 
98 96 107 120 120 115 115 115 122 135 138 138 147 166 181 
184 183 193 201 202 204 211 211 209 208 207 209 213 218 230 
214 213 165 127 130 117 136 138 104 26 48 67 76 106 114 
133 142 146 138 131 133 135 136 134 134 134 134 134 134 134 
134 134 134 134 134 134 134 134 134 136 136 136 136 136 136 
136 136 135 135 135 135 135 135 135 135 136 136 136 136 137 
138 138 138 140 140 141 141 141 143 143 143 144 145 145 145 
146 147 147 147 147 148 148 148 150 150 152 152 153 152 152 
154 154 154 154 154 154 154 155 155 155 156 156 156 156 156 
157 157 157 158 158 158 158 158 158 157 157 157 158 158 161 
161 161 161 161 161 161 161 159 159 158 158 157 158 157 157 
158 158 158 158 158 158 158 158 157 157 157 157 157 157 157 
157 159 159 159 159 159 159 159 159 160 160 160 160 160 160 
160 160 161 161 161 161 121 121 121 121 121 121 121 121 121 
121 121 121 121 121 121 121 121 121 121 121 121 121 121 121 
123 123 123 123 124 124 124 125 126 126 126 126 126 126 126 
126 124 124 124 124 124 124 124 124 125 125 124 124 124 124 
124 124 129 107 75 57 58 49 33 24 31 25 21 21 25 
27 26 25 41 42 60 112 131 135 65 67 86 95 109 107 
99 110 130 133 140 144 147 152 157 151 151 162 173 182 184 
186 195 199 198 202 202 200 198 197 200 203 204 204 225 222 
218 190 163 154 126 142 149 102 34 50 71 85 100 117 134 
143 146 138 131 133 135 137 134 134 134 134 134 134 134 134 
134 134 134 134 134 134 134 134 136 136 136 136 136 136 136 
136 135 135 135 135 135 135 135 135 136 135 136 136 136 138 
138 138 140 140 140 141 141 143 143 144 144 144 145 146 146 
147 146 146 146 147 147 148 150 150 150 151 153 153 152 153 
154 154 155 155 154 154 155 155 155 156 156 156 156 156 157 
157 157 158 158 158 158 158 158 157 157 157 158 158 161 161 
161 161 161 161 161 161 159 159 158 158 157 158 157 157 158 
158 158 158 158 158 158 158 157 157 157 157 157 157 157 157 
159 159 159 159 159 159 159 159 160 160 160 160 160 160 160 
160 161 161 161 161 121 121 121 121 121 121 121 121 121 121 
121 121 121 121 121 121 121 121 121 121 121 121 121 121 123 
123 123 123 124 124 124 124 126 126 126 126 126 126 126 126 
124 124 124 124 124 124 124 124 125 125 124 124 124 124 124 
124 133 94 55 49 57 44 28 26 30 25 21 21 25 26 
26 24 41 39 53 110 134 142 72 73 78 95 120 122 106 
113 132 134 157 165 166 164 162 152 152 166 167 176 182 189 
199 198 196 201 191 188 186 190 196 198 196 195 212 234 231 
194 195 161 137 141 154 89 32 42 67 89 86 114 133 143 
146 139 131 133 135 136 134 134 134 134 134 134 134 134 134 
134 134 134 134 134 134 134 136 136 136 136 136 136 136 136 
135 135 135 135 135 135 135 135 136 135 135 136 136 137 138 
138 139 140 140 141 141 142 143 143 144 144 144 146 146 147 
146 146 146 147 148 148 150 149 150 150 153 153 153 153 154 
154 155 155 154 154 155 155 155 156 156 156 156 156 157 157 
157 158 158 158 158 158 158 157 157 157 158 158 161 161 161 
161 161 161 161 161 159 159 158 158 157 158 157 157 158 158 
158 158 158 158 158 158 157 157 157 157 157 157 157 157 159 
159 159 159 159 159 159 159 160 160 160 160 160 160 160 160 
161 161 161 161 120 120 120 120 120 120 120 120 121 121 121 
121 121 121 121 121 122 122 122 122 122 122 122 122 122 122 
122 122 122 122 122 122 125 125 125 125 125 125 125 125 125 
125 125 125 125 125 125 125 126 126 125 125 125 124 124 124 
122 105 45 36 60 51 38 23 33 28 23 23 27 30 28 
26 39 36 39 100 124 143 84 57 77 107 135 146 143 145 
150 155 161 170 174 165 150 144 151 161 171 189 175 186 174 
183 194 196 188 175 175 178 179 194 201 188 206 211 224 213 
186 178 145 155 150 60 46 50 69 74 84 105 125 133 139 
138 135 137 134 129 133 133 133 133 133 133 133 133 134 134 
134 134 134 134 134 134 134 134 134 134 134 134 134 134 136 
136 136 136 136 136 136 136 135 135 135 135 135 135 135 135 
138 138 139 139 140 140 140 140 143 142 143 143 144 143 145 
145 145 145 146 146 148 147 149 149 152 152 152 153 153 153 
154 154 153 153 154 155 154 155 156 156 156 156 156 156 158 
157 157 157 156 157 157 157 158 158 158 159 161 161 161 161 
161 161 161 161 160 159 159 159 158 158 158 157 156 156 156 
156 158 157 157 157 156 157 157 158 158 158 159 160 159 159 
159 159 160 160 160 161 160 160 160 160 160 160 160 160 160 
160 160 160 121 121 121 121 121 121 121 121 121 121 121 121 
121 121 121 121 122 122 122 122 122 122 122 122 122 122 122 
122 122 122 122 122 125 125 125 125 125 125 125 125 125 125 
125 125 125 125 125 125 126 125 125 125 124 124 124 123 123 
117 70 43 47 41 33 31 32 27 21 20 24 27 28 27 
41 36 39 91 120 144 91 65 85 113 141 151 150 152 158 
163 163 167 168 160 149 145 152 161 165 182 177 185 169 160 
171 176 166 121 97 104 109 120 141 154 164 221 208 203 211 
192 174 167 129 45 41 50 70 81 91 100 119 131 140 139 
135 135 132 130 133 133 133 133 133 133 133 133 134 134 134 
134 134 134 134 134 134 134 134 134 134 134 134 134 136 136 
136 136 136 136 136 136 135 135 135 135 135 135 135 135 138 
138 139 139 139 140 140 140 142 142 142 142 143 143 144 145 
145 145 145 147 147 148 148 149 152 152 152 152 153 153 154 
154 154 153 153 155 154 154 156 156 155 155 156 157 157 157 
157 158 156 156 157 157 157 158 158 158 161 161 161 161 161 
161 161 161 158 158 158 157 157 157 156 156 155 155 156 157 
157 157 157 158 156 156 157 158 157 158 159 159 157 158 158 
158 159 159 159 159 158 158 158 158 158 158 158 158 160 160 
160 160 121 121 121 121 121 121 121 121 121 121 121 121 121 
121 121 121 121 121 121 121 121 121 121 121 121 121 121 121 
121 121 121 121 124 124 124 124 124 124 124 124 124 124 124 
124 124 124 124 124 125 125 125 124 124 124 123 123 126 122 
93 46 37 41 33 38 32 26 19 17 19 25 29 30 47 
41 39 77 112 145 97 78 90 118 144 154 153 157 162 167 
164 163 159 153 147 147 153 160 162 178 183 181 178 161 159 
143 100 54 29 35 38 39 47 57 79 157 204 208 211 206 
201 190 116 30 35 54 72 87 94 88 111 128 143 142 135 
132 131 130 133 133 133 133 133 133 133 133 134 134 134 134 
134 134 134 134 134 134 134 134 134 134 134 134 136 136 136 
136 136 136 136 136 135 135 135 135 135 135 135 135 138 138 
138 139 139 139 140 140 142 142 143 142 144 143 144 143 145 
144 146 146 148 147 149 149 151 151 152 152 153 153 153 153 
154 154 153 154 155 154 154 156 155 155 156 157 156 156 157 
157 156 156 156 157 157 158 158 158 159 159 159 159 159 159 
159 159 158 158 158 157 157 156 156 156 155 155 156 157 156 
156 157 157 156 156 156 157 158 158 158 158 157 157 157 158 
158 159 159 159 158 158 158 158 158 158 158 158 159 159 159 
159 120 120 120 120 120 120 120 120 120 120 120 120 120 120 
120 120 121 121 121 121 121 121 121 121 121 121 121 121 121 
121 121 121 124 124 124 124 124 124 124 124 124 124 124 124 
124 124 124 124 125 125 124 124 124 123 123 123 127 119 100 
48 37 49 36 39 31 26 19 15 17 23 30 34 56 51 
47 64 103 144 101 84 94 118 142 151 152 156 161 165 164 
159 151 145 143 148 155 159 171 181 188 170 173 150 116 62 
28 24 22 29 42 56 57 46 45 64 191 212 187 213 210 
202 127 29 36 62 75 84 89 81 103 124 142 143 135 131 
131 132 133 133 133 133 133 133 133 133 134 134 134 134 134 
134 134 134 134 134 134 134 134 134 134 134 136 136 136 136 
136 136 136 136 135 135 135 135 135 135 135 135 136 136 137 
137 138 138 138 138 142 142 141 143 142 142 143 143 145 145 
145 147 148 148 148 149 151 151 151 152 152 152 153 153 152 
153 154 154 154 154 154 155 154 154 155 155 156 157 157 157 
156 157 157 157 158 158 158 159 159 159 159 159 159 159 159 
159 159 158 158 158 157 157 157 156 154 154 155 155 156 157 
157 157 156 156 156 156 157 158 157 158 158 158 158 158 159 
159 160 160 159 159 159 159 159 159 159 159 159 159 159 159 
120 120 120 120 120 120 120 120 120 120 120 120 120 120 120 
120 121 121 121 121 121 121 121 121 121 121 121 121 121 121 
121 121 122 122 122 122 122 122 122 122 122 122 122 122 122 
122 122 122 123 123 123 122 122 122 121 121 122 119 111 62 
41 48 35 39 30 26 21 17 18 24 32 39 62 63 61 
57 96 140 99 88 99 121 141 148 150 153 158 160 159 152 
144 141 142 148 154 158 173 170 181 170 170 128 70 13 22 
37 42 42 57 80 83 74 55 33 137 196 194 214 203 200 
142 34 39 72 82 81 85 84 99 120 138 141 133 130 131 
133 133 133 133 133 133 133 133 133 134 134 134 134 134 134 
134 134 134 134 134 134 134 134 134 134 136 136 136 136 136 
136 136 136 135 135 135 135 135 135 135 135 136 136 136 137 
137 137 138 138 141 141 141 142 142 142 142 142 145 145 145 
147 148 148 148 149 149 149 150 150 151 151 151 151 152 153 
153 152 154 153 154 154 155 155 154 155 155 155 156 157 156 
156 156 157 157 158 158 158 158 158 158 158 158 158 158 158 
157 157 157 156 156 155 155 155 155 155 154 155 155 155 156 
157 156 156 156 156 156 157 158 158 157 157 158 158 158 159 
159 159 158 158 158 158 158 158 158 158 158 158 158 158 119 
119 119 119 119 119 119 119 118 118 118 118 118 118 118 118 
121 121 121 121 121 121 121 121 121 121 121 121 121 121 121 
121 122 122 122 122 122 122 122 122 122 122 122 122 122 122 
122 122 123 123 122 122 122 121 121 121 120 124 122 88 55 
41 33 39 28 27 25 22 22 27 35 42 61 70 75 54 
92 137 98 92 107 125 142 148 148 150 153 153 151 147 141 
138 141 147 152 156 175 163 178 182 168 110 44 10 7 10 
6 6 12 11 9 16 20 47 77 182 224 205 196 205 144 
42 44 74 86 83 85 93 98 116 133 134 131 132 132 134 
133 133 133 133 133 133 133 133 134 134 134 134 134 134 134 
134 134 134 134 134 134 134 134 134 136 136 136 136 136 136 
136 136 135 135 135 135 135 135 135 135 135 136 136 136 137 
137 137 137 141 141 141 141 142 142 143 142 145 144 146 146 
148 147 149 149 150 150 150 151 151 152 152 152 151 151 153 
153 152 153 153 153 153 154 154 154 155 156 156 156 156 156 
156 156 157 157 157 158 159 159 159 159 159 159 159 159 158 
157 157 157 156 156 156 156 153 154 154 154 155 156 156 156 
155 155 156 156 156 156 156 158 156 156 156 156 157 157 158 
158 157 157 157 157 157 157 157 157 158 158 158 158 119 119 
119 119 119 119 119 119 118 118 118 118 118 118 118 118 120 
120 120 120 120 120 120 120 120 120 120 120 120 120 120 120 
122 122 122 122 122 122 122 122 122 122 122 122 122 122 122 
122 124 123 123 123 122 122 122 121 122 125 122 113 80 47 
42 40 27 29 30 29 28 31 38 45 51 73 87 55 93 
137 99 98 109 125 139 142 140 142 142 141 141 142 141 139 
140 144 150 154 177 170 176 177 153 113 43 11 16 9 1 
10 23 13 9 27 23 77 68 176 221 204 188 196 136 53 
54 69 86 88 85 90 99 114 125 129 130 133 134 134 133 
133 133 133 133 133 133 133 134 134 134 134 134 134 134 134 
134 134 134 134 134 134 134 134 136 136 136 136 136 136 136 
136 135 135 135 135 135 135 135 135 135 135 136 136 136 137 
137 137 140 140 140 140 141 141 141 143 145 145 145 147 147 
148 148 149 150 150 150 150 151 151 151 152 151 151 151 153 
152 153 153 153 153 153 154 155 155 155 155 155 155 155 156 
156 156 157 157 157 158 158 158 158 158 158 158 158 156 156 
156 155 155 155 154 154 153 153 154 155 155 155 155 155 154 
154 155 156 155 156 156 156 155 155 156 156 157 157 157 157 
156 156 156 156 156 156 156 156 157 157 157 157 119 119 119 
119 119 119 119 119 118 118 118 118 118 118 118 118 120 120 
120 120 120 120 120 120 120 120 120 120 120 120 120 120 122 
122 122 122 122 122 122 122 122 122 122 122 122 122 122 122 
123 123 123 122 122 122 121 121 127 126 117 124 102 63 54 
42 27 30 33 33 32 34 40 46 42 72 93 57 94 137 
102 103 106 121 133 133 131 132 131 131 136 138 141 141 140 
142 148 153 159 166 171 167 160 166 98 51 13 4 0 0 
19 19 18 36 105 110 96 170 187 215 179 167 127 63 63 
67 84 89 83 82 100 111 122 124 128 134 136 135 133 133 
133 133 133 133 133 133 134 134 134 134 134 134 134 134 134 
134 134 134 134 134 134 134 136 136 136 136 136 136 136 136 
135 135 135 135 135 135 135 135 136 136 136 137 137 137 138 
138 140 140 141 140 142 141 142 142 145 145 146 146 148 147 
149 149 149 150 150 150 151 151 151 151 152 151 151 152 153 
153 153 153 153 154 154 154 154 154 156 156 154 154 154 155 
155 156 156 156 158 158 158 158 158 158 158 158 157 157 157 
156 156 155 155 155 153 154 154 154 154 154 156 156 154 154 
154 156 156 156 156 156 155 155 156 156 156 157 157 157 156 
156 156 156 156 156 156 156 157 157 157 157 118 118 118 118 
118 118 118 118 119 119 119 119 119 119 119 119 119 119 119 
119 119 119 119 119 119 119 119 119 119 119 119 119 119 119 
119 119 119 119 119 119 121 121 121 121 122 122 122 122 124 
124 124 124 124 124 124 124 126 117 122 134 126 94 68 60 
43 36 32 36 38 40 49 62 51 61 100 69 75 140 96 
96 106 111 97 121 145 142 148 141 148 140 145 135 144 156 
145 160 165 166 172 178 146 125 115 60 53 58 36 8 8 
14 19 29 63 51 96 181 197 215 177 184 136 51 58 80 
84 78 92 81 88 104 125 125 135 134 139 130 133 133 133 
133 133 133 133 133 133 133 133 133 133 133 133 133 134 134 
134 134 134 134 134 134 134 134 134 134 134 134 134 134 135 
135 135 136 136 136 136 136 135 135 135 136 137 136 137 137 
142 142 143 143 145 145 147 147 147 147 148 148 147 148 149 
149 150 151 151 151 152 152 152 153 153 153 153 154 154 154 
155 155 153 153 153 154 154 154 155 155 155 155 155 155 155 
155 155 155 157 157 157 157 157 157 157 157 157 157 157 156 
156 156 155 155 156 156 156 156 156 156 156 156 155 155 155 
155 155 155 155 155 156 156 156 156 156 156 156 156 157 157 
157 157 157 157 157 157 158 158 158 158 118 118 118 118 118 
118 118 118 119 119 119 119 119 119 119 119 119 119 119 119 
119 119 119 119 119 119 119 119 119 119 119 119 119 119 119 
119 119 119 119 119 121 121 121 121 121 122 122 122 123 123 
123 123 123 123 123 123 122 120 122 125 123 109 84 65 59 
49 43 44 49 49 52 57 48 69 117 80 83 150 99 93 
99 103 97 114 133 129 136 152 131 135 145 149 148 143 141 
161 166 168 176 177 147 130 121 73 27 27 21 16 14 12 
20 36 36 51 96 177 196 213 180 178 129 57 63 78 85 
79 88 83 88 101 123 124 136 133 139 130 133 133 133 133 
133 133 133 133 133 133 133 133 133 133 133 133 134 134 134 
134 134 134 134 134 134 134 134 134 134 134 134 134 135 135 
135 136 136 136 136 136 135 135 136 136 137 137 137 138 142 
142 143 143 145 145 147 146 147 147 147 148 148 149 149 149 
151 151 151 152 152 152 153 153 152 152 152 153 153 154 154 
154 153 153 154 154 154 155 155 155 155 155 155 155 155 155 
155 155 157 157 157 157 157 157 157 157 157 157 157 157 156 
156 155 155 156 156 156 156 156 156 156 156 155 155 155 155 
155 155 155 155 155 155 155 155 155 155 155 155 156 156 156 
156 156 156 156 156 158 158 158 158 118 118 118 118 118 118 
118 118 119 119 119 119 119 119 119 119 119 119 119 119 119 
119 119 119 119 119 119 119 119 119 119 119 119 119 119 119 
119 119 119 119 120 120 120 121 121 121 121 121 123 123 123 
123 123 123 123 123 121 124 121 116 120 123 105 78 74 63 
53 48 46 49 56 65 64 84 130 82 85 157 101 101 99 
99 99 105 117 109 106 143 125 133 138 151 152 135 141 159 
162 160 166 173 158 152 143 98 66 29 7 10 11 7 12 
20 43 88 122 181 201 215 188 169 121 72 74 82 87 85 
87 89 87 99 120 122 136 133 138 129 133 133 133 133 133 
133 133 133 133 133 133 133 133 133 133 133 134 134 134 134 
134 134 134 134 134 134 134 134 134 134 134 134 135 135 135 
136 136 136 137 137 136 137 136 136 137 137 138 138 142 142 
144 143 145 146 147 146 148 147 148 147 148 149 149 150 151 
151 151 152 152 153 153 153 152 152 153 153 154 154 154 154 
154 155 155 155 156 156 156 156 156 156 156 156 156 156 156 
156 159 159 159 159 159 159 159 159 158 158 157 157 156 156 
156 156 156 156 156 156 156 156 156 156 156 156 156 156 156 
156 156 156 157 157 157 157 157 157 157 157 157 157 157 157 
157 157 157 157 158 158 158 158 117 117 117 117 117 117 117 
117 118 118 118 118 118 118 118 118 118 118 118 118 118 118 
118 118 118 118 118 118 118 118 118 118 119 119 119 119 119 
119 119 119 119 119 120 120 121 121 121 121 123 123 123 123 
123 123 123 123 120 125 121 116 120 128 118 102 77 77 73 
65 57 60 72 84 82 93 136 97 107 163 98 102 106 100 
105 105 109 87 64 102 131 139 127 140 147 135 149 154 162 
153 156 168 171 179 164 121 96 46 16 17 16 20 31 36 
87 145 156 190 206 212 187 154 116 87 87 86 91 91 87 
94 87 96 116 122 137 131 137 130 133 133 133 133 133 133 
133 133 133 133 133 133 133 133 133 133 134 134 134 134 134 
134 134 134 134 134 134 134 134 134 134 134 135 135 135 136 
136 136 137 137 137 137 136 138 137 137 139 139 142 142 144 
144 144 146 147 146 148 148 148 148 149 149 150 150 151 152 
152 152 153 153 153 154 154 154 154 155 155 155 156 156 155 
155 155 156 156 156 157 157 157 157 157 157 157 157 157 157 
159 159 159 159 159 159 159 159 159 159 159 158 158 158 157 
157 156 156 156 156 156 156 156 156 157 157 157 157 157 157 
157 157 158 158 158 158 158 158 158 158 158 158 158 158 158 
158 158 158 158 158 158 158 117 117 117 117 117 117 117 117 
117 117 117 117 117 117 117 117 117 117 117 117 117 117 117 
117 117 117 117 117 117 117 117 117 119 119 119 119 119 119 
119 119 119 119 119 120 120 120 121 121 122 122 122 122 122 
122 122 122 120 122 122 122 123 129 123 123 86 90 91 89 
89 92 96 97 94 100 143 138 152 173 91 94 106 100 109 
108 111 84 41 55 116 138 129 133 139 136 150 145 160 154 
164 168 172 180 164 133 96 73 59 47 29 34 59 72 120 
172 175 191 205 207 178 134 109 93 91 88 88 93 84 90 
86 91 112 119 137 131 136 130 133 133 133 133 133 133 133 
133 133 133 133 133 133 133 133 133 134 134 134 134 134 134 
134 134 134 134 134 134 134 134 134 134 134 134 134 135 135 
135 136 136 137 137 138 138 138 139 139 139 142 143 144 144 
144 146 147 147 148 148 148 149 149 150 150 150 151 151 151 
152 152 153 153 153 154 154 155 155 155 156 156 156 154 154 
155 155 156 156 156 156 157 157 157 157 157 157 157 157 160 
160 160 160 160 160 160 160 160 160 159 159 158 158 158 158 
157 157 157 157 157 157 157 157 158 158 158 158 158 158 158 
158 158 158 158 158 158 158 158 158 159 159 159 159 159 159 
159 159 160 160 160 160 116 116 116 116 116 116 116 116 116 
116 116 116 116 116 116 116 116 116 116 116 116 116 116 116 
116 116 116 116 116 116 116 116 118 118 118 118 118 118 118 
118 118 119 119 119 120 120 120 120 122 122 122 122 122 122 
122 122 122 120 122 125 125 124 123 134 113 104 90 87 96 
109 112 107 112 119 147 166 180 169 94 103 102 99 107 113 
118 98 54 34 80 120 135 135 135 134 140 138 140 148 168 
166 161 168 157 142 102 92 77 56 42 57 89 110 134 170 
184 197 207 204 172 130 104 91 91 93 86 92 79 84 87 
88 107 118 139 132 134 128 133 133 133 133 133 133 133 133 
133 133 133 133 133 133 133 133 134 134 134 134 134 134 134 
134 134 134 134 134 134 134 134 134 134 134 134 135 135 135 
136 136 138 137 138 139 139 139 139 139 142 143 143 143 144 
146 146 147 148 148 149 149 150 150 150 151 152 153 153 153 
154 154 154 154 154 154 154 154 155 155 156 156 155 155 155 
156 156 156 157 157 158 158 158 158 158 158 158 158 159 159 
159 159 159 159 159 159 159 159 159 158 158 157 157 157 158 
158 158 158 158 158 158 158 157 157 157 157 157 157 157 157 
160 160 160 160 160 160 160 160 158 158 158 158 158 158 158 
158 159 159 159 159 116 116 116 116 116 116 116 116 116 116 
116 116 116 116 116 116 116 116 116 116 116 116 116 116 116 
116 116 116 116 116 116 116 117 117 117 117 117 117 117 117 
118 118 119 119 119 120 120 120 121 121 121 121 121 121 121 
121 125 122 122 125 124 121 123 130 129 117 99 85 87 100 
107 105 118 134 147 175 182 152 96 108 100 102 105 116 121 
117 90 41 47 85 124 134 136 135 126 132 123 132 156 153 
152 159 142 131 93 88 70 55 57 77 111 142 151 165 193 
201 201 193 163 136 110 94 94 102 88 97 83 85 86 84 
103 118 139 131 133 128 133 133 133 133 133 133 133 133 133 
133 133 133 133 133 133 133 134 134 134 134 134 134 134 134 
134 134 134 134 134 134 134 134 134 134 134 135 135 135 136 
136 137 137 139 139 139 139 139 139 143 143 143 143 145 146 
146 146 149 150 150 150 150 150 151 151 153 153 153 154 154 
154 155 155 154 154 154 155 155 156 156 156 155 155 156 156 
156 157 157 157 158 158 158 158 158 158 158 158 160 160 160 
160 160 160 160 160 159 159 159 159 158 158 158 157 158 158 
158 158 158 158 158 158 157 157 157 157 157 157 157 157 160 
160 160 160 160 160 160 160 159 159 159 159 159 159 159 159 
160 160 160 160 116 116 116 116 116 116 116 116 116 116 116 
116 116 116 116 116 116 116 116 116 116 116 116 116 116 116 
116 116 116 116 116 116 117 117 117 117 117 117 117 117 118 
118 118 119 119 119 120 120 121 121 121 121 121 121 121 121 
127 124 122 124 123 125 125 126 128 130 127 111 96 92 95 
94 103 136 148 182 184 138 89 99 104 110 105 118 122 128 
118 53 32 56 104 124 139 141 119 128 128 127 142 140 148 
155 124 104 86 96 90 75 66 63 88 130 170 165 198 198 
185 175 148 136 119 100 100 114 96 105 90 90 86 83 102 
117 139 132 133 128 133 133 133 133 133 133 133 133 133 133 
133 133 133 133 133 133 134 134 134 134 134 134 134 134 134 
134 134 134 134 134 134 134 134 134 134 135 135 135 136 136 
137 137 139 138 140 139 139 139 143 142 144 143 145 146 146 
146 150 150 149 150 150 151 151 152 153 153 153 154 154 155 
155 155 155 155 156 156 156 157 157 157 155 155 156 156 157 
157 157 157 158 158 158 158 158 158 158 158 160 160 160 160 
160 160 160 160 161 160 160 160 159 159 159 159 158 158 158 
158 158 158 158 158 158 158 158 158 158 158 158 158 160 160 
160 160 160 160 160 160 160 160 160 160 160 160 160 160 161 
161 161 161 115 115 115 115 115 115 115 115 114 114 114 114 
114 114 114 114 113 113 113 113 113 113 113 113 114 114 114 
115 115 115 116 116 116 116 116 117 117 118 118 118 117 118 
119 119 118 119 120 120 119 119 120 120 120 121 121 121 121 
122 122 122 123 123 123 124 126 122 121 119 118 109 96 88 
100 142 163 159 182 93 97 105 103 101 106 105 113 144 128 
66 46 38 28 109 130 118 128 122 122 114 117 134 143 131 
113 102 85 74 47 47 73 91 121 153 166 181 187 181 182 
178 152 120 114 99 100 99 116 102 101 95 78 91 101 120 
139 134 131 134 133 133 133 133 133 133 133 133 133 133 133 
133 133 133 133 133 133 133 133 133 133 133 133 133 134 134 
134 134 134 134 134 134 135 135 136 136 136 137 137 137 138 
138 139 139 140 142 141 142 144 144 144 146 145 147 147 148 
149 150 150 149 151 151 151 152 153 153 153 153 153 153 155 
155 155 155 156 156 157 158 157 157 157 157 158 158 158 159 
159 159 159 159 159 159 160 161 160 161 160 160 160 160 161 
161 162 162 164 164 163 163 163 162 162 162 159 159 159 159 
159 159 159 159 158 158 158 158 158 158 158 158 160 160 160 
160 160 160 160 160 161 161 161 161 161 161 161 161 162 162 
162 162 114 114 114 114 114 114 114 114 114 114 114 114 114 
114 114 114 113 113 113 113 113 113 113 113 114 115 115 115 
116 116 116 116 116 116 116 116 117 117 117 118 117 117 118 
119 119 118 119 120 119 119 119 120 120 121 121 121 121 121 
122 122 122 123 123 123 127 125 126 127 127 121 112 104 105 
139 155 153 164 89 91 96 99 100 108 107 112 137 129 83 
29 14 8 48 85 130 134 123 113 111 114 121 114 93 70 
59 21 14 3 10 31 51 87 129 159 175 188 184 181 177 
157 134 98 94 108 108 115 98 105 111 80 91 108 126 137 
133 131 133 133 133 133 133 133 133 133 133 133 133 133 133 
133 133 133 133 133 133 133 133 133 133 133 133 134 134 134 
134 134 134 134 134 135 135 135 136 136 136 137 137 138 139 
139 139 140 141 142 141 144 144 144 146 145 147 147 148 149 
150 150 149 151 151 151 152 153 153 153 153 153 153 155 155 
155 155 157 156 157 158 157 157 157 158 158 158 159 159 159 
160 159 159 159 160 161 161 161 161 161 161 161 162 162 162 
163 163 163 163 162 162 162 161 161 161 160 160 160 160 160 
160 160 160 159 159 159 159 159 159 159 159 161 161 161 161 
161 161 161 161 162 162 162 162 162 162 162 162 162 162 162 
162 114 114 114 114 114 114 114 114 114 114 114 114 114 114 
114 114 113 113 113 113 113 113 113 113 114 114 114 115 115 
115 116 116 114 114 114 115 115 115 116 116 116 116 117 118 
118 119 118 118 119 119 119 119 120 120 121 121 121 121 121 
121 121 122 122 122 125 125 126 130 132 130 124 119 117 138 
146 150 144 87 89 90 94 98 108 111 111 131 133 107 54 
23 30 27 29 69 78 112 99 97 90 80 59 38 24 20 
15 8 5 9 16 22 54 102 131 155 177 183 177 168 155 
141 113 99 102 112 126 117 116 115 85 94 116 133 134 129 
131 130 133 133 133 133 133 133 133 133 133 133 133 133 133 
133 133 133 133 133 133 133 133 133 133 133 134 134 134 134 
134 134 134 134 135 135 135 135 136 136 136 137 138 138 138 
140 139 141 142 142 144 144 144 146 145 147 147 148 149 150 
150 149 151 151 151 152 153 153 153 153 153 153 155 155 155 
156 157 156 157 158 158 158 158 158 158 159 159 159 160 160 
159 159 159 160 161 161 161 161 161 161 162 162 162 163 163 
163 163 163 162 162 162 161 161 161 160 160 160 160 160 160 
160 160 160 160 160 160 160 160 160 160 161 161 161 161 161 
161 161 161 162 162 162 162 162 162 162 162 163 163 163 163 
114 114 114 114 114 114 114 114 113 113 113 113 113 113 113 
113 113 113 113 113 113 113 113 113 113 113 113 114 114 114 
115 115 114 114 114 114 114 115 115 115 115 115 116 116 117 
118 118 118 117 117 118 118 118 119 119 119 120 121 121 121 
121 121 121 122 121 121 124 127 128 128 125 122 132 140 140 
146 126 91 91 90 96 95 105 111 113 127 136 125 91 49 
42 32 26 32 10 15 10 24 38 47 54 64 77 85 58 
40 41 41 32 25 43 84 122 147 173 185 181 170 156 146 
108 107 117 127 128 118 120 126 94 101 127 141 130 128 133 
131 133 133 133 133 133 133 133 133 133 133 133 133 133 133 
133 133 133 133 133 133 133 133 133 133 134 134 134 134 134 
134 134 134 134 134 135 135 135 136 136 136 137 138 137 138 
140 141 141 142 144 144 144 146 145 147 147 148 149 150 150 
149 151 151 151 152 153 153 153 153 153 153 155 155 156 156 
156 156 157 157 158 158 158 158 159 159 159 160 160 160 159 
160 160 161 161 161 161 162 162 162 162 162 163 163 164 164 
163 163 162 162 162 161 161 161 160 160 160 160 160 160 160 
160 160 160 160 160 160 160 160 160 162 162 162 162 162 162 
162 162 163 163 163 163 163 163 163 163 163 163 163 163 113 
113 113 113 113 113 113 113 112 112 112 112 112 112 112 112 
112 112 112 112 112 112 112 112 112 112 112 113 113 113 114 
114 112 112 112 113 113 114 114 114 115 114 115 115 116 117 
117 117 117 117 117 118 118 118 119 119 120 120 120 121 121 
122 122 122 122 122 123 125 124 123 122 121 140 136 130 136 
115 97 94 92 98 95 100 107 115 126 134 131 137 112 63 
21 8 22 38 19 15 40 66 79 88 98 102 99 97 71 
78 81 77 75 79 109 159 172 188 194 192 183 169 155 123 
114 107 116 123 127 118 113 104 112 133 140 130 129 133 130 
133 133 133 133 133 133 133 133 133 133 133 133 133 133 133 
133 133 133 133 133 133 133 133 133 134 134 134 134 134 134 
134 134 134 134 134 134 135 135 136 136 136 137 137 138 139 
139 141 141 144 144 144 146 145 147 147 148 149 150 150 149 
151 151 151 152 153 153 153 153 153 153 155 155 155 155 156 
157 156 157 158 158 159 159 159 160 160 160 161 161 160 161 
161 161 161 162 163 163 162 162 163 163 163 164 164 164 163 
163 162 162 162 161 161 161 161 161 161 161 161 161 161 161 
160 160 160 160 160 160 160 160 162 162 162 162 162 162 162 
162 163 163 163 163 163 163 163 163 164 164 164 164 113 113 
113 113 113 113 113 113 110 110 110 110 110 110 110 110 111 
111 111 111 111 111 111 111 110 110 110 111 111 112 112 112 
112 112 113 113 113 114 114 114 114 114 114 114 115 116 116 
116 116 116 117 117 118 118 118 118 120 120 120 120 121 121 
121 122 123 124 127 126 124 121 122 124 138 127 120 121 109 
100 96 93 101 97 97 104 116 124 129 129 120 134 119 113 
83 31 45 19 32 64 94 105 115 130 138 135 129 96 109 
122 128 135 128 145 196 201 201 195 193 189 177 163 162 149 
119 108 105 118 114 110 116 125 135 137 130 129 132 129 133 
133 133 133 133 133 133 133 133 133 133 133 133 133 133 133 
133 133 133 133 133 133 133 133 134 134 134 134 134 134 134 
134 134 134 134 134 134 135 135 135 135 136 136 137 139 139 
139 140 144 144 144 146 145 147 147 148 149 150 150 149 151 
151 151 152 153 153 153 153 153 153 155 155 155 155 156 156 
156 157 158 157 159 159 160 160 160 161 161 161 161 162 161 
161 162 163 163 163 162 162 162 162 163 163 163 164 164 164 
163 163 163 162 162 162 161 161 161 161 161 161 161 161 160 
160 160 160 160 160 160 160 161 161 161 161 161 161 161 161 
163 163 163 163 163 163 163 163 165 165 165 165 112 112 112 
112 112 112 112 112 110 110 110 110 110 110 110 110 110 110 
110 110 110 110 110 110 110 110 110 110 111 111 111 111 111 
112 112 112 113 113 113 113 113 114 114 113 114 114 116 116 
117 117 117 118 118 119 119 119 119 119 120 120 120 121 121 
121 120 123 125 125 123 121 126 129 136 124 117 112 113 107 
101 102 99 100 100 103 112 119 120 123 140 128 113 134 111 
32 33 13 38 78 109 113 118 138 157 161 149 114 132 141 
150 160 144 149 196 205 203 193 190 193 181 165 165 191 187 
165 124 125 121 123 126 136 136 130 131 132 131 129 133 133 
133 133 133 133 133 133 133 133 133 133 133 133 133 133 133 
133 133 133 133 133 133 133 134 134 134 134 134 134 134 134 
134 134 134 134 134 134 135 135 135 135 137 137 138 139 139 
139 144 144 144 146 145 147 147 148 149 150 150 149 151 151 
151 152 153 153 153 153 153 153 155 155 155 155 156 156 156 
157 157 157 159 160 160 160 161 161 161 162 162 161 161 162 
163 163 164 164 162 162 162 163 163 163 164 164 164 164 163 
163 163 162 162 162 162 162 162 162 162 162 162 162 161 161 
161 161 161 161 161 161 162 162 162 162 162 162 162 162 163 
163 163 163 163 163 163 163 164 164 164 164 112 112 112 112 
112 112 112 112 110 110 110 110 110 110 110 110 111 111 111 
111 111 111 111 111 110 110 110 111 111 112 112 112 111 111 
111 112 112 113 113 113 112 112 114 114 114 114 114 115 117 
117 117 118 118 118 119 119 119 119 119 120 120 121 121 121 
114 119 123 124 124 120 126 130 137 125 121 108 122 114 110 
111 95 103 104 103 109 112 114 119 123 134 135 125 82 17 
36 36 18 70 115 124 126 148 171 178 166 130 148 153 158 
170 147 145 179 196 205 197 195 199 189 168 168 195 204 219 
212 207 146 91 132 143 139 127 132 134 129 132 133 133 133 
133 133 133 133 133 133 133 133 133 133 133 133 133 133 133 
133 133 133 133 133 133 134 134 134 134 134 134 134 134 134 
134 134 134 134 134 135 135 135 135 137 138 137 139 140 139 
144 144 144 146 145 147 147 148 149 150 150 149 151 151 151 
152 153 153 153 153 153 153 155 155 155 155 157 156 156 158 
157 157 160 160 160 161 161 161 162 162 161 161 161 162 163 
164 164 164 163 163 164 164 164 165 165 165 164 164 163 163 
163 162 162 162 162 162 162 162 162 162 162 162 161 161 161 
161 161 161 161 161 163 163 163 163 163 163 163 163 164 164 
164 164 164 164 164 164 164 164 164 164 111 111 111 110 110 
110 109 109 110 110 110 110 110 110 110 110 109 109 109 109 
109 109 109 109 109 109 110 110 110 111 111 111 110 110 111 
111 112 112 112 112 112 112 112 112 112 112 112 112 114 114 
114 114 114 115 116 116 116 116 116 118 118 119 119 118 119 
120 123 127 123 119 127 139 133 130 126 120 116 114 113 113 
108 106 107 104 104 103 103 101 107 132 149 130 81 34 11 
7 5 72 138 128 136 141 162 196 171 142 152 141 163 181 
172 144 151 204 207 198 205 202 191 177 172 197 205 215 212 
220 186 59 82 134 137 126 133 134 124 137 129 129 129 129 
129 129 129 129 131 131 131 131 131 131 131 131 133 133 133 
133 133 133 133 133 133 133 133 133 133 133 133 133 134 134 
134 134 134 134 134 134 134 134 134 135 135 135 136 136 140 
140 140 142 142 145 144 146 146 147 147 149 150 151 150 151 
152 152 152 152 153 155 156 156 155 155 156 157 157 157 157 
158 160 160 160 160 161 161 162 162 162 162 162 163 163 163 
164 164 163 163 163 164 164 165 165 165 163 163 163 163 162 
162 161 161 161 161 161 161 161 161 161 161 161 161 161 162 
162 162 163 163 161 161 161 162 162 162 163 163 164 164 164 
164 164 164 164 164 164 164 164 164 111 111 110 110 110 109 
109 109 110 110 110 110 110 110 110 110 109 109 109 109 109 
109 109 109 109 109 109 110 110 110 111 111 110 110 110 111 
111 112 112 112 112 112 112 112 112 112 112 112 113 113 114 
114 114 114 115 115 116 116 116 116 118 118 119 119 119 119 
123 125 122 120 128 140 134 131 127 121 117 115 114 114 111 
111 107 104 103 103 103 102 112 128 140 136 113 83 58 47 
26 55 139 128 133 129 173 175 165 143 148 139 158 189 180 
152 150 199 204 199 207 206 199 186 179 201 203 213 216 223 
200 104 59 96 126 134 137 134 130 130 129 129 129 129 129 
129 129 129 131 131 131 131 131 131 131 131 133 133 133 133 
133 133 133 133 133 133 133 133 133 133 133 133 134 134 134 
134 134 134 134 134 134 134 134 135 135 135 136 136 138 140 
141 142 142 144 144 146 147 147 147 149 149 150 151 150 152 
152 153 152 153 154 156 156 155 155 156 157 157 157 157 158 
160 160 160 160 161 161 162 162 162 162 162 163 163 163 164 
164 163 163 163 164 164 165 165 165 163 163 163 163 162 162 
161 161 161 161 161 161 161 161 161 161 161 161 161 162 162 
162 163 163 161 161 161 162 162 162 163 163 164 164 164 164 
164 164 164 164 164 164 164 164 111 110 110 110 109 109 109 
109 108 108 108 108 108 108 108 108 107 107 107 107 107 107 
107 107 107 107 108 108 108 109 109 109 109 109 110 110 110 
111 111 111 111 111 111 111 111 111 111 111 112 112 113 113 
114 114 114 115 116 115 115 116 117 118 118 118 118 119 122 
124 121 120 128 141 136 133 129 123 119 117 116 116 118 116 
110 106 102 101 102 104 105 124 144 147 134 115 105 102 76 
58 108 139 157 136 155 184 171 153 138 128 140 183 187 174 
152 194 201 201 210 211 208 197 188 206 203 213 220 223 215 
162 87 73 94 129 135 134 137 131 129 129 129 129 129 129 
129 129 131 131 131 131 131 131 131 131 133 133 133 133 133 
133 133 133 133 133 133 133 133 133 133 133 134 134 134 134 
134 134 134 134 134 134 134 135 135 135 136 136 138 138 140 
140 142 144 144 145 147 147 147 148 149 149 151 151 152 152 
153 152 153 154 155 156 155 155 156 157 157 157 157 158 160 
160 160 160 161 161 162 162 162 162 162 163 163 163 164 164 
163 163 163 164 164 165 165 165 163 163 163 163 162 162 161 
161 161 161 161 161 161 161 161 161 161 161 161 162 162 162 
163 163 161 161 161 162 162 162 163 163 164 164 164 164 164 
164 164 164 164 164 164 164 110 110 110 109 109 109 108 108 
107 107 107 107 107 107 107 107 107 107 107 107 107 107 107 
107 107 107 107 107 107 108 108 108 108 108 109 109 110 110 
110 110 110 110 110 110 110 110 110 110 111 111 111 113 113 
113 114 114 115 115 116 116 115 117 117 117 117 118 120 122 
119 118 130 142 139 135 131 126 122 120 119 119 124 121 114 
109 105 103 104 104 101 120 137 144 136 126 123 125 107 97 
72 124 163 164 131 197 185 171 144 140 137 167 172 178 162 
194 200 205 214 213 214 204 195 209 205 215 224 220 221 204 
152 88 63 98 129 138 136 133 129 129 129 129 129 129 129 
129 131 131 131 131 131 131 131 131 133 133 133 133 133 133 
133 133 133 133 133 133 133 133 133 133 134 134 134 134 134 
134 134 134 134 134 134 135 135 135 136 136 138 137 138 140 
140 142 143 144 146 146 147 147 148 150 149 151 152 152 153 
153 153 154 155 155 155 155 156 157 157 157 157 158 160 160 
160 160 161 161 162 162 162 162 162 163 163 163 164 164 163 
163 163 164 164 165 165 165 163 163 163 163 162 162 161 161 
162 162 162 162 162 162 162 162 161 161 161 162 162 162 163 
163 161 161 161 162 162 162 163 163 164 164 164 164 164 164 
164 164 164 164 164 164 109 109 108 108 107 107 107 107 106 
106 106 106 106 106 106 106 105 105 105 105 105 105 105 105 
105 105 106 106 106 107 107 107 107 107 107 107 108 108 108 
108 109 109 109 109 109 109 109 109 111 111 110 111 112 112 
113 113 114 114 114 114 114 116 116 115 116 115 119 120 118 
118 131 145 141 138 134 129 125 122 122 122 126 123 118 112 
108 107 106 106 109 110 117 126 133 133 127 118 116 132 90 
101 135 183 153 190 176 173 157 165 150 149 148 162 177 200 
203 210 215 213 216 207 201 212 210 217 225 217 217 220 187 
134 71 63 107 135 130 125 129 129 129 129 129 129 129 129 
131 131 131 131 131 131 131 131 133 133 133 133 133 133 133 
133 133 133 133 133 133 133 133 133 134 134 134 134 134 134 
134 134 134 134 134 135 135 135 136 136 136 136 138 139 140 
141 142 142 146 146 147 148 147 148 150 150 151 151 153 153 
154 154 155 155 155 155 156 157 157 157 157 158 160 160 160 
160 161 161 162 162 162 162 162 163 163 163 164 164 163 163 
163 164 164 165 165 165 163 163 163 163 162 162 161 161 162 
162 162 162 162 162 162 162 161 161 161 162 162 162 163 163 
161 161 161 162 162 162 163 163 164 164 164 164 164 164 164 
164 164 164 164 164 108 108 108 107 107 107 107 107 106 106 
106 106 106 106 106 106 105 105 105 105 105 105 105 105 105 
105 106 106 107 107 107 107 106 107 107 107 107 107 107 108 
108 108 108 108 108 108 108 108 110 110 110 110 110 111 112 
112 113 113 114 113 113 114 115 115 116 114 117 118 116 119 
132 148 144 141 137 132 127 125 124 124 122 122 121 119 114 
111 109 107 106 108 112 119 125 129 129 127 127 118 121 108 
113 150 169 173 152 156 144 154 149 140 149 168 191 203 206 
215 217 213 218 209 207 213 216 220 225 218 214 216 195 181 
114 50 61 106 127 128 129 129 129 129 129 129 129 129 131 
131 131 131 131 131 131 131 133 133 133 133 133 133 133 133 
133 133 133 133 133 133 133 133 134 134 134 134 134 134 134 
134 134 134 134 135 135 135 136 136 136 136 137 138 140 140 
142 141 145 146 146 147 148 148 148 150 152 151 152 153 154 
155 155 155 155 155 156 157 157 157 157 158 160 160 160 160 
161 161 162 162 162 162 162 163 163 163 164 164 163 163 163 
164 164 165 165 165 163 163 163 163 162 162 161 161 162 162 
162 162 162 162 162 162 161 161 161 162 162 162 163 163 161 
161 161 162 162 162 163 163 164 164 164 164 164 164 164 164 
164 164 164 164 108 108 107 107 107 106 106 106 106 106 106 
106 106 106 106 106 105 105 105 105 105 105 105 105 105 105 
105 105 106 106 107 107 105 105 105 106 106 106 107 107 107 
107 107 107 107 107 107 107 109 109 110 110 110 111 111 111 
112 112 112 112 114 113 113 114 114 115 115 117 115 119 133 
150 146 143 139 134 130 127 126 126 118 121 123 123 121 116 
112 108 101 111 119 120 118 120 129 140 138 110 129 128 122 
127 146 156 155 162 143 137 148 148 171 185 200 204 206 218 
219 215 221 213 212 214 220 221 223 225 218 211 202 203 165 
87 40 68 114 133 129 129 129 129 129 129 129 129 131 131 
131 131 131 131 131 131 133 133 133 133 133 133 133 133 133 
133 133 133 133 133 133 133 134 134 134 134 134 134 134 134 
134 134 134 135 135 135 136 136 135 136 137 138 139 139 140 
141 144 145 146 147 147 148 148 148 152 152 152 152 154 155 
156 156 155 155 156 157 157 157 157 158 160 160 160 160 161 
161 162 162 162 162 162 163 163 163 164 164 163 163 163 164 
164 165 165 165 163 163 163 163 162 162 161 161 163 163 163 
163 163 163 163 163 161 161 161 162 162 162 163 163 161 161 
161 162 162 162 163 163 164 164 164 164 164 164 164 164 164 
164 164 164 108 108 107 107 106 106 106 106 105 105 105 105 
105 105 105 105 104 104 104 104 104 104 104 104 104 104 105 
105 106 106 106 106 105 105 105 105 106 106 106 106 107 107 
107 107 107 107 107 107 109 109 109 110 110 110 111 111 111 
111 112 112 113 113 113 113 114 113 114 116 115 119 134 150 
147 144 140 135 131 128 128 127 115 118 124 126 126 121 114 
109 113 112 111 114 120 126 130 133 148 157 147 151 153 165 
138 155 182 193 172 149 169 167 188 183 201 203 205 219 221 
217 225 218 217 214 222 221 222 231 223 207 209 199 200 148 
57 43 95 122 129 129 129 129 129 129 129 129 131 131 131 
131 131 131 131 131 133 133 133 133 133 133 133 133 133 133 
133 133 133 133 133 133 134 134 134 134 134 134 134 134 134 
134 134 135 135 135 136 136 134 135 136 137 138 139 140 140 
145 144 146 147 147 148 148 148 152 152 153 152 154 155 156 
156 155 155 156 157 157 157 157 158 160 160 160 160 161 161 
162 162 162 162 162 163 163 163 164 164 163 163 163 164 164 
165 165 165 163 163 163 163 162 162 161 161 163 163 163 163 
163 163 163 163 161 161 161 162 162 162 163 163 161 161 161 
162 162 162 163 163 164 164 164 164 164 164 164 164 164 164 
164 164 107 107 106 106 106 105 105 105 105 105 105 105 105 
105 105 105 103 103 103 103 103 103 103 103 103 103 103 103 
103 103 103 103 105 105 105 105 105 105 105 105 105 106 106 
107 106 106 107 107 107 107 107 108 108 109 109 109 109 109 
110 110 110 111 111 111 113 106 112 115 109 119 139 144 141 
140 138 136 133 131 129 128 127 126 125 124 123 122 121 120 
122 122 123 125 130 136 141 146 155 160 171 180 187 189 188 
188 169 175 173 166 168 182 194 198 201 205 211 217 221 222 
222 222 220 221 222 223 224 222 219 217 212 189 200 191 114 
50 62 109 130 129 131 129 127 128 127 132 128 128 129 129 
129 130 130 130 131 132 132 132 133 133 133 134 133 133 133 
133 133 133 133 133 133 133 133 133 133 133 133 133 134 134 
134 134 134 134 135 135 137 137 137 139 139 139 141 141 142 
142 142 144 144 147 146 148 152 152 152 151 153 153 154 154 
153 153 154 156 156 156 157 158 157 158 159 160 160 161 161 
162 163 163 164 164 164 165 165 165 164 164 164 164 164 164 
164 164 164 164 164 164 164 162 162 163 162 162 162 162 162 
162 162 162 162 162 162 163 163 163 164 164 164 164 165 165 
165 166 166 166 165 165 165 165 165 165 165 165 164 164 164 
164 106 106 106 106 105 105 105 104 104 104 104 104 104 104 
104 104 103 103 103 103 103 103 103 103 103 103 103 103 103 
103 103 103 104 104 104 104 104 104 104 104 104 104 106 106 
107 106 106 106 106 107 107 107 108 108 108 109 109 109 109 
110 110 110 111 111 111 107 113 113 108 122 140 143 144 143 
141 139 137 134 133 132 129 129 128 127 125 124 123 123 122 
123 125 129 135 142 150 154 164 170 178 188 194 196 196 196 
192 196 196 192 190 193 198 201 203 207 212 218 221 222 222 
222 220 221 222 223 223 222 218 216 212 209 172 210 136 84 
49 71 118 132 131 130 131 129 130 130 128 128 129 129 129 
130 130 130 131 132 132 132 133 133 133 134 133 133 133 133 
133 133 133 133 133 133 133 133 133 133 133 133 134 134 134 
134 134 134 135 135 137 137 137 139 139 139 141 141 142 142 
142 144 145 147 147 148 152 152 151 152 153 153 154 154 153 
153 154 156 157 156 157 158 158 158 160 160 160 161 161 162 
163 163 164 164 164 165 165 165 164 164 164 164 164 164 164 
164 164 164 165 163 164 163 162 162 162 162 162 162 162 162 
162 162 162 162 163 163 163 164 164 164 164 164 165 165 165 
166 166 166 165 165 165 165 165 165 165 165 165 165 165 165 
106 106 105 105 105 104 104 104 104 104 104 104 104 104 104 
104 102 102 102 102 102 102 102 102 101 101 101 101 101 101 
101 101 104 104 104 104 104 104 104 104 103 103 104 105 106 
106 105 105 105 106 106 106 106 106 106 106 107 107 107 107 
108 108 109 109 108 109 113 109 109 126 143 141 146 145 144 
142 140 138 136 136 130 130 129 128 127 125 124 124 126 127 
132 137 146 156 164 169 174 179 186 194 200 204 203 202 191 
192 193 193 191 188 193 199 208 211 215 218 221 222 222 222 
218 220 222 222 222 221 217 215 207 220 157 207 167 111 44 
42 96 135 131 131 135 130 132 128 128 128 129 129 129 130 
130 130 131 132 132 132 133 133 133 134 133 133 133 133 133 
133 133 133 133 133 133 133 133 133 133 133 134 134 134 134 
134 134 135 135 137 137 137 139 139 139 141 141 142 143 143 
145 145 147 147 148 152 151 152 153 153 154 153 153 153 154 
154 156 157 157 157 159 158 158 160 161 160 161 162 162 163 
163 164 164 164 165 165 165 165 165 165 165 165 165 165 165 
164 164 164 164 164 164 163 162 162 162 162 162 162 162 162 
162 162 163 163 163 164 164 164 164 164 164 165 165 165 166 
166 166 165 165 165 165 165 165 165 165 166 166 166 166 106 
106 105 105 105 104 104 104 103 103 103 103 103 103 103 103 
101 101 101 101 101 101 101 101 100 100 100 100 100 100 100 
100 103 103 103 103 103 103 103 103 103 103 102 103 104 105 
105 104 104 104 105 105 105 106 106 106 105 105 106 106 107 
107 107 107 105 111 112 108 111 130 142 139 144 144 143 141 
140 138 137 137 131 131 130 129 128 127 126 125 132 133 138 
146 156 168 176 182 177 181 188 195 199 202 203 203 196 191 
189 192 190 189 198 210 213 214 215 218 220 221 222 222 217 
219 220 221 221 219 216 214 201 211 170 175 192 122 53 37 
70 128 134 135 136 127 134 129 128 128 129 129 129 130 130 
130 131 132 132 132 133 133 133 134 133 133 133 133 133 133 
133 133 133 133 133 133 133 133 133 133 134 134 134 134 134 
134 135 135 137 137 137 139 139 139 141 141 143 143 143 145 
145 148 147 149 152 152 153 153 154 153 154 154 154 154 155 
157 157 157 158 159 158 159 160 161 161 162 162 163 163 163 
164 164 164 165 165 165 165 165 165 165 165 165 165 165 165 
165 164 165 164 164 164 163 163 163 163 163 163 163 163 163 
163 163 163 164 164 164 165 165 164 164 165 165 165 166 166 
166 165 165 165 165 165 165 165 165 165 165 165 165 105 105 
104 104 104 103 103 103 101 101 101 101 101 101 101 101 100 
100 100 100 100 100 100 100 101 101 101 101 101 101 101 101 
101 101 101 101 101 101 101 101 101 102 102 101 103 103 103 
104 103 103 103 103 104 104 105 105 104 104 104 105 105 105 
106 106 102 111 110 106 115 134 141 139 141 140 140 139 138 
137 136 136 131 130 129 128 127 126 125 124 132 135 139 147 
158 168 177 183 176 178 182 188 194 196 197 198 203 199 198 
201 198 194 201 212 215 215 215 215 215 218 219 219 215 217 
219 219 220 218 214 213 205 201 186 146 198 144 64 38 47 
106 131 137 133 126 133 130 128 128 129 129 129 130 130 130 
131 132 132 132 133 133 133 134 133 133 133 133 133 133 133 
133 133 133 133 133 133 133 133 133 134 134 134 134 134 134 
135 135 137 137 137 139 139 139 141 141 143 144 143 146 146 
148 148 149 153 153 154 154 153 154 154 154 154 155 155 157 
158 158 158 160 159 159 161 162 161 162 163 163 163 163 164 
164 164 165 165 165 166 166 166 166 166 166 166 166 165 165 
165 166 165 165 164 163 163 163 163 163 163 163 163 163 163 
163 164 164 165 165 165 165 164 164 165 165 165 166 166 166 
167 167 167 167 167 167 167 167 166 166 166 166 104 104 104 
103 103 102 102 102 100 100 100 100 100 100 100 100 100 100 
100 100 100 100 100 100 100 100 100 100 100 100 100 100 100 
100 100 100 100 100 100 100 100 100 101 101 100 102 102 102 
100 100 101 101 102 102 102 102 104 104 104 104 105 105 105 
106 101 108 107 106 121 136 139 140 139 139 139 138 138 137 
137 137 134 134 133 132 131 129 129 128 130 132 137 144 151 
161 170 175 174 176 180 184 188 193 195 195 196 199 203 207 
204 202 205 209 217 215 214 212 212 212 214 215 214 215 218 
218 218 216 213 211 215 206 190 141 192 180 83 36 34 75 
121 135 130 127 130 131 128 128 129 129 129 130 130 130 131 
132 132 132 133 133 133 134 133 133 133 133 133 133 133 133 
133 133 133 133 133 133 133 133 134 134 134 134 134 134 135 
135 137 137 137 139 139 139 141 141 144 144 144 146 146 148 
148 150 154 154 154 153 154 154 154 156 155 155 156 158 158 
158 159 160 159 160 161 162 162 163 163 164 163 163 164 164 
164 165 165 165 166 166 166 166 166 166 166 166 166 166 165 
166 166 164 165 165 164 164 164 164 164 164 164 164 164 164 
164 165 165 165 166 166 164 164 165 165 165 166 166 166 167 
167 167 167 167 167 167 167 166 166 166 166 102 102 102 102 
101 101 100 100 100 100 100 100 100 100 100 100 99 99 99 
99 99 99 99 99 99 99 99 99 99 99 99 99 100 100 
100 100 100 100 100 100 98 99 100 100 100 100 101 101 100 
100 101 101 101 102 102 102 101 102 102 102 103 103 103 104 
101 107 104 106 126 136 136 142 141 141 141 141 141 141 141 
141 142 142 141 140 139 137 137 136 136 137 140 144 151 158 
165 168 179 181 183 186 190 194 197 198 201 208 214 214 213 
213 214 214 215 214 211 207 207 207 208 210 213 215 217 217 
217 215 212 210 220 218 194 145 186 198 123 51 34 42 105 
131 128 133 126 131 128 128 129 129 129 130 130 130 131 132 
132 132 133 133 133 134 133 133 133 133 133 133 133 133 133 
133 133 133 133 133 133 133 134 134 134 134 134 134 135 135 
137 137 137 139 139 139 141 141 144 144 144 146 147 149 149 
150 154 154 154 154 154 154 156 156 155 156 156 158 159 158 
159 160 160 160 162 162 162 163 164 164 163 163 164 164 164 
165 165 165 166 166 166 166 166 166 166 166 167 167 166 165 
166 165 164 165 164 164 164 164 164 164 164 164 164 164 165 
165 165 166 166 166 164 164 165 165 165 166 166 166 167 167 
167 167 167 167 167 167 166 166 166 166 102 102 102 101 101 
100 100 100 100 100 100 100 100 100 100 100 99 99 99 99 
99 99 99 99 99 99 99 99 99 99 99 99 100 100 100 
100 100 100 100 100 98 98 99 99 100 100 100 101 100 100 
100 101 101 101 102 102 101 101 101 102 102 103 103 103 100 
106 102 108 130 135 135 144 144 144 144 144 144 144 145 145 
148 148 147 146 145 143 143 142 146 146 147 149 154 161 165 
169 186 187 189 191 194 199 202 204 215 221 221 212 206 209 
210 208 215 213 208 205 203 203 206 207 213 214 215 216 217 
215 211 210 217 224 201 141 187 195 162 71 37 24 91 127 
128 140 125 130 128 128 129 129 129 130 130 130 131 132 132 
132 133 133 133 134 133 133 133 133 133 133 133 133 133 133 
133 133 133 133 133 133 134 134 134 134 134 134 135 135 137 
137 137 139 139 139 141 141 144 145 144 147 147 149 149 150 
154 154 154 154 154 156 156 156 155 156 156 158 159 159 159 
161 160 160 162 163 162 163 164 164 163 163 164 164 164 165 
165 165 166 166 166 166 166 166 166 166 167 167 166 166 166 
165 164 165 164 164 164 164 164 164 164 164 164 164 165 165 
166 166 166 166 164 164 165 165 165 166 166 166 167 167 167 
167 167 167 167 167 166 166 166 166 101 101 101 100 99 99 
98 98 99 99 99 98 98 97 97 97 97 97 97 97 97 
97 97 97 97 97 97 97 97 97 97 97 98 98 98 98 
98 98 98 98 97 97 97 97 97 97 97 97 98 98 98 
98 98 98 98 98 99 99 99 99 99 99 99 99 101 100 
98 97 134 136 137 139 146 148 150 147 144 141 144 145 146 
152 152 146 143 148 152 153 150 156 154 152 159 165 173 186 
186 196 204 204 206 211 214 213 213 215 217 218 216 213 210 
207 207 206 204 203 204 206 209 211 202 204 209 213 216 217 
217 217 212 212 202 185 186 193 154 90 46 38 56 126 119 
123 132 127 129 129 129 129 129 129 129 129 130 130 131 131 
132 132 132 132 133 133 133 133 133 133 133 133 132 132 132 
132 133 133 134 134 134 134 134 134 134 134 135 135 136 136 
137 138 139 140 142 142 144 144 144 145 145 146 148 148 151 
152 152 153 153 154 155 156 156 157 157 158 160 161 160 161 
162 162 163 163 164 165 166 166 165 164 165 165 165 166 166 
167 166 166 166 166 166 166 166 166 168 168 168 167 166 167 
166 166 164 164 164 164 164 164 164 164 166 166 165 165 166 
166 166 166 166 166 166 166 166 166 166 166 167 167 167 167 
167 167 167 167 170 170 170 171 101 101 100 100 99 98 98 
98 99 98 98 98 97 97 97 97 96 96 96 96 96 96 
96 96 96 96 96 96 96 96 96 96 97 97 97 97 97 
97 97 97 97 97 97 97 97 97 97 97 98 98 98 98 
98 98 98 98 98 98 98 98 98 98 98 98 100 99 98 
96 133 136 137 138 141 144 147 146 144 144 147 151 149 154 
155 148 146 151 155 156 159 165 163 162 168 174 181 193 194 
203 210 209 208 211 213 212 211 213 215 216 215 213 210 208 
208 208 207 206 205 203 202 201 199 202 207 211 215 217 217 
217 208 208 209 203 200 195 162 116 59 37 42 103 127 132 
136 122 129 129 129 129 129 129 129 129 130 130 131 131 132 
132 132 132 133 133 133 133 133 133 133 133 132 132 132 132 
133 133 134 134 134 134 134 134 134 134 135 135 136 136 137 
138 139 140 142 141 144 144 145 146 146 147 148 148 152 152 
152 154 153 154 155 156 156 157 157 158 160 161 160 161 162 
162 163 163 164 165 166 166 165 164 165 165 166 166 166 167 
166 166 166 166 166 166 166 166 169 168 168 168 166 167 167 
166 164 164 164 164 164 164 164 164 166 166 165 165 166 166 
166 166 166 166 166 166 166 166 166 166 168 168 168 168 168 
168 168 168 170 170 170 171 100 100 100 99 99 98 99 98 
99 99 98 98 98 97 97 97 97 97 97 97 97 97 97 
97 96 96 96 96 96 96 96 96 96 96 96 96 96 96 
96 96 96 96 96 96 96 96 96 96 97 97 97 97 97 
97 97 97 98 98 98 98 98 98 98 98 100 99 95 94 
132 135 135 137 134 138 143 145 145 148 152 156 152 157 157 
150 149 154 158 159 166 172 171 170 176 181 187 198 203 211 
217 214 212 214 214 212 209 211 212 213 214 213 211 210 207 
208 208 207 204 199 194 190 195 199 204 209 214 216 217 217 
215 206 207 211 205 185 148 108 63 36 35 79 130 136 138 
123 129 129 129 129 129 129 129 129 130 130 131 131 132 132 
132 132 133 133 133 133 133 133 133 133 132 132 132 132 133 
133 134 134 134 134 134 134 134 134 135 135 136 136 137 139 
139 140 142 142 145 144 146 145 146 148 148 148 152 152 152 
153 154 154 155 156 156 157 157 158 160 161 160 161 162 162 
163 163 164 165 166 166 166 165 165 165 166 166 167 168 167 
167 167 167 167 167 167 167 169 169 168 168 167 167 167 167 
164 164 164 164 164 164 164 164 166 166 165 165 166 166 166 
166 166 166 166 166 166 166 166 166 168 168 168 168 168 168 
168 168 170 170 170 171 100 100 99 99 98 98 98 98 98 
98 98 97 97 96 96 96 96 96 96 96 96 96 96 96 
95 95 95 95 95 95 95 95 95 95 95 95 95 95 95 
95 94 94 94 94 94 94 94 94 94 94 94 94 94 94 
94 94 95 95 95 95 95 95 95 95 98 97 95 93 130 
132 134 136 128 133 139 144 146 150 156 162 157 161 160 152 
151 156 161 164 167 174 173 172 178 181 186 197 206 214 219 
217 215 217 218 216 208 209 210 210 211 211 210 210 205 205 
204 203 200 196 192 190 194 197 203 208 213 215 217 217 223 
207 203 208 206 185 136 85 55 37 43 63 128 131 134 133 
129 129 129 129 129 129 129 129 130 130 131 131 132 132 132 
132 133 133 133 133 133 133 133 133 132 132 132 132 133 133 
134 134 134 134 134 134 134 134 135 135 136 136 137 139 141 
142 142 142 145 145 146 146 148 148 149 149 152 152 153 153 
155 155 157 156 156 157 157 158 160 161 160 161 162 162 163 
163 164 165 166 166 166 165 166 166 166 167 167 168 167 167 
167 167 167 167 167 167 169 169 169 168 167 168 167 167 165 
165 165 165 165 165 165 165 166 166 165 165 166 166 166 166 
166 166 166 166 166 166 166 166 168 168 168 168 168 168 168 
168 170 170 170 171 99 99 99 98 98 98 98 97 96 96 
96 95 95 94 94 94 94 94 94 94 94 94 94 94 93 
93 93 93 93 93 93 93 94 94 94 94 94 94 94 94 
93 93 93 93 93 93 93 93 92 92 92 92 92 92 92 
92 93 93 93 93 93 93 93 93 96 95 93 92 128 130 
131 133 126 132 138 142 146 151 156 162 159 163 161 153 151 
156 163 166 166 174 174 173 178 180 183 193 201 210 216 215 
214 217 219 217 205 205 204 203 203 203 204 204 200 199 197 
195 194 195 196 197 196 199 204 210 214 216 216 216 217 211 
210 209 210 199 150 92 48 36 46 54 123 127 132 132 129 
129 129 129 129 129 129 129 130 130 131 131 132 132 132 132 
133 133 133 133 133 133 133 133 132 132 132 132 133 133 134 
134 134 134 134 134 134 134 135 135 137 138 138 139 141 142 
142 144 147 147 147 147 148 149 150 151 152 152 154 154 155 
156 156 156 156 157 157 158 160 161 160 161 162 162 163 163 
164 165 166 166 167 166 166 166 167 167 168 169 168 168 168 
168 168 168 168 168 170 170 169 169 168 168 168 168 165 165 
165 165 165 165 165 165 166 166 165 165 166 166 166 166 166 
166 166 166 166 166 166 166 169 169 169 169 169 169 169 169 
170 170 170 171 99 99 98 98 98 97 97 96 95 95 95 
94 94 94 93 93 93 93 93 93 93 93 93 93 92 92 
92 92 92 92 92 92 92 92 92 92 92 92 92 92 92 
92 92 92 92 92 92 92 92 92 92 92 92 92 92 92 
91 91 91 91 91 91 91 91 93 93 91 90 125 128 130 
131 129 134 139 143 144 149 155 160 160 163 161 152 148 155 
164 167 171 179 180 179 184 185 187 196 198 207 213 212 211 
214 215 215 205 203 200 198 196 196 196 197 194 192 190 190 
191 194 198 201 202 205 209 213 215 216 216 216 207 215 220 
212 207 200 160 104 55 34 41 44 113 127 129 125 129 129 
129 129 129 129 129 129 130 130 131 131 132 132 132 132 133 
133 133 133 133 133 133 133 132 132 132 132 133 133 134 134 
134 134 134 134 134 134 135 135 138 138 139 139 142 142 143 
144 148 148 147 149 149 150 151 152 153 154 155 155 155 157 
156 157 156 157 157 158 160 161 160 161 162 162 163 163 164 
165 166 166 167 166 166 167 167 168 168 169 168 168 168 168 
168 168 168 168 170 170 170 169 168 169 168 168 166 166 166 
166 166 166 166 166 166 166 165 165 166 166 166 166 166 166 
166 166 166 166 166 166 169 169 169 169 169 169 169 169 170 
170 170 171 98 98 97 98 98 97 96 96 95 95 95 95 
94 94 94 93 93 93 93 93 93 93 93 93 91 91 91 
91 91 91 91 91 91 91 91 91 91 91 91 91 90 90 
90 90 90 90 90 90 89 89 89 89 89 89 89 89 89 
89 89 89 89 89 89 89 93 91 90 87 124 128 129 131 
133 136 142 144 144 146 151 154 160 162 159 149 147 153 163 
167 173 182 183 183 187 187 188 196 197 205 210 207 205 207 
207 205 203 201 196 192 189 188 188 188 188 188 189 190 192 
194 196 197 209 211 214 217 218 217 216 215 209 214 218 210 
203 196 156 103 64 37 38 38 98 127 129 127 129 129 129 
129 129 129 129 129 130 130 131 131 132 132 132 132 133 133 
133 133 133 133 133 133 132 132 132 132 133 133 134 134 134 
134 134 134 134 134 135 135 138 139 139 140 141 142 144 145 
148 149 148 150 150 150 152 152 153 154 155 156 155 156 158 
157 156 157 157 158 160 161 160 161 162 162 163 163 164 165 
166 166 167 167 167 167 168 168 168 169 169 169 169 169 169 
169 169 169 171 170 170 170 168 169 169 168 166 166 166 166 
166 166 166 166 166 166 165 165 166 166 166 166 166 166 166 
166 166 166 166 166 170 170 170 170 170 170 170 170 170 170 
170 171 98 97 98 98 97 96 96 95 95 95 95 94 94 
93 93 93 93 93 93 93 93 93 93 93 91 91 91 91 
91 91 91 91 91 91 91 91 91 91 91 91 90 90 90 
90 90 90 90 90 88 88 88 88 88 88 88 88 88 88 
88 88 88 88 88 88 91 91 90 87 123 127 128 129 136 
140 144 144 143 143 147 151 159 162 157 148 145 152 162 166 
171 180 181 181 185 184 185 192 198 206 208 205 201 201 200 
197 202 198 193 187 183 181 181 182 185 187 190 193 194 193 
192 190 214 215 218 219 219 218 216 214 218 210 207 207 210 
202 159 104 65 39 42 37 84 119 129 133 129 129 129 129 
129 129 129 129 130 130 131 131 132 132 132 132 133 133 133 
133 133 133 133 133 132 132 132 132 133 133 134 134 134 134 
134 134 134 134 135 135 138 139 139 140 141 142 144 145 149 
149 150 150 150 152 152 153 153 154 155 155 156 156 158 158 
156 157 157 158 160 161 160 161 162 162 163 163 164 165 166 
166 168 167 167 167 168 168 168 170 169 169 169 169 169 169 
169 169 171 171 170 170 169 169 169 169 166 166 166 166 166 
166 166 166 166 166 165 165 166 166 166 166 166 166 166 166 
166 166 166 166 170 170 170 170 170 170 170 170 170 170 170 
171 98 98 98 97 95 96 94 94 93 93 93 92 92 92 
91 91 90 90 90 90 90 90 90 90 90 90 90 89 89 
89 89 89 90 90 90 90 90 90 90 90 90 90 89 89 
89 88 88 88 88 88 87 87 87 87 87 87 87 86 86 
86 85 85 85 84 86 82 87 80 123 134 134 137 140 139 
138 137 139 142 146 149 158 163 157 141 131 138 151 158 170 
168 169 175 184 188 182 176 207 204 199 195 195 197 200 203 
211 205 197 190 185 183 184 186 187 188 189 192 197 203 207 
211 215 216 217 217 218 218 218 218 212 215 211 213 209 204 
177 112 74 45 32 39 61 130 134 133 128 128 128 128 128 
128 128 128 128 128 129 129 129 130 130 130 131 131 131 131 
131 131 131 131 133 133 133 133 134 134 135 135 134 134 134 
135 135 135 136 136 137 139 139 141 142 145 146 146 150 150 
149 150 152 152 153 154 155 155 156 156 157 157 159 159 159 
159 160 160 160 160 161 161 163 163 162 163 164 164 165 165 
165 165 166 166 167 168 167 167 169 169 169 169 169 169 169 
169 170 170 169 169 168 168 168 168 164 165 164 165 165 164 
165 164 166 166 166 166 166 166 166 166 166 167 167 167 169 
169 168 169 170 170 170 170 170 170 170 170 172 172 172 172 
98 98 97 97 96 95 94 93 93 93 92 92 92 91 91 
91 90 90 90 90 90 90 90 90 90 89 89 89 89 89 
89 89 89 89 89 89 89 89 89 89 88 88 88 88 87 
87 86 86 88 88 88 87 87 87 86 86 85 85 85 84 
84 83 83 83 84 81 86 79 119 133 135 137 137 138 138 
137 136 139 143 147 152 162 163 154 145 146 151 154 166 171 
174 176 180 186 188 186 197 197 198 200 201 202 202 203 202 
200 197 194 191 190 190 191 194 192 191 192 197 200 199 199 
209 212 216 220 221 220 219 217 213 215 212 213 209 204 177 
112 72 41 33 33 63 127 122 128 128 128 128 128 128 128 
128 128 128 128 129 129 129 130 130 130 131 131 131 131 131 
131 131 131 133 133 133 133 134 134 135 135 134 134 134 135 
135 135 136 136 138 139 139 141 143 144 145 146 150 150 149 
150 152 152 153 154 155 155 155 156 157 157 159 159 159 159 
160 160 160 160 161 161 163 163 163 163 164 165 165 165 165 
166 166 166 168 168 167 168 169 169 169 169 169 169 169 169 
170 170 169 169 168 168 168 168 164 165 164 165 165 164 165 
164 166 166 166 166 166 166 166 166 166 167 167 167 169 169 
168 169 170 170 170 170 170 170 170 170 172 172 172 172 98 
97 97 96 95 93 93 94 92 91 91 91 90 90 90 90 
90 90 90 90 90 90 90 90 90 90 89 89 89 88 88 
88 88 88 88 88 88 88 88 88 87 87 87 87 86 86 
85 85 87 87 87 86 86 86 85 85 85 85 85 84 84 
83 83 83 84 81 84 78 110 132 135 138 136 139 141 139 
136 137 142 147 148 158 163 159 155 154 158 159 165 170 172 
171 179 191 196 193 201 200 199 199 199 200 201 202 195 196 
197 197 198 198 197 197 200 198 196 197 202 203 199 195 200 
204 211 217 220 219 217 215 213 217 213 216 212 206 175 110 
66 37 37 40 86 141 114 129 128 128 128 128 128 128 128 
128 128 128 129 129 129 130 130 130 131 131 131 131 131 131 
131 131 133 133 133 133 134 134 135 135 134 134 134 135 135 
135 136 136 139 140 141 142 144 144 146 147 150 150 149 150 
152 152 153 154 155 154 155 157 157 157 159 159 159 159 160 
160 160 160 161 161 163 164 163 163 165 165 165 165 166 166 
166 167 168 168 168 168 169 169 169 169 169 169 169 169 170 
170 169 169 168 168 168 168 165 166 165 166 166 165 166 165 
166 166 166 166 166 166 166 166 166 167 167 167 169 169 168 
169 170 170 170 170 170 170 170 170 172 172 172 172 97 96 
96 94 93 93 93 93 92 92 92 91 91 91 90 90 89 
89 89 89 89 89 89 89 89 89 89 88 88 87 87 87 
87 87 87 87 87 87 87 87 86 86 86 85 85 84 84 
84 86 86 85 85 85 84 84 84 83 82 82 82 81 81 
81 81 82 80 82 77 100 129 135 138 137 141 145 144 141 
141 146 151 148 153 154 152 151 154 162 168 165 167 164 165 
177 195 202 197 221 213 202 192 188 190 195 200 196 196 197 
197 198 200 201 202 201 201 202 204 207 207 205 204 193 196 
201 207 211 214 215 215 216 219 215 218 213 207 176 110 59 
33 41 56 128 174 120 131 128 128 128 128 128 128 128 128 
128 128 129 129 129 130 130 130 131 131 131 131 131 131 131 
131 133 133 133 133 134 134 135 135 134 134 134 135 135 135 
136 136 139 139 141 143 143 146 147 147 150 150 149 150 152 
152 153 154 154 154 156 157 157 158 159 159 159 159 160 160 
160 160 161 161 164 164 163 164 165 165 166 166 166 166 167 
167 168 169 168 168 169 169 169 169 169 169 169 169 170 170 
169 169 168 168 168 168 165 166 165 166 166 165 166 165 166 
166 166 166 166 166 166 166 166 167 167 167 169 169 168 169 
170 170 170 170 170 170 170 170 172 172 172 172 96 95 94 
94 92 92 91 91 91 91 90 90 89 89 89 89 88 88 
88 88 88 88 88 88 88 88 88 87 87 86 86 86 85 
85 85 85 85 85 85 85 85 84 84 84 83 83 83 83 
83 83 83 83 82 82 82 82 82 82 82 81 81 81 80 
80 81 78 81 75 90 127 135 137 138 143 147 149 148 149 
152 156 152 151 148 146 145 146 154 161 155 162 165 164 169 
184 198 204 227 218 203 190 184 186 193 198 203 201 197 194 
194 197 200 203 199 201 203 202 201 200 201 203 189 190 191 
194 199 205 211 214 216 220 219 221 216 207 176 108 64 38 
42 66 159 197 135 128 128 128 128 128 128 128 128 128 128 
128 129 129 129 130 130 130 131 131 131 131 131 131 131 131 
133 133 133 133 134 134 135 135 134 134 134 135 135 135 136 
136 140 140 141 142 144 145 147 148 150 150 149 150 152 152 
153 154 154 154 156 157 158 158 159 159 159 159 160 160 160 
160 161 161 164 164 164 164 166 166 166 166 167 167 167 168 
169 169 169 169 169 169 169 169 169 169 169 169 170 170 169 
169 168 168 168 168 166 167 166 167 167 166 167 166 166 166 
166 166 166 166 166 166 166 167 167 167 169 169 168 169 170 
170 170 170 170 170 170 170 172 172 172 172 94 94 93 93 
91 92 90 90 90 90 90 89 89 89 88 88 87 87 87 
87 87 87 87 87 87 87 87 86 86 86 85 85 83 83 
83 83 83 83 83 83 84 84 84 83 83 83 82 82 83 
83 83 82 82 81 81 81 80 80 79 79 79 78 78 78 
80 77 79 75 81 124 135 137 140 142 146 152 157 160 161 
161 154 151 148 148 144 139 139 143 139 152 165 166 159 164 
186 209 211 208 202 197 194 194 196 197 205 201 196 191 190 
193 197 200 199 196 193 189 188 189 190 191 191 189 188 190 
194 202 209 214 218 223 222 224 219 208 174 107 74 48 41 
67 165 199 147 122 128 128 128 128 128 128 128 128 128 128 
129 129 129 130 130 130 131 131 131 131 131 131 131 131 133 
133 133 133 134 134 135 135 134 134 134 135 135 135 136 136 
140 140 142 144 145 147 148 148 150 150 149 150 152 152 153 
154 154 154 156 156 158 158 159 158 159 159 160 160 160 160 
161 161 165 165 164 165 166 166 167 167 167 167 168 168 169 
170 169 169 169 169 169 169 169 169 169 169 170 170 169 169 
168 168 168 168 166 167 166 167 167 166 167 166 166 166 166 
166 166 166 166 166 166 167 167 167 169 169 168 169 170 170 
170 170 170 170 170 170 172 172 172 172 93 93 92 93 92 
91 89 89 91 91 90 90 90 89 89 89 86 86 86 86 
86 86 86 86 85 85 85 85 85 85 85 84 83 83 83 
83 83 83 83 83 83 83 83 82 82 82 81 81 81 81 
81 80 80 79 79 79 80 80 79 79 79 78 78 78 79 
77 78 74 72 123 136 136 137 136 139 149 160 166 165 161 
150 146 146 150 148 139 136 138 134 142 155 161 156 155 175 
201 194 197 201 204 205 203 199 197 199 197 194 191 191 192 
195 196 200 188 177 175 182 188 187 184 193 192 192 194 198 
203 209 213 220 223 224 227 221 209 174 105 68 53 42 71 
168 197 164 124 128 128 128 128 128 128 128 128 128 128 129 
129 129 130 130 130 131 131 131 131 131 131 131 131 133 133 
133 133 134 134 135 135 134 134 134 135 135 135 136 136 140 
140 141 144 145 147 147 148 150 150 149 150 152 152 153 154 
155 155 156 156 158 158 158 158 159 159 160 160 160 160 161 
161 165 165 165 165 166 167 167 167 167 168 168 168 170 170 
169 170 169 169 169 169 169 169 169 169 170 170 169 169 168 
168 168 168 166 167 166 167 167 166 167 166 166 166 166 166 
166 166 166 166 166 167 167 167 169 169 168 169 170 170 170 
170 170 170 170 170 172 172 172 172 93 93 92 92 91 91 
89 89 91 91 90 90 89 89 89 89 85 85 85 85 85 
85 85 85 85 85 85 85 85 84 84 84 83 83 83 83 
83 83 83 83 83 82 82 82 81 81 81 81 81 80 80 
80 79 79 79 79 78 78 78 77 77 77 76 76 79 75 
77 74 68 122 135 136 132 130 132 144 160 168 165 158 145 
141 141 148 150 144 142 146 139 134 140 154 160 158 169 187 
188 193 201 207 208 206 201 197 191 191 192 193 193 194 194 
194 200 182 165 167 184 197 195 187 194 195 197 200 204 207 
210 211 220 225 225 227 221 210 175 105 57 52 46 82 176 
200 180 128 128 128 128 128 128 128 128 128 128 128 129 129 
129 130 130 130 131 131 131 131 131 131 131 131 133 133 133 
133 134 134 135 135 134 134 134 135 135 135 136 136 140 141 
142 144 145 147 147 148 150 150 149 150 152 152 153 154 155 
155 155 156 158 157 158 158 159 159 160 160 160 160 161 161 
165 165 165 165 167 167 167 167 168 168 168 169 170 170 170 
170 169 169 169 169 169 169 169 169 170 170 169 169 168 168 
168 168 166 167 166 167 167 166 167 166 166 166 166 166 166 
166 166 166 166 167 167 167 169 169 168 169 170 170 170 170 
170 170 170 170 172 172 172 172 93 93 92 91 91 89 89 
89 90 89 89 87 86 86 86 86 84 84 84 84 83 83 
82 82 82 82 82 82 82 82 82 82 81 81 81 81 81 
81 81 81 81 81 81 80 80 80 80 80 79 78 77 77 
77 76 76 76 76 75 75 75 74 75 73 73 68 76 76 
70 84 132 132 147 142 150 151 149 156 168 165 150 128 144 
154 151 147 147 149 149 141 142 145 149 153 157 162 164 177 
185 195 201 200 197 194 193 197 194 197 203 200 190 183 184 
196 191 176 164 170 189 194 188 190 193 197 202 208 214 218 
219 212 224 217 228 222 215 184 84 44 45 33 88 175 203 
207 138 128 124 124 131 133 129 130 132 129 129 129 129 130 
130 130 130 131 131 131 131 131 131 131 131 132 132 132 132 
133 133 134 134 135 134 134 136 135 135 136 137 143 143 144 
145 146 148 148 149 151 151 152 152 152 153 154 154 155 156 
157 157 159 160 160 161 160 160 160 161 162 162 163 163 164 
163 164 164 164 165 165 165 170 170 170 170 170 170 170 170 
169 169 169 169 169 169 169 169 170 170 169 169 169 168 168 
168 166 167 166 166 168 168 168 169 169 169 169 169 169 169 
169 169 169 169 169 169 169 169 169 169 169 169 169 170 170 
170 171 171 171 171 171 171 93 93 92 91 90 89 89 89 
89 89 87 87 86 86 86 85 84 84 84 83 83 82 82 
82 82 82 82 82 82 82 82 82 81 81 81 81 81 81 
81 81 81 80 80 80 80 80 80 80 78 78 77 77 77 
76 75 75 75 75 75 74 75 74 73 73 68 71 73 77 
102 140 137 143 139 143 149 153 163 166 152 133 137 150 157 
152 146 145 147 146 155 152 148 145 147 152 160 165 174 182 
193 200 200 197 195 194 192 188 189 193 191 184 181 183 196 
195 185 170 169 181 193 195 201 204 208 208 206 208 213 220 
212 222 220 229 219 215 186 83 40 34 41 103 184 204 206 
164 122 127 130 130 128 129 131 130 129 129 129 129 130 130 
130 130 131 131 131 131 131 131 131 131 132 132 132 132 133 
133 134 134 135 134 134 136 135 135 136 137 142 143 144 145 
146 148 148 149 150 151 151 152 152 153 153 154 155 156 157 
158 159 159 160 160 161 160 160 160 162 162 163 163 163 163 
164 164 164 165 165 165 169 169 169 169 169 169 169 169 168 
168 168 168 168 168 168 168 169 169 169 169 168 168 168 167 
166 166 167 166 167 168 168 168 169 169 169 169 169 169 169 
169 167 167 167 167 167 167 167 167 169 169 169 169 170 170 
171 171 171 171 171 171 93 92 92 90 89 89 89 88 88 
88 88 87 86 85 84 84 83 83 83 82 82 82 81 81 
81 81 81 81 81 81 81 81 81 81 81 81 81 81 81 
81 81 81 80 80 80 79 79 79 78 77 77 77 75 75 
75 74 74 74 75 74 73 73 72 73 70 65 71 84 127 
147 142 143 148 150 155 165 174 173 156 139 150 160 163 154 
146 144 143 142 158 155 150 147 150 156 162 167 169 178 190 
197 198 197 195 195 187 183 182 184 183 180 180 183 190 194 
194 181 170 169 180 190 198 207 213 213 207 205 211 217 211 
215 218 225 213 216 189 83 36 28 66 132 198 205 205 197 
145 133 127 132 132 131 129 130 129 129 129 129 130 130 130 
130 131 131 131 131 131 131 131 131 132 132 132 132 133 133 
134 134 135 134 134 136 135 135 136 137 141 143 144 145 146 
146 148 148 149 150 151 152 153 152 153 153 156 155 156 158 
157 159 160 160 160 160 160 160 161 162 162 162 163 163 163 
164 164 164 165 165 169 169 169 169 169 169 169 169 168 168 
168 168 168 168 168 168 169 169 168 168 168 167 167 167 165 
165 166 166 166 168 168 168 169 169 169 169 169 169 169 169 
167 167 167 167 167 167 167 167 168 168 169 169 170 170 170 
170 170 170 170 170 92 92 90 90 89 88 88 88 88 87 
87 86 85 84 83 83 83 83 83 83 82 82 81 81 81 
81 81 81 81 81 81 81 79 79 79 79 79 79 79 79 
79 79 79 79 79 78 78 78 77 76 76 75 75 74 74 
75 74 74 74 73 72 72 72 72 72 63 72 93 142 149 
150 149 162 161 163 169 174 171 163 158 163 168 168 158 149 
144 142 139 141 145 150 157 163 166 167 167 166 175 188 196 
198 197 196 196 185 185 185 187 187 186 185 186 181 190 195 
189 173 159 162 169 180 189 201 205 205 205 208 212 212 207 
212 219 209 216 185 79 37 45 111 163 207 205 202 219 189 
148 120 130 135 130 125 129 129 129 129 129 130 130 130 130 
131 131 131 131 131 131 131 131 132 132 132 132 133 133 134 
134 135 134 134 136 135 135 136 137 142 141 143 144 145 146 
148 147 150 150 151 150 151 152 154 154 154 156 155 156 158 
158 159 160 159 160 160 160 160 160 162 162 163 163 164 164 
163 165 165 165 168 168 168 168 168 168 168 168 168 168 168 
168 168 168 168 168 168 168 167 167 167 166 166 166 164 165 
165 166 166 166 167 168 169 169 169 169 169 169 169 169 167 
167 167 167 167 167 167 167 168 168 168 169 169 169 170 170 
169 169 169 169 92 91 91 90 88 88 88 87 86 86 85 
84 84 84 83 83 81 81 81 81 80 80 80 79 79 79 
79 79 79 79 79 79 79 79 79 79 79 79 79 79 79 
79 79 78 78 77 77 77 76 76 75 75 74 73 73 73 
72 72 72 73 72 71 71 70 73 65 73 99 145 144 153 
159 164 166 167 165 159 154 154 158 168 173 172 163 154 149 
143 137 131 138 149 160 167 170 168 166 162 172 184 192 194 
193 192 193 185 189 193 195 195 193 190 186 185 188 190 184 
172 161 154 155 169 173 180 186 192 199 203 207 213 207 213 
222 214 214 170 69 58 86 164 190 209 207 204 224 219 182 
144 130 129 129 129 131 129 129 129 129 130 130 130 130 131 
131 131 131 131 131 131 131 132 132 132 132 133 133 134 134 
135 134 134 136 135 135 136 137 141 141 142 143 145 146 146 
148 148 149 149 151 151 152 152 152 155 155 155 156 156 158 
159 158 158 158 159 160 160 160 160 160 162 163 163 164 163 
163 165 165 166 166 166 166 166 166 166 166 166 166 166 166 
166 166 166 166 167 167 166 166 166 165 165 165 165 165 164 
165 166 166 166 166 167 167 167 167 167 167 167 167 166 166 
166 166 166 166 166 166 168 168 169 169 170 170 170 170 169 
169 169 169 91 90 90 89 89 88 86 86 86 86 85 83 
82 82 81 82 81 80 80 80 79 79 79 79 79 79 79 
79 79 79 79 79 78 78 78 78 78 78 78 78 78 78 
78 77 77 77 76 76 75 75 74 74 73 72 72 72 73 
72 72 72 70 71 71 70 73 70 75 106 142 141 153 165 
166 175 178 169 156 148 148 151 169 175 175 169 162 156 147 
138 137 141 149 156 161 162 162 161 163 172 184 191 193 191 
190 189 188 194 199 199 198 197 191 184 193 188 179 171 169 
168 165 159 171 171 169 172 179 188 198 202 214 212 221 229 
222 211 160 80 104 138 202 203 208 208 211 221 220 215 191 
151 127 129 133 131 129 129 129 129 130 130 130 130 131 131 
131 131 131 131 131 131 132 132 132 132 133 133 134 134 135 
134 134 136 135 135 136 137 140 141 142 144 145 146 147 146 
148 148 149 150 151 151 152 152 154 155 155 155 156 157 158 
159 158 158 158 159 160 160 160 160 162 162 162 162 164 164 
164 164 166 166 166 166 166 166 166 166 166 166 166 166 166 
166 166 166 167 167 167 166 166 165 165 165 165 165 165 164 
165 166 165 166 167 167 167 167 167 167 167 167 166 166 166 
166 166 166 166 166 168 168 168 169 169 170 170 170 168 168 
168 168 90 89 90 89 88 88 86 86 85 85 84 83 82 
81 81 81 80 80 79 79 79 78 78 78 78 78 78 78 
78 78 78 78 77 77 77 77 77 77 77 77 76 76 76 
76 76 76 76 75 74 74 73 73 72 72 72 72 72 72 
71 70 71 70 70 70 71 75 72 112 140 143 151 160 166 
180 185 176 164 160 160 157 166 172 176 174 170 163 151 140 
145 146 148 150 153 154 156 157 164 173 184 190 190 187 185 
185 188 193 195 191 189 190 186 179 185 179 167 159 164 176 
176 168 170 171 175 177 180 186 194 201 213 215 223 226 222 
210 172 130 159 184 214 203 206 211 221 221 216 225 220 190 
151 131 127 131 129 129 129 129 130 130 130 130 131 131 131 
131 131 131 131 131 132 132 132 132 133 133 134 134 135 134 
134 136 135 135 136 137 141 140 142 143 143 146 145 146 149 
149 149 150 150 151 151 152 153 153 155 156 157 156 157 158 
158 158 158 158 160 160 159 160 162 162 162 162 162 164 164 
164 165 165 165 165 165 165 165 165 164 164 164 164 164 164 
164 164 166 166 166 166 165 165 164 164 164 164 165 165 164 
166 166 166 166 166 166 166 166 166 166 166 165 165 165 165 
165 165 165 165 167 167 167 167 168 168 168 169 167 167 167 
167 90 89 90 88 88 87 86 85 85 85 83 82 81 82 
81 81 79 79 79 79 78 78 78 78 78 78 78 78 78 
78 78 78 76 76 76 76 76 76 76 76 76 76 76 76 
76 75 75 75 74 74 73 72 72 72 72 72 71 71 71 
70 70 70 70 69 69 77 69 116 140 148 149 153 163 176 
181 173 168 173 175 169 163 170 176 177 174 168 154 142 144 
144 147 148 151 152 153 154 164 173 183 189 188 184 182 181 
186 190 188 180 178 181 179 173 167 166 158 151 162 179 180 
169 159 171 185 191 191 191 195 200 211 215 219 216 215 211 
193 184 199 208 215 199 207 212 229 223 220 218 223 221 185 
134 119 133 129 129 129 129 130 130 130 130 131 131 131 131 
131 131 131 131 132 132 132 132 133 133 134 134 135 134 134 
136 135 135 136 137 141 140 141 143 143 145 145 146 147 149 
149 150 151 151 151 151 153 153 155 156 155 156 157 157 158 
158 158 158 159 160 159 159 161 161 162 163 162 162 163 164 
165 165 165 165 165 165 165 165 164 164 164 164 164 164 164 
164 165 165 165 164 164 163 163 163 164 164 164 165 164 165 
166 166 166 166 166 166 166 166 166 166 166 166 166 166 166 
166 166 166 166 167 167 167 168 168 168 168 166 166 166 166 
91 90 89 88 86 85 84 83 84 84 83 82 81 81 80 
79 80 79 79 79 78 78 78 78 78 78 78 78 78 78 
78 78 75 75 75 75 75 75 75 75 75 75 75 74 74 
74 73 73 71 71 71 71 71 71 71 71 71 71 71 71 
71 71 71 71 71 69 72 121 137 137 140 149 161 164 174 
167 166 177 176 183 185 177 176 178 165 155 155 143 143 150 
155 154 153 154 150 143 156 170 189 198 188 174 175 185 184 
186 185 182 181 179 170 159 159 153 156 142 149 172 171 176 
168 181 191 193 195 201 202 199 208 219 220 218 216 208 201 
205 204 207 212 216 219 222 222 222 212 213 211 215 202 176 
125 133 130 130 130 130 131 131 131 131 130 130 131 131 132 
132 132 132 134 134 134 134 134 134 134 134 135 135 135 135 
135 135 135 135 140 140 139 140 140 140 140 141 147 147 147 
148 149 149 150 151 153 153 153 153 153 154 155 154 154 154 
154 155 155 156 156 156 156 156 157 157 157 157 157 158 162 
162 162 162 162 162 162 162 164 163 163 164 162 162 162 162 
161 162 161 161 163 162 163 164 163 164 164 163 164 164 164 
166 164 164 164 164 164 164 164 164 161 161 161 161 161 161 
161 161 162 162 162 162 162 162 162 162 169 169 169 169 91 
90 89 88 86 85 84 83 84 83 83 81 81 81 79 79 
79 79 79 79 78 78 78 77 77 77 77 77 77 77 77 
77 75 75 75 75 75 75 75 75 75 75 74 74 74 73 
73 73 71 71 71 71 71 71 71 71 71 71 71 71 71 
71 71 71 71 69 72 122 139 141 144 154 165 166 176 168 
168 176 171 173 188 182 176 177 172 158 146 136 142 149 153 
153 153 154 150 143 151 164 184 197 190 178 175 180 185 187 
185 181 179 176 166 154 151 140 145 141 145 157 156 168 169 
182 193 196 200 206 209 206 208 219 220 218 216 208 201 205 
206 208 212 216 219 221 221 220 212 215 211 214 203 181 128 
132 130 130 130 130 131 131 131 131 130 130 131 131 132 132 
132 132 134 134 134 134 134 134 134 134 135 135 135 135 135 
135 135 135 138 138 140 139 140 140 141 141 146 146 147 146 
147 149 150 149 150 150 151 150 152 152 152 152 154 155 155 
155 156 156 156 157 156 156 157 158 158 157 158 158 162 162 
162 162 162 162 162 162 162 162 163 162 161 161 160 160 159 
159 159 161 160 162 162 162 160 160 159 161 161 161 162 161 
163 163 163 163 163 163 163 163 162 162 162 162 162 162 162 
162 163 163 163 163 163 163 163 163 164 164 164 164 90 90 
89 88 85 84 83 83 83 83 82 81 81 79 79 79 79 
79 79 78 78 77 76 76 77 77 77 77 77 77 77 77 
75 75 75 75 75 75 75 75 74 73 73 73 73 73 73 
73 71 71 71 71 71 71 71 71 71 71 71 71 71 71 
71 71 71 69 72 123 141 145 151 162 171 171 180 174 174 
180 168 164 188 187 178 177 179 158 130 125 139 146 151 151 
151 153 149 142 145 156 174 189 190 181 175 174 185 187 185 
180 178 175 164 152 142 128 130 133 135 139 141 156 167 180 
193 198 203 212 215 214 208 219 220 218 216 208 201 205 206 
208 212 215 218 219 218 217 214 218 211 213 206 187 133 129 
130 130 130 130 131 131 131 131 130 130 131 131 132 132 132 
132 134 134 134 134 134 134 134 134 134 134 134 134 134 134 
134 134 138 139 138 138 140 139 139 141 143 143 145 145 145 
147 147 147 149 149 150 149 149 150 150 150 154 155 155 155 
156 156 156 157 157 157 158 158 157 158 158 158 162 162 162 
162 162 162 162 162 160 160 160 159 159 159 158 158 157 157 
157 157 158 158 158 158 156 156 156 156 156 156 158 158 161 
161 161 161 161 161 161 161 163 163 163 163 163 163 163 163 
164 164 164 164 164 164 164 164 160 160 160 160 90 89 88 
87 85 84 83 83 83 82 81 81 80 79 78 78 79 79 
78 78 77 76 76 76 75 75 75 75 75 75 75 75 74 
74 74 74 74 74 74 74 73 73 73 73 73 73 72 72 
71 71 71 71 71 71 71 71 71 71 71 71 71 71 71 
71 71 69 72 124 143 149 156 168 175 175 185 182 186 191 
175 167 184 188 181 175 180 150 109 115 136 143 148 149 149 
151 148 141 143 149 162 176 184 182 175 170 182 185 184 181 
180 179 169 158 141 126 115 115 122 130 134 144 160 175 188 
195 203 212 218 217 208 219 220 218 216 208 201 205 208 210 
213 215 217 216 215 214 214 219 211 210 206 193 138 127 130 
130 130 130 131 131 131 131 130 130 131 131 132 132 132 132 
134 134 134 134 134 134 134 134 134 134 134 134 134 134 134 
134 138 138 137 138 138 138 138 140 142 142 142 143 144 145 
146 146 150 150 149 151 150 150 152 152 154 154 155 155 155 
156 156 156 155 155 156 157 157 157 157 157 159 159 159 159 
159 159 159 159 157 157 156 155 155 154 155 155 154 154 153 
154 155 154 155 155 155 155 154 155 155 155 157 157 159 159 
159 159 159 159 159 159 163 163 163 163 163 163 163 163 162 
162 162 162 162 162 162 162 159 159 159 159 89 89 88 87 
85 83 83 83 82 81 82 81 79 78 78 78 78 78 78 
77 76 76 75 75 74 74 74 74 74 74 74 74 73 73 
73 73 73 73 73 73 73 73 72 72 72 72 72 72 71 
71 71 71 71 71 71 71 71 71 71 71 71 71 71 71 
71 69 71 122 142 149 159 172 179 180 193 193 199 205 189 
182 177 186 187 175 173 137 91 108 132 139 145 146 147 149 
147 140 145 146 149 160 172 179 176 169 177 180 182 181 183 
184 177 167 146 132 108 98 108 126 139 135 153 167 181 190 
199 208 215 215 208 219 220 218 216 208 201 205 211 212 214 
216 216 214 212 209 210 216 209 209 206 193 139 127 130 130 
130 130 131 131 131 131 130 130 131 131 132 132 132 132 134 
134 134 134 134 134 134 134 134 134 134 134 134 134 134 134 
137 137 137 136 137 138 139 139 139 140 139 140 142 142 142 
142 150 151 151 150 151 151 152 153 150 150 150 151 151 151 
152 152 152 152 154 153 153 154 154 154 155 155 155 155 155 
155 155 155 153 152 152 151 151 150 151 151 150 150 150 151 
150 151 152 152 154 156 156 155 156 156 157 158 155 155 155 
155 155 155 155 155 159 159 159 159 159 159 159 159 159 159 
159 159 159 159 159 159 160 160 160 160 89 88 87 86 85 
83 83 83 82 82 81 79 79 78 78 78 78 78 77 76 
75 75 75 76 73 73 73 73 73 73 73 73 73 73 73 
73 73 73 73 73 72 72 72 72 72 72 71 71 71 71 
71 71 71 71 71 71 71 71 71 71 71 71 71 71 72 
69 70 120 140 147 157 171 180 184 199 200 205 213 200 197 
177 184 190 177 171 132 84 107 128 136 142 144 145 148 145 
140 144 143 144 149 162 173 173 166 171 175 177 179 182 185 
179 169 149 137 105 90 98 120 138 133 147 161 175 185 194 
203 210 211 208 219 220 218 216 208 201 205 212 213 214 215 
214 211 207 205 207 211 206 210 204 188 135 128 130 130 130 
130 131 131 131 131 130 130 131 131 132 132 132 132 134 134 
134 134 134 134 134 134 134 134 134 134 134 134 134 134 136 
136 136 136 136 136 137 137 137 136 137 138 139 140 140 140 
147 147 148 149 149 149 149 149 146 146 146 147 147 147 148 
148 149 149 148 149 150 150 151 150 150 150 150 150 150 150 
150 150 148 148 149 148 147 147 146 147 146 146 146 146 147 
147 147 147 154 155 155 155 155 155 155 156 152 152 152 152 
152 152 152 152 155 155 155 155 155 155 155 155 155 155 155 
155 155 155 155 155 157 157 157 157 88 88 87 86 85 83 
83 82 82 81 80 79 78 79 78 77 77 77 77 76 75 
75 75 75 72 72 72 72 72 72 72 72 71 71 71 71 
71 71 71 71 73 73 72 72 72 71 71 71 71 71 71 
71 71 71 71 71 71 71 71 71 71 71 71 71 73 69 
68 117 136 144 154 168 180 186 202 201 203 212 203 203 186 
184 193 180 172 136 86 108 125 133 140 142 144 147 145 139 
139 142 143 146 156 168 167 159 166 170 172 173 177 179 172 
163 146 135 104 93 96 106 131 137 145 160 175 183 192 202 
208 207 208 219 220 218 216 208 201 205 214 215 215 214 213 
210 205 203 202 205 203 209 201 180 130 131 130 130 130 130 
131 131 131 131 130 130 131 131 132 132 132 132 134 134 134 
134 134 134 134 134 134 134 134 134 134 134 134 134 134 134 
134 136 136 136 136 136 135 136 135 136 137 139 139 139 141 
141 142 141 142 143 142 142 140 140 141 141 141 142 142 142 
144 144 144 145 146 146 146 145 146 146 146 146 146 146 146 
146 146 146 145 145 145 145 144 144 142 143 143 143 144 145 
145 146 150 150 150 150 152 152 151 152 151 151 151 151 151 
151 151 151 152 152 152 152 152 152 152 152 150 150 150 150 
150 150 150 150 154 154 154 154 88 88 87 86 85 83 83 
82 82 80 80 79 79 78 77 76 77 77 76 75 75 76 
75 75 72 72 72 72 72 72 72 72 71 71 71 71 71 
71 71 71 73 73 72 72 71 71 71 71 71 71 71 71 
71 71 71 71 71 71 71 71 71 71 71 71 73 69 68 
116 134 141 152 166 181 188 205 201 201 207 201 205 196 184 
194 183 175 143 91 109 124 132 138 141 143 146 144 138 135 
140 144 147 156 166 163 154 164 167 169 169 171 172 165 155 
141 132 104 101 96 92 123 140 146 160 175 184 192 201 206 
206 208 219 220 218 216 208 201 205 215 215 216 214 212 209 
204 201 199 203 202 210 199 174 126 132 130 130 130 130 131 
131 131 131 130 130 131 131 132 132 132 132 134 134 134 134 
134 134 134 134 134 134 134 134 134 134 134 134 134 134 134 
134 135 136 137 136 135 135 135 136 137 137 137 138 136 136 
135 136 137 137 138 138 138 138 138 139 139 140 140 140 140 
141 141 142 143 143 142 143 141 141 141 141 141 141 141 141 
144 144 144 143 144 144 142 142 142 141 142 142 142 143 144 
143 146 146 147 148 148 147 148 148 149 149 149 149 149 149 
149 149 148 148 148 148 148 148 148 148 147 147 147 147 147 
147 147 147 149 149 149 149 89 89 87 86 86 85 84 83 
81 81 81 79 79 78 78 77 78 78 77 76 75 74 74 
74 73 73 73 73 73 73 73 73 72 72 72 72 72 72 
72 72 72 72 72 72 72 72 72 72 70 70 70 70 70 
70 70 70 70 70 70 70 70 70 70 70 81 86 67 126 
138 132 152 157 185 191 200 205 207 206 206 207 204 196 191 
191 178 136 100 109 116 121 130 139 143 145 142 140 142 138 
140 148 151 150 154 161 166 163 168 169 159 155 151 142 140 
113 110 117 106 103 124 141 141 165 183 190 199 201 201 205 
214 211 212 216 212 204 201 207 216 215 214 211 211 208 207 
206 202 202 199 200 194 158 127 129 130 130 130 129 129 129 
130 130 131 131 131 131 131 131 131 131 132 132 132 132 133 
133 133 134 133 133 133 133 133 133 133 133 135 135 135 135 
135 135 135 135 136 136 136 136 136 136 136 136 136 136 136 
136 136 136 136 136 137 137 137 137 137 137 137 137 137 137 
137 137 137 137 137 137 137 137 137 137 137 137 137 137 137 
137 137 137 137 137 137 137 138 138 138 138 138 138 138 138 
141 141 141 141 141 141 141 141 139 139 139 139 139 139 139 
139 139 139 139 139 139 139 139 139 138 138 138 138 138 138 
138 138 145 145 145 145 90 89 87 86 86 85 83 83 81 
80 81 79 79 79 77 78 78 78 77 76 75 74 74 74 
73 73 73 73 73 73 73 73 72 72 72 72 72 72 72 
72 72 72 72 72 72 72 72 72 70 70 70 70 70 70 
70 70 70 70 70 70 70 70 70 70 72 70 65 119 129 
132 153 162 184 191 200 205 206 205 206 207 206 201 197 188 
178 129 100 114 113 118 126 134 138 142 141 141 138 139 143 
148 146 143 148 158 158 156 160 160 152 148 144 135 135 115 
108 111 105 101 116 136 141 165 183 191 200 202 203 206 214 
212 212 216 213 205 202 205 212 212 211 208 206 206 203 203 
196 195 197 202 186 150 128 130 130 130 130 129 129 129 130 
130 131 131 131 131 131 131 131 131 131 132 132 132 133 133 
133 133 133 133 133 133 133 133 133 133 134 134 134 134 134 
134 134 134 136 136 136 136 136 136 136 136 136 136 136 136 
136 136 136 136 137 137 137 137 137 137 137 137 137 137 137 
137 137 137 137 137 137 137 137 137 137 137 137 137 137 137 
137 137 137 137 137 137 138 138 138 138 138 138 138 138 140 
140 140 140 140 140 140 140 139 139 139 139 139 139 139 139 
139 139 139 139 139 139 139 139 139 139 139 139 139 139 139 
139 140 140 140 140 90 89 89 86 86 85 83 83 81 81 
80 79 80 79 77 77 78 78 77 76 75 74 74 74 72 
72 72 72 72 72 72 72 72 72 72 72 72 72 72 72 
71 71 71 71 71 71 71 71 70 70 70 70 70 70 70 
70 70 70 70 70 70 70 70 70 72 63 76 116 123 135 
150 165 183 192 201 206 206 205 206 208 206 204 199 181 177 
116 97 114 109 112 118 124 131 136 140 141 136 140 146 148 
143 138 142 150 147 144 149 151 142 136 132 124 125 113 103 
104 103 97 106 129 142 166 184 192 201 204 205 208 216 214 
214 217 214 208 202 203 207 206 205 203 203 200 199 198 194 
192 200 204 175 139 127 131 130 130 130 129 129 129 130 130 
131 131 131 131 131 131 131 131 131 131 131 132 132 133 133 
133 132 132 132 132 132 132 132 132 134 134 134 134 134 134 
134 134 135 135 135 135 135 135 135 135 135 135 135 135 135 
135 135 135 137 137 137 137 137 137 137 137 137 137 137 137 
137 137 137 137 137 137 137 137 137 137 137 137 137 137 137 
137 137 137 137 137 137 137 137 137 137 137 137 137 139 139 
139 139 139 139 139 139 138 138 138 138 138 138 138 138 138 
138 138 138 138 138 138 138 138 138 138 138 138 138 138 138 
134 134 134 134 89 89 89 88 87 85 85 83 82 82 81 
81 79 79 78 77 78 78 77 76 75 74 74 74 72 72 
72 72 72 72 72 72 72 72 72 72 72 72 72 72 71 
71 71 71 71 71 71 71 70 70 70 70 70 70 70 70 
70 70 70 70 70 70 70 70 77 65 98 123 124 140 147 
163 183 194 204 209 207 205 208 210 204 202 198 177 175 104 
95 103 106 106 109 114 121 128 134 139 139 142 146 147 143 
139 139 142 139 136 141 143 133 128 125 116 110 107 97 96 
103 95 101 125 142 166 185 194 203 206 208 211 217 216 216 
218 216 211 203 199 201 200 199 198 197 197 196 195 200 195 
206 204 165 129 125 131 129 129 129 128 128 128 129 129 131 
131 131 131 131 131 131 131 131 131 131 131 132 132 133 133 
133 133 133 133 133 133 133 133 133 133 133 133 133 133 133 
133 135 135 135 135 135 135 135 135 135 135 135 135 135 135 
135 135 136 136 136 136 136 136 136 136 136 136 136 136 136 
136 136 136 136 136 136 136 136 136 136 136 136 136 136 136 
136 136 136 136 136 136 136 136 136 136 136 136 138 138 138 
138 138 138 138 138 137 137 137 137 137 137 137 137 137 137 
137 137 137 137 137 137 137 137 137 137 137 137 137 137 134 
134 134 134 91 89 90 88 87 86 85 85 83 82 82 81 
80 79 78 78 78 78 77 76 75 74 74 74 72 72 72 
72 72 72 72 72 72 72 72 72 72 72 72 72 71 71 
71 71 71 71 71 71 70 70 70 70 70 70 70 70 70 
70 70 70 70 70 70 70 72 74 117 123 126 142 147 159 
183 195 206 211 207 204 208 212 207 202 199 184 171 98 96 
93 102 101 102 105 112 120 127 131 142 142 142 143 145 144 
140 134 135 132 136 137 129 123 119 110 97 99 93 92 101 
95 100 122 143 167 186 195 206 209 211 215 219 219 219 219 
219 215 204 196 194 193 193 194 195 196 196 196 211 202 207 
195 153 125 125 128 129 129 129 128 128 128 129 129 129 129 
129 129 129 129 129 129 129 129 130 130 130 131 131 131 132 
132 132 132 132 132 132 132 132 132 132 132 132 132 132 132 
134 134 134 134 134 134 134 134 135 135 135 135 135 135 135 
135 136 136 136 136 136 136 136 136 136 136 136 136 136 136 
136 136 136 136 136 136 136 136 136 136 136 136 136 136 136 
136 136 136 135 135 135 135 135 135 135 135 136 136 136 136 
136 136 136 136 136 136 136 136 136 136 136 136 136 136 136 
136 136 136 136 136 136 136 136 136 136 136 136 136 135 135 
135 135 91 91 90 89 87 86 86 85 84 83 82 81 81 
79 80 79 78 78 77 76 75 74 74 74 71 71 71 71 
71 71 71 71 72 72 72 72 72 72 72 72 71 71 71 
71 71 71 71 71 70 70 70 70 70 70 70 70 70 70 
70 70 70 70 70 70 61 84 124 115 126 143 149 160 184 
196 209 212 208 205 209 215 212 203 203 192 157 90 99 91 
97 97 97 101 106 111 118 122 138 137 136 137 143 145 137 
126 130 126 131 132 123 119 115 105 95 94 92 95 97 95 
100 114 143 168 187 197 208 212 214 218 220 222 221 221 221 
218 205 193 185 186 189 191 196 197 200 201 213 208 198 175 
141 125 125 127 128 128 128 127 128 128 128 128 129 129 129 
129 129 129 129 129 129 129 129 129 130 130 131 131 132 132 
132 132 132 132 132 132 133 133 133 133 133 133 133 133 133 
133 133 133 133 133 133 133 134 134 134 134 134 134 134 134 
135 135 135 135 135 135 135 135 135 135 135 135 135 135 135 
135 135 135 135 135 135 135 135 135 135 135 135 135 135 135 
135 135 135 135 135 135 135 135 135 135 135 135 135 135 135 
135 135 135 136 136 136 136 136 136 136 136 136 136 136 136 
136 136 136 136 136 136 136 136 136 136 136 136 137 137 137 
137 92 91 90 89 88 87 86 85 84 84 83 81 81 81 
80 80 78 78 77 76 75 74 74 74 71 71 71 71 71 
71 71 71 72 72 72 72 72 72 72 72 71 71 71 71 
71 71 71 71 70 70 70 70 70 70 70 70 70 70 70 
70 70 70 70 70 64 108 135 109 125 140 156 165 184 197 
211 214 208 204 209 217 211 200 199 193 128 70 95 92 94 
94 96 98 100 105 109 110 124 128 131 131 136 138 130 119 
124 122 127 127 118 113 110 101 99 95 98 99 94 92 99 
103 143 168 188 198 209 214 216 220 222 224 223 221 223 221 
206 190 179 182 186 190 196 202 205 207 207 205 182 149 130 
127 126 124 128 128 128 127 128 128 128 128 128 128 128 128 
128 128 128 128 128 128 129 129 130 130 130 130 130 130 130 
130 130 130 130 130 133 133 133 133 133 133 133 133 133 133 
133 133 133 133 133 133 134 134 134 134 134 134 134 134 135 
135 135 135 135 135 135 135 135 135 135 135 135 135 135 135 
135 135 135 135 135 135 135 135 135 135 135 135 135 135 135 
135 134 134 134 134 134 134 134 134 134 134 134 134 134 134 
134 134 135 135 135 135 135 135 135 135 135 135 135 135 135 
135 135 135 134 134 134 134 134 134 134 134 137 137 137 137 
92 91 90 89 88 87 86 86 84 84 83 82 82 81 80 
80 78 78 77 76 75 74 74 74 71 71 71 71 71 71 
71 71 72 72 72 72 72 72 72 72 71 71 71 71 71 
71 71 71 70 70 70 70 70 70 70 70 70 70 70 70 
70 70 70 70 76 134 146 106 125 139 159 167 182 197 211 
213 207 203 209 217 205 195 192 188 101 50 89 91 93 94 
94 96 99 102 103 103 113 122 127 127 127 130 125 116 120 
117 121 122 113 108 105 96 106 96 103 104 91 88 96 94 
144 169 189 199 210 215 217 222 222 225 224 222 223 222 206 
189 177 180 185 190 198 203 208 211 199 200 168 130 123 129 
126 124 128 128 128 127 128 128 128 128 128 128 128 128 128 
128 128 128 128 128 129 129 129 130 130 130 130 130 130 130 
130 130 130 130 132 132 132 132 132 132 132 132 133 133 133 
133 133 133 133 133 134 134 134 134 134 134 134 134 135 135 
135 135 135 135 135 135 135 135 135 135 135 135 135 135 135 
135 135 135 135 135 135 135 135 135 135 135 135 135 135 135 
133 133 133 133 133 133 133 133 133 133 133 133 133 133 133 
133 135 135 135 135 135 135 135 135 135 135 135 135 135 135 
135 135 134 134 134 134 134 134 134 134 135 135 135 135 92 
91 91 91 90 90 88 88 87 87 86 85 82 82 80 80 
79 79 78 78 76 75 75 74 72 72 72 70 70 68 68 
68 69 69 69 69 69 69 69 69 70 70 70 70 70 70 
70 70 69 69 69 69 69 69 69 69 67 73 70 65 70 
67 61 74 125 149 141 100 128 140 144 170 185 196 209 214 
211 206 206 209 206 196 201 179 88 49 43 70 81 85 91 
93 95 99 102 102 105 112 119 120 121 121 112 102 113 113 
113 112 108 102 98 95 109 98 104 97 90 96 101 115 145 
163 187 203 209 211 215 221 223 227 228 225 224 217 205 190 
187 187 195 207 208 203 203 207 198 177 140 124 130 126 120 
128 127 127 127 127 127 127 127 127 128 128 128 128 128 128 
128 128 127 127 128 128 128 129 129 129 130 130 130 130 130 
130 130 130 131 131 131 131 131 131 131 131 133 133 133 133 
133 133 133 133 133 133 133 133 133 133 133 133 133 133 133 
133 133 133 133 133 133 133 133 133 133 133 133 133 132 132 
132 132 132 132 132 132 132 132 132 132 132 132 132 132 133 
133 133 133 133 133 133 133 134 134 134 134 134 134 134 134 
133 133 133 133 133 133 133 133 134 134 134 134 134 134 134 
134 133 133 133 133 133 133 133 133 133 133 133 133 93 92 
91 91 91 90 88 88 86 87 86 85 83 82 81 80 81 
79 78 78 76 75 75 74 72 72 72 70 70 69 68 69 
69 69 69 69 69 69 69 69 70 70 70 70 70 70 70 
70 69 69 69 69 69 69 69 69 70 69 70 72 70 69 
83 108 140 154 149 110 130 138 146 167 185 196 209 214 211 
206 206 209 211 198 199 172 89 51 35 45 62 74 87 92 
93 96 103 108 112 119 124 124 124 121 113 104 108 108 107 
108 106 105 103 101 98 92 103 99 90 96 104 121 145 163 
186 202 208 211 215 221 223 226 227 224 223 217 206 191 197 
197 200 210 217 214 205 198 194 164 131 125 130 127 122 125 
126 126 126 126 126 126 126 126 128 128 128 128 128 128 128 
128 127 127 127 128 128 129 129 129 130 130 130 130 130 130 
130 130 131 131 131 131 131 131 131 131 132 132 132 132 132 
132 132 132 132 132 132 132 132 132 132 132 132 132 132 132 
132 132 132 132 132 132 132 132 132 132 132 132 131 131 131 
131 131 131 131 131 131 131 131 131 131 131 131 131 132 132 
132 132 132 132 132 132 133 133 133 133 133 133 133 133 132 
132 132 132 132 132 132 132 133 133 133 133 133 133 133 133 
132 132 132 132 132 132 132 132 132 132 132 132 93 93 92 
92 90 91 89 89 87 87 87 86 84 82 82 82 81 81 
79 78 78 75 76 75 72 72 72 71 70 69 68 68 69 
69 69 69 69 69 69 69 70 70 70 70 70 70 70 70 
69 69 69 69 69 69 69 69 71 66 71 77 73 80 113 
148 153 154 153 122 131 140 153 169 185 196 209 214 211 206 
206 209 208 198 194 159 91 61 34 27 29 49 72 87 90 
91 98 105 108 115 119 117 115 116 113 108 107 106 105 104 
104 104 103 103 99 91 97 96 96 100 102 119 147 163 185 
200 207 211 215 221 222 225 226 223 222 217 206 193 203 206 
209 211 216 213 202 192 185 147 123 125 127 127 124 122 126 
126 126 126 126 126 126 126 128 128 128 128 128 128 128 128 
127 127 127 127 128 128 129 129 130 130 130 130 130 130 130 
130 131 131 131 131 131 131 131 131 132 132 132 132 132 132 
132 132 132 132 132 132 132 132 132 132 132 132 132 132 132 
132 132 132 132 132 132 132 132 132 132 132 132 132 132 132 
132 132 132 132 132 132 132 132 132 132 132 132 132 132 132 
132 132 132 132 132 133 133 133 133 133 133 133 133 132 132 
132 132 132 132 132 132 133 133 133 133 133 133 133 133 132 
132 132 132 132 132 132 132 132 132 132 132 95 93 93 93 
92 90 90 90 89 89 88 86 85 83 83 83 81 82 81 
79 79 77 77 76 74 72 72 71 71 70 69 68 69 69 
69 69 69 69 69 69 70 70 70 70 70 70 70 70 69 
69 69 69 69 69 69 69 72 66 73 78 74 98 139 163 
154 145 151 128 131 141 160 175 185 196 209 214 211 206 206 
209 199 195 188 144 94 75 51 36 22 28 43 60 71 79 
88 97 103 111 114 111 109 112 111 108 105 104 102 101 102 
102 104 104 106 90 87 86 93 99 97 116 149 162 181 198 
206 212 216 220 222 224 224 221 221 217 208 195 202 209 213 
209 206 205 198 187 167 132 120 127 124 122 125 123 126 126 
126 126 126 126 126 126 127 127 127 127 127 127 127 127 126 
126 127 127 127 128 128 128 129 129 129 129 129 129 129 129 
131 131 131 131 131 131 131 131 131 131 131 131 131 131 131 
131 131 131 131 131 131 131 131 131 131 131 131 131 131 131 
131 131 131 131 131 131 131 131 131 131 131 131 131 131 131 
131 131 131 131 131 131 131 131 131 131 131 131 131 131 131 
131 131 131 131 132 132 132 132 132 132 132 132 131 131 131 
131 131 131 131 131 132 132 132 132 132 132 132 132 132 132 
132 132 132 132 132 132 132 132 132 132 96 95 95 93 92 
92 92 92 89 88 88 87 86 85 84 84 82 82 81 80 
79 78 76 76 74 73 73 72 71 70 70 70 69 69 69 
69 69 69 69 69 70 70 70 70 70 70 70 70 70 70 
70 70 70 70 70 70 69 69 75 72 78 116 150 154 151 
140 150 127 127 139 162 172 185 196 209 214 211 206 206 209 
197 197 188 132 94 85 72 57 49 30 17 26 43 58 70 
78 90 103 114 114 111 109 105 100 98 98 97 98 97 97 
98 98 89 80 79 75 80 84 90 125 151 162 180 195 205 
212 216 220 221 223 222 219 219 217 209 197 201 205 207 206 
207 205 189 171 147 124 123 129 122 118 124 125 126 126 126 
126 126 126 126 126 127 127 127 127 127 127 127 127 126 126 
126 127 127 127 128 128 128 128 128 128 128 128 128 128 129 
129 129 129 129 129 129 129 129 129 129 129 129 129 129 129 
129 129 129 129 129 129 129 129 129 129 129 129 129 129 129 
129 129 129 129 129 129 129 129 129 130 130 130 130 130 130 
130 130 130 130 130 130 130 130 130 130 129 129 129 129 129 
129 129 129 130 130 130 130 130 130 130 130 129 129 129 129 
129 129 129 129 130 130 130 130 130 130 130 130 131 131 131 
131 131 131 131 131 131 131 131 131 97 96 96 95 94 92 
92 92 90 89 89 87 87 86 85 85 83 83 82 82 79 
79 78 77 75 74 73 73 72 70 70 70 69 69 69 69 
69 69 69 69 70 70 70 70 70 70 70 70 70 70 70 
70 70 70 70 70 66 74 75 67 84 127 151 141 150 141 
150 123 125 139 159 167 185 196 209 214 211 206 206 209 202 
203 189 124 94 90 84 73 65 41 26 33 45 48 45 47 
53 72 92 100 100 99 94 89 95 94 94 92 86 80 73 
69 57 67 78 73 72 70 88 142 153 162 177 192 204 213 
216 220 221 222 220 217 218 216 210 199 204 200 196 202 206 
198 170 145 131 125 127 128 121 119 123 127 124 124 124 124 
124 124 124 124 126 126 126 126 126 126 126 126 126 126 126 
126 127 127 127 127 128 128 128 128 128 128 128 128 129 129 
129 129 129 129 129 129 128 128 128 128 128 128 128 128 128 
128 128 128 128 128 128 128 128 128 128 128 128 128 128 128 
128 128 128 128 128 128 128 128 129 129 129 129 129 129 129 
129 129 129 129 129 129 129 129 129 128 128 128 128 128 128 
128 128 129 129 129 129 129 129 129 129 128 128 128 128 128 
128 128 128 129 129 129 129 129 129 129 129 130 130 130 130 
130 130 130 130 130 130 130 130 97 97 96 96 95 94 92 
92 92 91 90 89 87 86 85 84 84 83 82 82 80 79 
78 78 75 75 74 73 72 72 70 71 69 69 69 69 69 
69 69 69 70 70 70 70 70 70 70 70 71 71 71 71 
71 71 71 71 68 78 74 67 94 131 147 144 143 144 150 
120 127 143 161 171 185 196 209 214 211 206 206 209 205 202 
185 118 99 96 92 81 64 53 52 60 61 47 39 39 36 
51 65 68 67 72 78 80 81 83 83 80 74 62 53 46 
48 64 81 83 83 78 95 153 154 162 175 191 204 213 217 
219 220 221 219 215 216 216 211 201 200 193 188 186 180 164 
142 128 123 130 129 124 124 124 123 124 124 124 124 124 124 
124 124 124 126 126 126 126 126 126 126 126 126 126 126 126 
126 127 127 127 127 127 127 127 127 127 127 127 128 128 128 
128 128 128 128 128 127 127 127 127 127 127 127 127 127 127 
127 127 127 127 127 127 127 127 127 127 127 127 127 127 127 
127 127 127 127 127 127 127 127 127 127 127 127 127 127 127 
127 127 127 127 127 127 127 127 127 127 127 127 127 127 127 
127 128 128 128 128 128 128 128 128 127 127 127 127 127 127 
127 127 128 128 128 128 128 128 128 128 128 128 128 128 128 
128 128 128 128 128 128 128 97 97 97 96 94 94 93 92 
91 91 91 89 88 86 85 85 85 84 83 83 81 79 78 
78 75 75 74 73 73 72 70 71 69 69 69 69 69 69 
69 69 70 70 70 70 70 70 70 70 71 71 71 71 71 
71 71 71 71 78 72 69 100 130 142 152 134 141 147 117 
130 152 169 180 185 196 209 214 211 206 206 209 200 197 178 
113 103 101 96 84 67 63 67 71 61 47 50 65 54 59 
56 45 39 48 62 71 55 60 66 69 67 60 50 43 61 
72 86 93 105 98 101 151 155 162 174 190 203 213 217 219 
220 221 218 214 216 216 212 202 193 191 184 170 146 124 118 
125 120 133 127 119 130 131 122 122 124 124 124 124 124 124 
124 124 126 126 126 126 126 126 126 126 126 126 126 126 126 
126 127 127 127 127 127 127 127 127 127 127 128 128 128 128 
128 128 128 128 127 127 127 127 127 127 127 127 127 127 127 
127 127 127 127 127 127 127 127 127 127 127 127 127 127 127 
127 127 127 127 127 127 127 127 127 127 127 127 127 127 127 
127 127 127 127 127 127 127 127 127 127 127 127 127 127 127 
128 128 128 128 128 128 128 128 127 127 127 127 127 127 127 
127 128 128 128 128 128 128 128 128 128 128 128 128 128 128 
128 128 128 128 128 128 99 98 98 96 96 95 94 93 92 
92 91 91 91 90 90 90 87 87 86 84 84 83 82 83 
78 77 76 75 74 73 72 72 73 72 72 72 71 71 71 
70 73 73 73 73 73 73 73 73 74 74 74 74 74 74 
74 74 75 80 74 73 95 126 143 148 144 139 135 115 134 
145 165 164 181 189 201 211 217 217 214 211 207 201 172 106 
94 99 107 84 84 71 63 64 72 77 79 81 76 61 71 
67 56 54 46 54 43 62 67 58 56 70 77 72 79 99 
103 96 81 60 87 152 154 162 174 185 193 204 215 224 216 
222 224 221 220 219 213 205 183 171 165 155 120 111 127 120 
124 124 123 124 125 125 126 126 125 125 125 125 125 125 125 
125 125 125 125 125 125 125 125 125 126 126 126 126 126 126 
126 126 126 126 126 126 126 126 126 126 127 127 127 127 127 
127 127 127 127 127 127 127 127 127 127 127 125 125 125 125 
125 125 125 125 125 125 125 125 125 125 125 125 127 127 127 
127 127 127 127 127 126 126 126 126 126 126 126 126 126 126 
126 126 126 126 126 126 125 125 125 125 125 125 125 125 127 
127 127 127 127 127 127 127 127 127 127 127 127 127 127 127 
127 127 127 127 127 127 127 127 128 128 128 128 128 128 128 
128 127 127 127 127 99 98 98 96 96 95 94 93 92 92 
92 91 91 91 90 90 88 87 87 86 84 83 83 82 79 
78 77 76 75 74 73 72 72 72 72 71 71 70 70 70 
73 73 73 73 73 73 73 73 74 74 74 74 74 74 74 
74 70 73 72 73 95 131 150 148 143 141 133 114 131 142 
162 168 188 194 203 212 215 215 210 207 206 202 165 105 103 
108 108 87 85 71 62 63 54 50 68 96 95 96 104 97 
82 82 91 106 87 73 65 68 77 80 83 88 106 107 80 
54 55 67 102 151 153 159 171 182 192 203 215 221 219 225 
228 225 224 224 219 210 173 174 180 166 115 111 119 123 123 
124 123 123 125 125 125 126 125 125 125 125 125 125 125 125 
125 125 125 125 125 125 125 125 126 126 126 126 126 126 126 
126 126 126 126 126 126 126 126 126 127 127 127 127 127 127 
127 127 127 127 127 127 127 127 127 127 125 125 125 125 125 
125 125 125 125 125 125 125 125 125 125 125 127 127 127 127 
127 127 127 127 126 126 126 126 126 126 126 126 126 126 126 
126 126 126 126 126 125 125 125 125 125 125 125 125 127 127 
127 127 127 127 127 127 127 127 127 127 127 127 127 127 127 
127 127 127 127 127 127 127 127 127 127 127 127 127 127 127 
127 127 127 127 99 98 98 96 96 95 94 93 92 92 92 
92 91 91 91 90 88 87 87 87 86 85 84 83 79 79 
79 78 77 76 75 74 73 73 73 72 72 72 72 72 74 
74 74 74 74 74 74 74 75 75 75 75 75 75 75 75 
72 72 73 71 83 122 147 135 136 136 124 112 133 146 164 
182 194 200 207 213 215 212 207 203 203 201 157 95 97 101 
101 98 98 86 82 78 51 22 38 78 102 109 111 115 117 
117 123 121 127 103 81 76 75 79 94 113 110 102 74 61 
79 93 100 115 152 156 164 176 190 203 212 215 218 225 229 
226 225 225 220 212 176 177 192 164 113 117 116 125 123 123 
123 123 124 125 125 125 125 125 125 125 125 125 125 125 125 
125 125 125 125 125 125 125 125 125 125 125 125 125 125 125 
125 125 125 125 125 125 125 125 126 126 126 126 126 126 126 
126 126 126 126 126 126 126 126 126 125 125 125 125 125 125 
125 125 125 125 125 125 125 125 125 125 126 126 126 126 126 
126 126 126 126 126 126 126 126 126 126 126 125 125 125 125 
125 125 125 125 125 125 125 125 125 125 125 125 127 127 127 
127 127 127 127 127 126 126 126 126 126 126 126 126 126 126 
126 126 126 126 126 126 127 127 127 127 127 127 127 127 126 
126 126 126 99 98 98 96 96 95 94 93 93 93 92 92 
92 92 92 92 89 90 89 88 86 86 85 85 82 82 81 
79 78 77 77 76 75 75 75 75 74 74 74 73 74 74 
74 74 74 74 74 74 77 77 77 77 77 77 77 77 77 
76 80 72 71 110 142 131 134 130 115 111 139 153 164 185 
198 201 207 213 214 212 207 205 202 201 146 83 84 92 100 
118 123 117 118 115 82 40 28 42 89 102 96 103 117 122 
126 115 115 98 75 62 68 84 98 104 93 93 87 83 77 
76 107 157 152 153 158 172 189 203 209 210 215 221 224 224 
222 222 217 211 192 179 191 144 115 123 118 123 123 123 122 
123 124 124 125 125 125 125 125 125 125 125 125 125 125 125 
125 125 125 125 125 125 125 125 125 125 125 125 125 125 125 
125 125 125 125 125 125 125 126 126 126 126 126 126 126 126 
126 126 126 126 126 126 126 126 125 125 125 125 125 125 125 
125 125 125 125 125 125 125 125 125 126 126 126 126 126 126 
126 126 126 126 126 126 126 126 126 126 125 125 125 125 125 
125 125 125 125 125 125 125 125 125 125 125 126 126 126 126 
126 126 126 126 125 125 125 125 125 125 125 125 125 125 125 
125 125 125 125 125 126 126 126 126 126 126 126 126 125 125 
125 125 99 98 98 96 96 95 94 93 94 94 94 94 93 
93 92 92 91 91 90 89 88 88 88 87 85 84 83 82 
80 80 79 78 76 76 75 75 75 75 75 75 76 76 76 
76 76 76 76 76 77 77 77 77 77 77 77 77 77 78 
84 75 65 100 135 133 127 118 104 118 146 162 168 183 199 
201 207 212 214 213 211 208 208 201 142 95 103 120 126 148 
145 141 138 134 117 86 53 32 68 91 93 91 95 101 112 
122 143 97 44 22 41 71 85 84 85 55 34 52 91 115 
128 139 149 150 157 171 188 201 206 208 213 220 224 224 224 
224 221 213 201 176 187 128 122 122 121 121 122 122 122 122 
123 124 124 124 125 125 125 125 125 125 125 125 125 125 125 
125 125 125 125 125 125 125 125 125 125 125 125 125 125 125 
125 125 125 125 125 125 126 126 126 126 126 126 126 126 126 
126 126 126 126 126 126 126 125 125 125 125 125 125 125 125 
125 125 125 125 125 125 125 125 126 126 126 126 126 126 126 
126 126 126 126 126 126 126 126 126 125 125 125 125 125 125 
125 125 125 125 125 125 125 125 125 125 126 126 126 126 126 
126 126 126 125 125 125 125 125 125 125 125 125 125 125 125 
125 125 125 125 126 126 126 126 126 126 126 126 125 125 125 
125 99 98 98 96 96 95 94 93 95 95 94 94 94 93 
93 93 92 91 92 91 89 89 88 88 87 87 85 84 83 
81 81 80 77 77 77 77 77 77 76 76 76 76 76 76 
76 76 76 76 78 78 78 78 78 78 78 78 75 77 81 
71 59 78 103 104 98 88 93 131 155 176 185 198 201 205 
207 212 213 213 211 210 213 199 149 130 150 171 164 171 157 
152 140 129 126 113 77 40 46 65 84 81 91 95 87 108 
115 72 33 29 41 54 63 71 74 88 99 108 126 149 164 
166 148 151 160 173 187 198 206 211 218 225 229 228 228 229 
226 219 198 175 175 124 124 119 120 121 122 122 121 122 123 
123 124 124 125 125 125 125 125 125 125 125 125 125 125 125 
125 125 125 125 124 124 124 124 124 124 124 124 124 124 124 
124 124 124 124 124 125 125 125 125 125 125 125 125 125 125 
125 125 125 125 125 125 125 125 125 125 125 125 125 125 125 
125 125 125 125 125 125 125 125 125 125 125 125 125 125 125 
126 126 126 126 126 126 126 126 125 125 125 125 125 125 125 
125 125 125 125 125 125 125 125 125 125 125 125 125 125 125 
125 125 125 125 125 125 125 125 125 125 125 125 125 125 125 
125 125 125 126 126 126 126 126 126 126 126 125 125 125 125 
99 98 98 96 96 95 94 93 94 94 94 94 94 94 93 
93 94 93 92 92 90 91 90 90 89 88 88 86 84 83 
82 82 79 79 79 78 78 78 77 77 77 77 77 77 77 
77 77 77 80 80 80 80 80 80 80 80 78 78 78 73 
64 65 69 69 70 63 89 147 159 184 199 211 208 210 212 
212 212 210 207 206 207 197 167 166 177 195 182 180 164 164 
156 144 137 125 93 60 32 40 67 62 80 93 69 101 103 
109 123 141 146 135 123 118 104 104 104 102 110 137 159 161 
148 154 164 176 186 197 208 215 217 224 229 229 229 232 227 
220 203 179 145 121 119 124 119 120 121 122 121 121 123 123 
123 124 125 125 125 125 125 125 125 125 125 125 125 125 125 
125 125 125 124 124 124 124 124 124 124 124 124 124 124 124 
124 124 124 124 125 125 125 125 125 125 125 125 125 125 125 
125 125 125 125 125 125 125 125 125 125 125 125 125 125 125 
125 125 125 125 125 125 125 125 125 125 125 125 125 125 126 
126 126 126 126 126 126 126 125 125 125 125 125 125 125 125 
125 125 125 125 125 125 125 125 125 125 125 125 125 125 125 
125 125 125 125 125 125 125 125 125 125 125 125 125 125 125 
125 125 126 126 126 126 126 126 126 126 125 125 125 125 99 
98 98 96 96 95 94 93 94 94 94 94 94 94 93 93 
94 94 93 92 92 90 91 90 90 89 88 87 85 84 83 
83 80 80 79 79 79 78 78 78 78 78 78 78 78 78 
78 78 80 80 80 80 80 80 80 80 80 80 79 80 84 
74 63 61 63 59 98 159 159 178 195 206 215 215 215 213 
211 207 203 201 196 197 181 185 176 186 177 180 163 174 181 
175 162 143 113 88 33 35 67 45 53 74 66 132 175 182 
175 159 154 159 151 133 108 103 106 106 100 109 140 166 147 
155 168 178 186 197 209 218 213 221 225 225 226 229 224 218 
217 183 112 114 116 135 121 119 121 121 121 121 122 123 123 
123 125 125 125 125 125 125 125 125 125 125 125 125 125 125 
125 125 124 124 124 124 124 124 124 124 124 124 124 124 124 
124 124 124 125 125 125 125 125 125 125 125 125 125 125 125 
125 125 125 125 125 125 125 125 125 125 125 125 125 125 125 
125 125 125 125 125 125 125 125 125 125 125 125 125 126 126 
126 126 126 126 126 126 125 125 125 125 125 125 125 125 125 
125 125 125 125 125 125 125 125 125 125 125 125 125 125 125 
125 125 125 125 125 125 125 125 125 125 125 125 125 125 125 
125 126 126 126 126 126 126 126 126 125 125 125 125 97 96 
96 96 96 96 96 95 93 93 93 93 93 93 93 93 92 
92 92 92 92 91 91 91 91 90 90 90 89 89 89 89 
86 86 84 83 82 82 81 82 82 82 82 82 82 82 82 
82 82 82 82 82 82 82 82 82 88 85 80 76 77 77 
75 75 64 97 138 166 176 184 200 215 218 216 213 210 207 
205 204 204 205 185 178 180 177 170 166 184 173 185 183 179 
178 149 106 86 43 14 55 65 65 77 144 192 188 197 168 
148 170 178 161 160 130 108 103 104 114 116 120 155 152 153 
161 173 180 183 192 202 211 209 209 215 223 226 222 217 196 
202 134 105 122 120 121 122 121 121 121 121 121 121 121 121 
125 125 125 125 125 125 125 125 125 125 125 125 125 125 125 
125 125 125 125 125 125 125 125 125 125 125 125 125 125 125 
125 125 125 125 125 125 125 125 125 125 125 125 125 125 125 
125 125 125 125 125 125 125 125 125 125 125 125 125 125 125 
125 125 125 125 125 125 125 125 125 125 125 125 125 125 125 
125 125 125 125 125 125 125 125 125 125 125 125 125 125 125 
125 125 125 125 125 125 125 125 125 125 125 125 125 125 125 
125 125 125 125 125 125 125 125 125 125 125 125 125 125 125 
125 125 125 125 125 125 125 125 125 125 125 125 97 96 96 
96 96 96 96 95 93 93 93 93 93 93 93 93 92 92 
92 92 92 92 91 91 91 91 91 90 90 89 89 89 86 
86 86 84 83 82 82 81 82 82 82 82 82 82 82 82 
82 82 82 82 82 82 82 82 79 77 79 86 87 84 79 
76 93 125 164 185 190 190 200 212 221 215 207 203 201 203 
205 206 204 188 181 182 178 157 166 183 180 190 190 185 184 
166 121 82 52 23 13 33 70 139 165 176 199 182 161 171 
179 178 180 164 141 120 110 104 110 116 121 150 142 149 161 
172 179 181 187 193 210 212 215 218 223 223 223 221 220 204 
152 111 122 130 119 131 121 121 121 121 121 121 121 121 125 
125 125 125 125 125 125 125 125 125 125 125 125 125 125 125 
125 125 125 125 125 125 125 125 125 125 125 125 125 125 125 
125 125 125 125 125 125 125 125 125 125 125 125 125 125 125 
125 125 125 125 125 125 125 125 125 125 125 125 125 125 125 
125 125 125 125 125 125 125 125 125 125 125 125 125 125 125 
125 125 125 125 125 125 125 125 125 125 125 125 125 125 125 
125 125 125 125 125 125 125 125 125 125 125 125 125 125 125 
125 125 125 125 125 125 125 125 125 125 125 125 125 125 125 
125 125 125 125 125 125 125 125 125 125 125 97 96 96 96 
96 96 96 95 94 94 94 94 94 94 94 94 94 94 93 
93 93 92 92 92 92 92 91 91 90 90 90 90 88 87 
86 85 84 83 83 82 83 83 83 83 83 83 83 83 83 
83 83 83 83 83 83 83 100 88 80 83 86 81 77 80 
126 150 179 192 188 187 192 201 216 209 201 199 200 203 203 
202 197 188 183 185 184 144 174 189 187 192 192 184 182 174 
131 75 53 27 1 6 81 159 173 172 188 166 165 192 191 
192 201 164 152 146 142 124 113 112 119 148 144 154 165 171 
176 183 190 194 204 207 211 215 215 215 215 215 231 210 178 
119 112 130 119 129 122 122 122 122 122 122 122 122 125 125 
125 125 125 125 125 125 125 125 125 125 125 125 125 125 125 
125 125 125 125 125 125 125 125 125 125 125 125 125 125 125 
125 125 125 125 125 125 125 125 125 125 125 125 125 125 125 
125 125 125 125 125 125 125 125 125 125 125 125 125 125 125 
125 125 125 125 125 125 125 125 125 125 125 125 125 125 125 
125 125 125 125 125 125 125 125 125 125 125 125 125 125 125 
125 125 125 125 125 125 125 125 125 125 125 125 125 125 125 
125 125 125 125 125 125 125 125 125 125 125 125 125 125 125 
125 125 125 125 125 125 125 125 125 125 97 96 96 96 96 
96 96 95 94 94 94 94 94 94 94 94 95 95 94 94 
94 93 93 93 92 91 91 91 90 90 90 90 89 89 88 
86 85 85 84 84 84 84 84 84 84 84 84 84 84 84 
84 84 84 84 84 84 80 80 86 92 87 79 90 110 163 
175 187 192 192 193 199 207 204 201 199 201 204 204 200 194 
187 187 186 189 192 142 187 200 205 200 199 192 181 172 133 
77 43 18 14 10 104 132 147 155 159 155 178 193 196 208 
197 162 174 175 173 144 125 118 114 134 153 163 170 167 169 
182 193 198 202 204 208 210 212 211 210 209 218 221 203 139 
108 125 124 120 122 122 122 122 122 122 122 122 125 125 125 
125 125 125 125 125 126 126 126 126 126 126 126 126 125 125 
125 125 125 125 125 125 125 125 125 125 125 125 125 125 125 
125 125 125 125 125 125 125 125 125 125 125 125 125 125 125 
125 125 125 125 125 125 125 125 125 125 125 125 125 125 125 
125 125 125 125 125 125 125 125 125 125 125 125 125 125 125 
125 125 125 125 125 125 125 125 125 125 125 125 125 125 125 
125 125 125 125 125 125 125 125 125 125 125 125 125 125 125 
125 125 125 125 125 125 125 125 125 125 125 125 125 125 125 
125 125 125 125 125 125 125 125 125 97 96 96 96 96 96 
96 95 95 95 95 95 95 95 95 95 95 95 94 94 94 
94 94 94 93 92 92 92 91 91 91 90 90 90 89 89 
88 87 86 85 85 85 85 85 85 85 85 85 83 83 83 
83 83 83 83 83 91 90 92 89 80 87 129 173 182 182 
186 193 199 205 207 207 197 197 198 201 204 204 200 196 190 
192 194 197 199 147 188 196 205 198 202 200 179 155 117 73 
36 13 11 14 101 117 120 131 154 158 189 188 202 209 171 
180 202 195 181 145 127 118 107 118 158 171 177 173 172 179 
191 196 204 205 207 211 213 213 211 208 209 225 214 179 131 
116 129 125 123 123 123 123 123 123 123 123 125 125 125 125 
125 125 125 125 126 126 126 126 126 126 126 126 125 125 125 
125 125 125 125 125 125 125 125 125 125 125 125 125 125 125 
125 125 125 125 125 125 125 125 125 125 125 125 125 125 125 
125 125 125 125 125 125 125 125 125 125 125 125 125 125 125 
125 125 125 125 125 125 125 125 125 125 125 125 125 125 125 
125 125 125 125 125 125 125 125 125 125 125 125 125 125 125 
125 125 125 125 125 125 125 125 125 125 125 125 125 125 125 
125 125 125 125 125 125 125 125 125 125 125 125 125 125 125 
125 125 125 125 125 125 125 125 97 96 96 96 96 96 96 
95 95 95 95 95 95 95 95 95 96 96 95 95 94 94 
94 94 93 93 93 93 92 92 92 92 92 91 91 90 89 
88 87 87 86 86 86 86 86 86 86 86 84 84 84 84 
84 84 84 84 92 80 72 80 98 124 157 184 183 184 188 
198 206 208 203 199 196 197 198 199 199 201 204 205 198 199 
201 202 198 154 174 175 190 189 197 194 172 138 96 64 34 
23 1 4 41 111 122 142 175 167 181 186 209 193 159 214 
204 204 191 141 100 88 96 129 164 178 192 191 185 183 185 
189 193 196 200 201 201 199 198 199 204 210 202 207 167 114 
124 126 123 123 123 123 123 123 123 123 125 125 125 125 125 
125 125 125 126 126 126 126 126 126 126 126 125 125 125 125 
125 125 125 125 125 125 125 125 125 125 125 125 125 125 125 
125 125 125 125 125 125 125 125 125 125 125 125 125 125 125 
125 125 125 125 125 125 125 125 125 125 125 125 125 125 125 
125 125 125 125 125 125 125 125 125 125 125 125 125 125 125 
125 125 125 125 125 125 125 125 125 125 125 125 125 125 125 
125 125 125 125 125 125 125 125 125 125 125 125 125 125 125 
125 125 125 125 125 125 125 125 125 125 125 125 125 125 125 
125 125 125 125 125 125 125 97 96 96 96 96 96 96 95 
95 95 95 95 95 95 95 95 96 96 96 96 96 96 95 
95 94 94 94 93 93 92 92 92 93 92 91 91 90 89 
89 89 88 88 88 88 88 88 88 88 84 84 84 84 84 
84 84 84 79 97 129 167 195 205 202 199 192 196 201 204 
205 202 198 196 191 197 203 203 200 200 206 211 198 198 202 
200 191 165 157 152 163 174 173 160 145 119 79 52 23 19 
0 2 6 105 132 149 157 148 136 164 189 162 162 215 197 
201 191 136 86 71 94 146 165 178 193 195 186 174 172 177 
173 184 193 190 180 174 181 188 205 196 195 207 193 150 124 
121 124 124 124 124 124 124 124 124 125 125 125 125 125 125 
125 125 127 127 127 127 127 127 127 127 125 125 125 125 125 
125 125 125 126 126 126 126 126 126 126 126 125 125 125 125 
125 125 125 125 125 125 125 125 125 125 125 125 125 125 125 
125 125 125 125 125 125 125 125 125 125 125 125 125 125 125 
125 125 125 125 125 125 125 125 125 125 125 125 125 125 125 
125 125 125 125 125 125 125 125 125 125 125 125 125 125 125 
125 125 125 125 125 125 125 125 125 125 125 125 125 125 125 
125 125 125 125 125 125 125 125 125 125 125 125 125 125 125 
125 125 125 125 125 125 97 96 96 96 96 96 96 95 96 
96 96 96 96 96 96 96 97 97 96 96 96 96 96 96 
95 95 95 95 94 94 94 93 93 93 92 91 91 90 89 
89 89 89 89 89 89 89 89 89 84 84 84 84 84 84 
84 84 82 133 187 201 184 168 174 187 190 194 199 195 186 
181 181 185 184 196 208 211 205 201 205 210 192 191 198 196 
187 173 149 141 126 143 128 102 95 84 50 26 11 1 0 
17 34 110 134 122 106 110 82 128 153 130 164 185 206 193 
172 127 97 89 100 138 158 167 177 181 168 154 153 163 162 
181 195 189 172 162 173 189 211 198 203 198 207 197 138 117 
124 124 124 124 124 124 124 124 125 125 125 125 125 125 125 
125 127 127 127 127 127 127 127 127 125 125 125 125 125 125 
125 125 126 126 126 126 126 126 126 126 125 125 125 125 125 
125 125 125 125 125 125 125 125 125 125 125 125 125 125 125 
125 125 125 125 125 125 125 125 125 125 125 125 125 125 125 
125 125 125 125 125 125 125 125 125 125 125 125 125 125 125 
125 125 125 125 125 125 125 125 125 125 125 125 125 125 125 
125 125 125 125 125 125 125 125 125 125 125 125 125 125 125 
125 125 125 125 125 125 125 125 125 125 125 125 125 125 125 
125 125 125 125 125 97 98 98 98 99 99 99 100 101 101 
101 101 101 101 101 101 99 99 99 99 99 99 99 99 98 
98 98 98 98 98 98 98 96 96 96 96 96 95 95 95 
91 91 91 91 91 91 90 90 88 78 86 82 77 81 79 
86 103 177 203 186 160 180 194 203 193 188 181 161 161 185 
191 198 198 189 205 208 206 202 186 195 194 163 204 198 190 
185 163 134 108 111 106 88 59 32 16 11 17 9 6 21 
57 88 99 98 95 115 121 119 126 132 145 166 186 183 151 
105 90 78 85 142 162 184 187 195 167 109 154 170 173 187 
181 198 208 148 160 183 192 202 213 204 208 212 168 123 125 
125 125 125 125 125 125 125 125 125 125 125 125 125 125 125 
125 125 125 125 125 125 125 125 125 125 125 125 125 125 125 
125 125 125 125 125 125 125 125 125 125 125 125 125 125 125 
125 125 125 125 125 125 125 125 125 125 125 125 125 125 125 
125 125 125 125 125 125 125 125 125 125 125 125 125 125 125 
125 125 125 125 125 125 125 125 125 125 125 125 125 125 125 
125 125 125 125 125 125 125 125 125 125 125 125 125 125 125 
125 125 125 125 125 125 125 125 125 125 125 125 125 125 125 
125 125 125 125 125 125 125 125 125 125 125 125 125 125 125 
125 125 125 125 99 99 99 99 99 100 100 100 101 101 101 
101 101 101 101 101 100 100 100 100 100 100 100 100 99 99 
99 99 99 99 99 99 97 97 97 96 96 96 96 96 93 
93 93 93 92 92 92 92 95 88 93 86 81 80 78 95 
158 191 191 157 182 182 211 198 206 198 184 165 176 205 205 
204 204 198 205 199 195 192 173 173 172 125 162 174 173 167 
162 163 133 108 74 45 31 30 30 32 24 29 36 38 39 
50 67 82 93 100 109 118 118 112 123 151 170 172 136 80 
64 66 80 132 158 175 181 202 167 114 150 163 166 173 186 
193 205 177 155 170 190 213 213 203 207 211 180 127 125 125 
125 125 125 125 125 125 125 125 125 125 125 125 125 125 125 
125 125 125 125 125 125 125 125 125 125 125 125 125 125 125 
125 125 125 125 125 125 125 125 125 125 125 125 125 125 125 
125 125 125 125 125 125 125 125 125 125 125 125 125 125 125 
125 125 125 125 125 125 125 125 125 125 125 125 125 125 125 
125 125 125 125 125 125 125 125 125 125 125 125 125 125 125 
125 125 125 125 125 125 125 125 125 125 125 125 125 125 125 
125 125 125 125 125 125 125 125 125 125 125 125 125 125 125 
125 125 125 125 125 125 125 125 125 125 125 125 125 125 125 
125 125 125 101 101 101 101 102 102 103 103 102 102 102 102 
102 102 102 102 101 101 101 101 101 101 101 101 101 101 101 
101 101 101 101 101 99 99 99 98 98 98 98 98 95 95 
95 94 94 94 94 94 96 92 91 88 87 79 76 110 190 
196 159 144 194 192 220 203 207 198 182 160 184 214 211 203 
207 206 207 193 188 189 169 153 159 98 114 125 109 82 81 
103 108 86 59 47 49 55 58 59 45 47 47 43 39 39 
45 51 66 78 100 112 104 98 110 122 144 147 113 55 41 
60 86 138 150 158 167 202 158 113 140 146 161 162 192 181 
192 203 143 148 183 214 204 198 202 203 186 129 125 125 125 
125 125 125 125 125 125 125 125 125 125 125 125 125 125 125 
125 125 125 125 125 125 125 125 125 125 125 125 125 125 125 
125 125 125 125 125 125 125 125 125 125 125 125 125 125 125 
125 125 125 125 125 125 125 125 125 125 125 125 125 125 125 
125 125 125 125 125 125 125 125 125 125 125 125 125 125 125 
125 125 125 125 125 125 125 125 125 125 125 125 125 125 125 
125 125 125 125 125 125 125 125 125 125 125 125 125 125 125 
125 125 125 125 125 125 125 125 125 125 125 125 125 125 125 
125 125 125 125 125 125 125 125 125 125 125 125 125 125 125 
125 125 101 102 102 102 103 103 103 103 105 105 105 105 105 
105 105 105 104 104 104 104 104 104 104 104 103 103 103 103 
103 103 103 103 102 102 101 101 101 101 101 101 99 99 99 
98 98 98 97 97 94 94 93 90 92 84 84 128 173 191 
122 162 185 203 207 206 205 202 190 159 184 209 211 210 204 
210 208 191 186 188 167 138 104 60 68 75 54 37 40 61 
81 86 92 96 96 95 96 95 85 76 69 66 68 66 57 
51 55 78 108 107 92 100 106 92 94 97 76 32 25 46 
77 128 142 140 148 192 146 113 134 138 153 159 179 159 162 
193 130 123 173 203 190 197 200 188 180 132 126 126 126 126 
126 126 126 126 125 125 125 125 125 125 125 125 125 125 125 
125 125 125 125 125 125 125 125 125 125 125 125 125 125 125 
125 125 125 125 125 125 125 125 125 125 125 125 125 125 125 
125 125 125 125 125 125 125 125 125 125 125 125 125 125 125 
125 125 125 125 125 125 125 125 125 125 125 125 125 125 125 
125 125 125 125 125 125 125 125 125 125 125 125 125 125 125 
125 125 125 125 125 125 125 125 125 125 125 125 125 125 125 
125 125 125 125 125 125 125 125 125 125 125 125 125 125 125 
125 125 125 125 125 125 125 125 125 125 125 125 125 125 125 
125 103 103 104 104 105 105 105 105 106 106 106 106 106 106 
106 106 106 106 106 106 106 106 106 106 106 106 106 106 106 
106 106 106 106 106 105 105 104 104 104 104 102 101 101 101 
100 100 100 100 98 97 98 94 99 90 90 134 146 164 98 
170 177 201 194 202 197 202 199 159 179 191 199 211 201 212 
204 190 182 175 150 115 94 88 103 107 97 104 110 115 108 
118 128 132 128 124 125 129 121 119 115 111 104 96 90 87 
72 87 106 98 82 86 89 72 79 80 77 58 52 54 69 
111 128 118 125 170 136 120 141 145 153 169 168 150 145 175 
146 130 161 179 170 192 193 168 163 133 126 126 126 126 126 
126 126 126 125 125 125 125 125 125 125 125 125 125 125 125 
125 125 125 125 125 125 125 125 125 125 125 125 125 125 125 
125 125 125 125 125 125 125 125 125 125 125 125 125 125 125 
125 125 125 125 125 125 125 125 125 125 125 125 125 125 125 
125 125 125 125 125 125 125 125 125 125 125 125 125 125 125 
125 125 125 125 125 125 125 125 125 125 125 125 125 125 125 
125 125 125 125 125 125 125 125 125 125 125 125 125 125 125 
125 125 125 125 125 125 125 125 125 125 125 125 125 125 125 
125 125 125 125 125 125 125 125 125 125 125 125 125 125 125 
106 106 107 107 107 108 108 108 108 108 108 108 108 108 108 
108 109 109 109 109 109 109 109 109 108 108 108 108 108 108 
108 108 108 108 108 108 107 107 106 106 105 105 104 104 103 
103 103 103 103 99 100 95 94 87 85 116 120 119 86 150 
171 186 195 199 195 201 199 155 173 170 180 202 197 206 195 
185 173 155 136 105 101 116 125 124 113 128 127 117 130 129 
129 130 130 130 130 131 130 132 135 131 125 121 120 123 131 
125 127 129 120 113 118 122 110 111 121 115 108 94 86 109 
109 97 103 138 126 119 139 142 144 162 154 142 137 154 158 
144 141 145 143 168 167 140 135 126 126 126 126 126 126 126 
126 126 125 125 125 125 125 125 125 125 125 125 125 125 125 
125 125 125 125 125 125 125 125 125 125 125 125 125 125 125 
125 125 125 125 125 125 125 125 125 125 125 125 125 125 125 
125 125 125 125 125 125 125 125 125 125 125 125 125 125 125 
125 125 125 125 125 125 125 125 125 125 125 125 125 125 125 
125 125 125 125 125 125 125 125 125 125 125 125 125 125 125 
125 125 125 125 125 125 125 125 125 125 125 125 125 125 125 
125 125 125 125 125 125 125 125 125 125 125 125 125 125 125 
125 125 125 125 125 125 125 125 125 125 125 125 125 125 107 
107 107 107 108 108 108 109 110 110 110 110 110 110 110 110 
111 111 111 111 111 111 111 111 110 110 110 110 110 110 110 
110 110 110 110 110 109 109 109 108 108 108 108 107 107 106 
106 106 108 101 105 100 97 92 89 108 104 90 88 131 144 
150 172 180 187 184 175 132 157 145 149 170 163 168 157 159 
153 133 129 114 117 128 126 132 120 131 125 121 125 123 122 
124 128 127 125 123 125 125 124 125 125 128 129 131 132 124 
120 124 129 123 121 133 126 129 140 134 129 121 108 115 110 
99 103 121 125 116 130 129 125 130 135 124 121 127 138 133 
126 125 127 139 136 122 119 121 127 127 127 127 127 127 127 
127 125 125 125 125 125 125 125 125 125 125 125 125 125 125 
125 125 125 125 125 125 125 125 125 125 125 125 125 125 125 
125 125 125 125 125 125 125 125 125 125 125 125 125 125 125 
125 125 125 125 125 125 125 125 125 125 125 125 125 125 125 
125 125 125 125 125 125 125 125 125 125 125 125 125 125 125 
125 125 125 125 125 125 125 125 125 125 125 125 125 125 125 
125 125 125 125 125 125 125 125 125 125 125 125 125 125 125 
125 125 125 125 125 125 125 125 125 125 125 125 125 125 125 
125 125 125 125 125 125 125 125 125 125 125 125 125 107 107 
108 108 108 109 109 109 110 110 110 110 110 110 110 110 112 
112 112 112 112 112 112 112 109 109 109 109 109 109 109 109 
111 110 110 110 110 110 110 109 109 109 109 109 108 108 107 
107 117 109 116 113 108 109 109 116 100 89 98 133 111 113 
131 150 157 142 126 87 121 104 99 118 114 116 109 125 126 
113 123 124 130 131 121 136 123 126 123 127 126 127 128 130 
129 125 125 123 122 127 129 125 119 118 123 130 128 132 124 
123 134 134 124 123 125 127 131 123 123 133 128 129 130 122 
123 125 137 120 128 122 124 116 137 122 124 120 125 128 130 
126 131 128 125 125 126 132 127 127 127 127 127 127 127 127 
125 125 125 125 125 125 125 125 125 125 125 125 125 125 125 
125 125 125 125 125 125 125 125 125 125 125 125 125 125 125 
125 125 125 125 125 125 125 125 125 125 125 125 125 125 125 
125 125 125 125 125 125 125 125 125 125 125 125 125 125 125 
125 125 125 125 125 125 125 125 125 125 125 125 125 125 125 
125 125 125 125 125 125 125 125 125 125 125 125 125 125 125 
125 125 125 125 125 125 125 125 125 125 125 125 125 125 125 
125 125 125 125 125 125 125 125 125 125 125 125 125 125 125 
125 125 125 125 125 125 125 125 125 125 125 125 112 112 112 
112 112 112 112 112 115 115 115 115 115 115 115 115 115 115 
115 115 115 115 115 115 112 112 112 112 112 112 112 112 112 
112 112 112 112 112 112 112 110 110 110 111 111 112 112 112 
113 114 115 118 120 122 123 124 121 121 121 121 121 121 121 
121 121 121 121 121 121 121 121 121 124 124 124 124 124 124 
124 124 123 123 123 124 124 124 125 125 126 126 126 126 126 
126 126 126 126 126 126 126 126 126 126 126 126 126 126 126 
126 126 126 126 125 125 125 125 125 125 125 125 126 126 126 
126 126 126 126 126 126 126 126 126 126 126 126 126 127 127 
127 127 127 127 127 127 125 125 125 125 125 125 125 125 125 
125 125 125 125 125 125 125 125 125 125 125 125 125 125 125 
125 125 125 125 125 125 125 125 125 125 125 125 125 125 125 
125 125 125 125 125 125 125 125 125 125 125 125 125 125 125 
125 125 125 125 125 125 125 125 125 125 125 125 125 125 125 
125 125 125 125 125 125 125 125 125 125 125 125 125 125 125 
125 125 125 125 125 125 125 125 125 125 125 125 125 125 125 
125 125 125 125 125 125 125 125 125 125 125 125 125 125 125 
125 125 125 125 125 125 125 125 125 125 125 125 125 125 125 
125 125 125 125 125 125 125 125 125 125 125 112 112 112 112 
112 112 112 112 115 115 115 115 115 115 115 115 115 115 115 
115 115 115 115 115 112 112 112 112 112 112 112 112 112 112 
112 112 112 112 112 112 111 112 112 112 113 113 113 114 114 
114 116 118 120 121 122 123 121 121 121 121 121 121 121 121 
121 121 121 121 121 121 121 121 124 124 124 124 124 124 124 
124 122 123 123 123 124 124 124 125 126 126 126 126 126 126 
126 126 126 126 126 126 126 126 126 126 126 126 126 126 126 
126 126 126 125 125 125 125 125 125 125 125 126 126 126 126 
126 126 126 126 126 126 126 126 126 126 126 126 127 127 127 
127 127 127 127 127 125 125 125 125 125 125 125 125 125 125 
125 125 125 125 125 125 125 125 125 125 125 125 125 125 125 
125 125 125 125 125 125 125 125 125 125 125 125 125 125 125 
125 125 125 125 125 125 125 125 125 125 125 125 125 125 125 
125 125 125 125 125 125 125 125 125 125 125 125 125 125 125 
125 125 125 125 125 125 125 125 125 125 125 125 125 125 125 
125 125 125 125 125 125 125 125 125 125 125 125 125 125 125 
125 125 125 125 125 125 125 125 125 125 125 125 125 125 125 
125 125 125 125 125 125 125 125 125 125 125 125 125 125 125 
125 125 125 125 125 125 125 125 125 125 112 112 112 112 112 
112 112 112 115 115 115 115 115 115 115 115 115 115 115 115 
115 115 115 115 113 113 113 113 113 113 113 113 113 113 113 
113 113 113 113 113 113 113 113 113 113 113 113 114 114 116 
117 119 120 121 122 123 121 121 121 121 121 121 121 121 121 
121 121 121 121 121 121 121 123 123 123 123 123 123 123 123 
122 122 123 123 123 124 124 124 126 126 126 126 126 126 126 
126 126 126 126 126 126 126 126 126 126 126 126 126 126 126 
126 126 125 125 125 125 125 125 125 125 126 126 126 126 126 
126 126 126 126 126 126 126 126 126 126 126 127 127 127 127 
127 127 127 127 125 125 125 125 125 125 125 125 125 125 125 
125 125 125 125 125 125 125 125 125 125 125 125 125 125 125 
125 125 125 125 125 125 125 125 125 125 125 125 125 125 125 
125 125 125 125 125 125 125 125 125 125 125 125 125 125 125 
125 125 125 125 125 125 125 125 125 125 125 125 125 125 125 
125 125 125 125 125 125 125 125 125 125 125 125 125 125 125 
125 125 125 125 125 125 125 125 125 125 125 125 125 125 125 
125 125 125 125 125 125 125 125 125 125 125 125 125 125 125 
125 125 125 125 125 125 125 125 125 125 125 125 125 125 125 
125 125 125 125 125 125 125 125 125 112 112 112 112 112 112 
112 112 115 115 115 115 115 115 115 115 115 115 115 115 115 
115 115 115 113 113 113 113 113 113 113 113 112 112 112 112 
112 112 112 112 114 114 114 115 115 115 116 116 117 117 118 
119 119 120 121 122 122 122 122 122 122 122 122 122 122 122 
122 122 122 122 122 122 123 123 123 123 123 123 123 123 122 
122 122 123 123 123 124 124 126 126 126 126 126 126 126 126 
126 126 126 126 126 126 126 126 126 126 126 126 126 126 126 
126 125 125 125 125 125 125 125 125 126 126 126 126 126 126 
126 126 126 126 126 126 126 126 126 126 127 127 127 127 127 
127 127 127 125 125 125 125 125 125 125 125 125 125 125 125 
125 125 125 125 125 125 125 125 125 125 125 125 125 125 125 
125 125 125 125 125 125 125 125 125 125 125 125 125 125 125 
125 125 125 125 125 125 125 125 125 125 125 125 125 125 125 
125 125 125 125 125 125 125 125 125 125 125 125 125 125 125 
125 125 125 125 125 125 125 125 125 125 125 125 125 125 125 
125 125 125 125 125 125 125 125 125 125 125 125 125 125 125 
125 125 125 125 125 125 125 125 125 125 125 125 125 125 125 
125 125 125 125 125 125 125 125 125 125 125 125 125 125 125 
125 125 125 125 125 125 125 125 113 113 113 113 113 113 113 
113 115 115 115 115 115 115 115 115 115 115 115 115 115 115 
115 115 114 114 114 114 114 114 114 114 113 113 113 113 113 
113 113 113 115 115 116 116 117 117 117 117 119 119 120 119 
120 120 122 122 122 122 122 122 122 122 122 122 122 122 122 
122 122 122 122 122 122 122 122 122 122 122 122 122 121 121 
122 122 122 123 123 123 126 126 126 126 126 126 126 126 126 
126 126 126 126 126 126 126 126 126 126 126 126 126 126 126 
125 125 125 125 125 125 125 125 126 126 126 126 126 126 126 
126 126 126 126 126 126 126 126 126 127 127 127 127 127 127 
127 127 125 125 125 125 125 125 125 125 125 125 125 125 125 
125 125 125 125 125 125 125 125 125 125 125 125 125 125 125 
125 125 125 125 125 125 125 125 125 125 125 125 125 125 125 
125 125 125 125 125 125 125 125 125 125 125 125 125 125 125 
125 125 125 125 125 125 125 125 125 125 125 125 125 125 125 
125 125 125 125 125 125 125 125 125 125 125 125 125 125 125 
125 125 125 125 125 125 125 125 125 125 125 125 125 125 125 
125 125 125 125 125 125 125 125 125 125 125 125 125 125 125 
125 125 125 125 125 125 125 125 125 125 125 125 125 125 125 
125 125 125 125 125 125 125 113 113 113 113 113 113 113 113 
115 115 115 115 115 115 115 115 115 115 115 115 115 115 115 
115 114 114 114 114 114 114 114 114 113 113 113 113 113 113 
113 113 117 117 117 117 118 118 119 119 121 121 120 120 120 
121 121 121 122 122 122 122 122 122 122 122 122 122 122 122 
122 122 122 122 122 122 122 122 122 122 122 122 121 121 121 
122 122 122 123 123 126 126 126 126 126 126 126 126 126 126 
126 126 126 126 126 126 126 126 126 126 126 126 126 126 125 
125 125 125 125 125 125 125 126 126 126 126 126 126 126 126 
126 126 126 126 126 126 126 126 127 127 127 127 127 127 127 
127 125 125 125 125 125 125 125 125 125 125 125 125 125 125 
125 125 125 125 125 125 125 125 125 125 125 125 125 125 125 
125 125 125 125 125 125 125 125 125 125 125 125 125 125 125 
125 125 125 125 125 125 125 125 125 125 125 125 125 125 125 
125 125 125 125 125 125 125 125 125 125 125 125 125 125 125 
125 125 125 125 125 125 125 125 125 125 125 125 125 125 125 
125 125 125 125 125 125 125 125 125 125 125 125 125 125 125 
125 125 125 125 125 125 125 125 125 125 125 125 125 125 125 
125 125 125 125 125 125 125 125 125 125 125 125 125 125 125 
125 125 125 125 125 125 114 114 114 114 114 114 114 114 115 
115 115 115 115 115 115 115 115 115 115 115 115 115 115 115 
114 114 114 114 114 114 114 114 113 113 113 113 113 113 113 
113 118 118 118 118 118 118 119 119 121 121 121 120 121 121 
120 120 121 121 121 121 121 121 121 121 121 121 121 121 121 
121 121 121 121 121 121 121 121 121 121 121 121 121 121 121 
122 122 122 123 126 126 126 126 126 126 126 126 126 126 126 
126 126 126 126 126 126 126 126 126 126 126 126 126 125 125 
125 125 125 125 125 125 126 126 126 126 126 126 126 126 126 
126 126 126 126 126 126 126 127 127 127 127 127 127 127 127 
125 125 125 125 125 125 125 125 125 125 125 125 125 125 125 
125 125 125 125 125 125 125 125 125 125 125 125 125 125 125 
125 125 125 125 125 125 125 125 125 125 125 125 125 125 125 
125 125 125 125 125 125 125 125 125 125 125 125 125 125 125 
125 125 125 125 125 125 125 125 125 125 125 125 125 125 125 
125 125 125 125 125 125 125 125 125 125 125 125 125 125 125 
125 125 125 125 125 125 125 125 125 125 125 125 125 125 125 
125 125 125 125 125 125 125 125 125 125 125 125 125 125 125 
125 125 125 125 125 125 125 125 125 125 125 125 125 125 125 
125 125 125 125 125 115 115 115 115 115 115 115 115 115 115 
115 115 115 115 115 115 115 115 115 115 115 115 115 115 115 
115 115 115 115 115 115 115 115 115 115 115 115 115 115 115 
118 118 119 119 119 120 120 120 122 122 121 121 121 120 120 
120 121 121 121 121 121 121 121 121 121 121 121 121 121 121 
121 121 121 121 121 121 121 121 121 121 121 121 121 121 121 
122 122 122 126 126 126 126 126 126 126 126 126 126 126 126 
126 126 126 126 126 126 126 126 126 126 126 126 125 125 125 
125 125 125 125 125 126 126 126 126 126 126 126 126 126 126 
126 126 126 126 126 126 127 127 127 127 127 127 127 127 125 
125 125 125 125 125 125 125 125 125 125 125 125 125 125 125 
125 125 125 125 125 125 125 125 125 125 125 125 125 125 125 
125 125 125 125 125 125 125 125 125 125 125 125 125 125 125 
125 125 125 125 125 125 125 125 125 125 125 125 125 125 125 
125 125 125 125 125 125 125 125 125 125 125 125 125 125 125 
125 125 125 125 125 125 125 125 125 125 125 125 125 125 125 
125 125 125 125 125 125 125 125 125 125 125 125 125 125 125 
125 125 125 125 125 125 125 125 125 125 125 125 125 125 125 
125 125 125 125 125 125 125 125 125 125 125 125 125 125 125 
125 125 125 125 114 114 114 114 114 114 114 114 115 115 115 
115 115 115 115 115 115 115 115 115 115 115 115 115 115 115 
115 115 115 115 115 115 114 114 116 117 118 119 120 120 122 
122 122 122 122 122 122 122 121 121 121 121 121 121 121 121 
121 121 121 121 121 121 121 121 121 121 121 121 121 121 121 
121 121 121 121 121 121 121 121 121 121 121 121 121 122 122 
122 122 125 125 125 125 125 125 125 125 125 125 125 125 125 
125 125 125 125 125 125 125 125 125 125 125 125 125 125 125 
125 125 125 125 125 125 125 125 125 125 125 125 125 125 125 
125 125 125 125 125 126 126 126 126 126 126 126 126 125 125 
125 125 125 125 125 125 125 125 125 125 125 125 125 125 125 
125 125 125 125 125 125 125 125 125 125 125 125 125 125 125 
125 125 125 125 125 125 125 125 125 125 125 125 125 125 125 
125 125 125 125 125 125 125 125 125 125 125 125 125 125 125 
125 125 125 125 125 125 125 125 125 125 125 125 125 125 125 
125 125 125 125 125 125 125 125 125 125 125 125 125 125 125 
125 125 125 125 125 125 125 125 125 125 125 125 125 125 125 
125 125 125 125 125 125 125 125 125 125 125 125 125 125 125 
125 125 125 125 125 125 125 125 125 125 125 125 125 125 125 
125 125 125 114 114 114 114 114 114 114 114 115 115 115 115 
115 115 115 115 115 115 115 115 115 115 115 115 115 115 115 
115 115 115 115 115 114 114 116 117 118 119 120 120 122 122 
122 122 122 122 122 122 121 121 121 121 121 121 121 121 121 
121 121 121 121 121 121 121 121 121 121 121 121 121 121 121 
121 121 121 121 121 121 121 121 121 121 121 121 122 122 122 
122 125 125 125 125 125 125 125 125 125 125 125 125 125 125 
125 125 125 125 125 125 125 125 125 125 125 125 125 125 125 
125 125 125 125 125 125 125 125 125 125 125 125 125 125 125 
125 125 125 125 126 126 126 126 126 126 126 126 125 125 125 
125 125 125 125 125 125 125 125 125 125 125 125 125 125 125 
125 125 125 125 125 125 125 125 125 125 125 125 125 125 125 
125 125 125 125 125 125 125 125 125 125 125 125 125 125 125 
125 125 125 125 125 125 125 125 125 125 125 125 125 125 125 
125 125 125 125 125 125 125 125 125 125 125 125 125 125 125 
125 125 125 125 125 125 125 125 125 125 125 125 125 125 125 
125 125 125 125 125 125 125 125 125 125 125 125 125 125 125 
125 125 125 125 125 125 125 125 125 125 125 125 125 125 125 
125 125 125 125 125 125 125 125 125 125 125 125 125 125 125 
125 125 